; G-Code generated by Simplify3D(R) Version 4.0.1
; Aug 2, 2018 at 2:59:21 PM
; Settings Summary
;   processName,Process1
;   applyToModels,service module
;   profileName,re3D GB3+ Rev4.3(3) (modified)
;   profileVersion,2018-06-18 09:37:30
;   baseProfile,re3D GB3+
;   printMaterial,PLA
;   printQuality,Higher Resolution - Raft
;   printExtruders,Left Extruder Only
;   extruderName,Right Extruder,Left Extruder
;   extruderToolheadNumber,1,0
;   extruderDiameter,0.4,0.4
;   extruderAutoWidth,1,1
;   extruderWidth,0.48,0.48
;   extrusionMultiplier,1,1
;   extruderUseRetract,1,1
;   extruderRetractionDistance,1,1
;   extruderExtraRestartDistance,0,0
;   extruderRetractionZLift,0,0
;   extruderRetractionSpeed,3600,3600
;   extruderUseCoasting,0,0
;   extruderCoastingDistance,0.08,0.08
;   extruderUseWipe,0,0
;   extruderWipeDistance,5,5
;   primaryExtruder,1
;   layerHeight,0.2223
;   topSolidLayers,3
;   bottomSolidLayers,3
;   perimeterOutlines,2
;   printPerimetersInsideOut,1
;   startPointOption,2
;   startPointOriginX,300
;   startPointOriginY,600
;   sequentialIslands,0
;   spiralVaseMode,0
;   firstLayerHeightPercentage,100
;   firstLayerWidthPercentage,100
;   firstLayerUnderspeed,2
;   useRaft,1
;   raftExtruder,1
;   raftTopLayers,2
;   raftBaseLayers,1
;   raftOffset,3
;   raftSeparationDistance,0.22
;   raftTopInfill,100
;   aboveRaftSpeedMultiplier,1
;   useSkirt,0
;   skirtExtruder,1
;   skirtLayers,1
;   skirtOutlines,1
;   skirtOffset,15
;   usePrimePillar,0
;   primePillarExtruder,999
;   primePillarWidth,25
;   primePillarLocation,7
;   primePillarSpeedMultiplier,0.95
;   useOozeShield,0
;   oozeShieldExtruder,999
;   oozeShieldOffset,2
;   oozeShieldOutlines,1
;   oozeShieldSidewallShape,1
;   oozeShieldSidewallAngle,30
;   oozeShieldSpeedMultiplier,1
;   infillExtruder,1
;   internalInfillPattern,Rectilinear
;   externalInfillPattern,Rectilinear
;   infillPercentage,15
;   outlineOverlapPercentage,15
;   infillExtrusionWidthPercentage,100
;   minInfillLength,5
;   infillLayerInterval,1
;   internalInfillAngles,45,-45
;   overlapInternalInfillAngles,0
;   externalInfillAngles,45,-45
;   generateSupport,1
;   supportExtruder,1
;   supportInfillPercentage,15
;   supportExtraInflation,0
;   supportBaseLayers,0
;   denseSupportExtruder,1
;   denseSupportLayers,2
;   denseSupportInfillPercentage,100
;   supportLayerInterval,1
;   supportHorizontalPartOffset,0.5
;   supportUpperSeparationLayers,1
;   supportLowerSeparationLayers,1
;   supportType,0
;   supportGridSpacing,2
;   maxOverhangAngle,55
;   supportAngles,-45,45,-45,-45,-45,-45,-45,-45,-45,-45,-45
;   temperatureName,Left Extruder,Right Extruder,Heated Bed,Left Cool,Right Cool
;   temperatureNumber,0,1,0,2,3
;   temperatureSetpointCount,1,1,1,1,1
;   temperatureSetpointLayers,1,1,1,1,1
;   temperatureSetpointTemperatures,205,0,60,0,0
;   temperatureStabilizeAtStartup,1,0,1,1,1
;   temperatureHeatedBed,0,0,1,0,0
;   temperatureRelayBetweenLayers,0,0,0,0,0
;   temperatureRelayBetweenLoops,0,0,0,0,0
;   fanLayers,2
;   fanSpeeds,100
;   blipFanToFullPower,1
;   adjustSpeedForCooling,1
;   minSpeedLayerTime,7
;   minCoolingSpeedSlowdown,25
;   increaseFanForCooling,0
;   minFanLayerTime,45
;   maxCoolingFanSpeed,100
;   increaseFanForBridging,0
;   bridgingFanSpeed,100
;   use5D,1
;   relativeEdistances,0
;   allowEaxisZeroing,1
;   independentExtruderAxes,0
;   includeM10123,0
;   stickySupport,1
;   applyToolheadOffsets,0
;   gcodeXoffset,0
;   gcodeYoffset,0
;   gcodeZoffset,0
;   overrideMachineDefinition,1
;   machineTypeOverride,0
;   strokeXoverride,590
;   strokeYoverride,760
;   strokeZoverride,600
;   originOffsetXoverride,0
;   originOffsetYoverride,0
;   originOffsetZoverride,0
;   homeXdirOverride,-1
;   homeYdirOverride,-1
;   homeZdirOverride,-1
;   flipXoverride,1
;   flipYoverride,-1
;   flipZoverride,1
;   toolheadOffsets,0,0|0,0|0,0|0,0|0,0|0,0
;   overrideFirmwareConfiguration,1
;   firmwareTypeOverride,RepRap (Marlin/Repetier/Sprinter)
;   GPXconfigOverride,r2
;   baudRateOverride,250000
;   overridePrinterModels,0
;   printerModelsOverride
;   startingGcode,M540 S1,M92 X118.52 ; calibrate X,M92 Y118.52 ; calibrate Y,M92 Z4031.5 ; calibrate Z,M92 E947 ; calibrate E,M220 S100,M221 S100,M900 K0.075,T0,G28,M290 Z0.0,G92 E0,G1 Z0.3 F200,,
;   layerChangeGcode,
;   retractionGcode,
;   toolChangeGcode, 
;   endingGcode,T0,G1 E-3 F200,M104 S0,T1,G1 E-3 F200,M104 S0,M190 S0,G28 X0 Y0,M18,M107,
;   exportFileFormat,gcode
;   celebration,0
;   celebrationSong,Funky Town
;   postProcessing,{REPLACE "; layer" "M117 Layer"},{REPLACE " Z = " " Z="},{REPLACE "; prime pillar" "M221 S90 ; prime pillar"},{REPLACE "; inner perimeter" "M221 S100 ; inner perimeter"},{REPLACE "; support" "M221 S100 ; support"}
;   defaultSpeed,6000
;   outlineUnderspeed,0.9
;   solidInfillUnderspeed,0.9
;   supportUnderspeed,0.9
;   rapidXYspeed,7200
;   rapidZspeed,276
;   minBridgingArea,25
;   bridgingExtraInflation,1
;   bridgingExtrusionMultiplier,1
;   bridgingSpeedMultiplier,0.8
;   useFixedBridgingAngle,0
;   fixedBridgingAngle,0
;   applyBridgingToPerimeters,0
;   filamentDiameters,2.87|2.87|2.87|2.87|2.87|2.87
;   filamentPricesPerKg,53|53|53|53|53|53
;   filamentDensities,1.2|1.2|1.2|1.2|1.2|1.2
;   useMinPrintHeight,0
;   minPrintHeight,0
;   useMaxPrintHeight,0
;   maxPrintHeight,6
;   useDiaphragm,0
;   diaphragmLayerInterval,20
;   robustSlicing,1
;   mergeAllIntoSolid,0
;   onlyRetractWhenCrossingOutline,0
;   retractBetweenLayers,1
;   useRetractionMinTravel,1
;   retractionMinTravel,1.5
;   retractWhileWiping,0
;   onlyWipeOutlines,1
;   avoidCrossingOutline,1
;   maxMovementDetourFactor,4
;   toolChangeRetractionDistance,12
;   toolChangeExtraRestartDistance,0.01
;   toolChangeRetractionSpeed,3600
;   externalThinWallType,0
;   internalThinWallType,1
;   thinWallAllowedOverlapPercentage,17
;   singleExtrusionMinLength,1
;   singleExtrusionMinPrintingWidthPercentage,50
;   singleExtrusionMaxPrintingWidthPercentage,200
;   singleExtrusionEndpointExtension,0.2
;   horizontalSizeCompensation,0
G90
M82
M140 S60
M190 S60
M104 S205 T0
M104 S0 T1
M104 S0 T2
M104 S0 T3
M109 S205 T0
M540 S1
M92 X118.52 ; calibrate X
M92 Y118.52 ; calibrate Y
M92 Z4031.5 ; calibrate Z
M92 E947 ; calibrate E
M220 S100
M221 S100
M900 K0.075
T0
G28
M290 Z0.0
G92 E0
G1 Z0.3 F200
G92 E0
G1 E-1.0000 F3600
G1 Z0.500 F276
; process Process1
M117 Layer 1, Z=0.500
 
T0
; tool H0.500 W0.800
; raft
G1 X282.703 Y380.005 F7200
G1 E0.0000 F1080
M106 S-40265318
G92 E0
G1 X285.180 Y380.005 E0.1532 F3000
G1 X285.180 Y379.528 E0.1826
G1 X286.703 Y378.005 E0.3158
G1 X303.297 Y378.005 E1.3418
G1 X304.820 Y379.528 E1.4750
G1 X304.820 Y380.005 E1.5045
G1 X305.297 Y380.005 E1.5340
G1 X306.820 Y381.528 E1.6672
G1 X306.820 Y382.005 E1.6967
G1 X313.297 Y382.005 E2.0971
G1 X314.820 Y383.528 E2.2303
G1 X314.820 Y384.005 E2.2598
G1 X315.297 Y384.005 E2.2893
G1 X316.820 Y385.528 E2.4225
G1 X316.820 Y390.122 E2.7065
G1 X316.117 Y390.825 E2.7680
G1 X316.820 Y391.528 E2.8295
G1 X316.820 Y408.122 E3.8555
G1 X315.297 Y409.645 E3.9887
G1 X314.820 Y409.645 E4.0182
G1 X314.820 Y412.122 E4.1713
G1 X313.297 Y413.645 E4.3045
G1 X312.820 Y413.645 E4.3340
G1 X312.820 Y416.122 E4.4871
G1 X311.297 Y417.645 E4.6203
G1 X308.820 Y417.645 E4.7735
G1 X308.820 Y418.122 E4.8030
G1 X307.297 Y419.645 E4.9361
G1 X304.820 Y419.645 E5.0893
G1 X304.820 Y420.122 E5.1188
G1 X303.297 Y421.645 E5.2520
G1 X286.703 Y421.645 E6.2780
G1 X285.180 Y420.122 E6.4112
G1 X285.180 Y419.645 E6.4407
G1 X282.703 Y419.645 E6.5938
G1 X281.180 Y418.122 E6.7270
G1 X281.180 Y417.645 E6.7565
G1 X280.703 Y417.645 E6.7860
G1 X279.180 Y416.122 E6.9191
G1 X279.180 Y415.645 E6.9486
G1 X278.703 Y415.645 E6.9781
G1 X277.180 Y414.122 E7.1113
G1 X277.180 Y413.645 E7.1408
G1 X276.703 Y413.645 E7.1703
G1 X275.180 Y412.122 E7.3035
G1 X275.180 Y407.645 E7.5803
G1 X274.703 Y407.645 E7.6098
G1 X273.180 Y406.122 E7.7429
G1 X273.180 Y391.528 E8.6453
G1 X274.703 Y390.005 E8.7785
G1 X275.180 Y390.005 E8.8080
G1 X275.180 Y389.528 E8.8375
G1 X276.703 Y388.005 E8.9706
G1 X277.180 Y388.005 E9.0001
G1 X277.180 Y385.528 E9.1533
G1 X278.703 Y384.005 E9.2865
G1 X279.180 Y384.005 E9.3160
G1 X279.180 Y383.528 E9.3454
G1 X280.703 Y382.005 E9.4786
G1 X281.180 Y382.005 E9.5081
G1 X281.180 Y381.528 E9.5376
G1 X282.703 Y380.005 E9.6708
G92 E0
G1 E-1.0000 F3600
G1 X292.744 Y393.248 F7200
G1 E0.0000 F3600
G92 E0
G1 X292.784 Y394.005 E0.0469 F3000
G1 X295.224 Y394.005 E0.1977
G1 X295.278 Y393.263 E0.2437
G1 X294.142 Y393.097 E0.3147
G1 X292.744 Y393.248 E0.4017
G92 E0
G1 E-1.0000 F3600
G1 X289.180 Y395.832 F7200
G1 E0.0000 F3600
G92 E0
G1 X288.658 Y395.638 E0.0344 F3000
G1 X288.128 Y396.255 E0.0847
G1 X287.345 Y397.841 E0.1941
G1 X286.979 Y399.570 E0.3033
G1 X287.057 Y401.335 E0.4126
G1 X287.570 Y403.026 E0.5218
G1 X288.596 Y404.715 E0.6440
G1 X289.180 Y404.551 E0.6815
G1 X289.180 Y395.832 E1.2207
G92 E0
G1 E-1.0000 F3600
G1 X298.820 Y395.821 F7200
G1 E0.0000 F3600
G92 E0
G1 X298.820 Y404.122 E0.5133 F3000
G1 X298.252 Y404.690 E0.5629
G1 X298.790 Y405.255 E0.6111
G1 X299.354 Y404.745 E0.6582
G1 X299.389 Y404.692 E0.6621
G1 X300.329 Y403.273 E0.7673
G1 X300.907 Y401.603 E0.8766
G1 X301.051 Y399.841 E0.9859
G1 X300.753 Y398.096 E1.0954
G1 X300.032 Y396.483 E1.2046
G1 X299.356 Y395.634 E1.2717
G1 X298.820 Y395.821 E1.3068
G92 E0
G1 E-1.0000 F3600
G1 X297.276 Y405.645 F7200
G1 E0.0000 F3600
G92 E0
G1 X290.724 Y405.645 E0.4051 F3000
G1 X290.565 Y406.239 E0.4431
G1 X291.284 Y406.652 E0.4943
G1 X292.989 Y407.124 E0.6037
G1 X294.758 Y407.158 E0.7131
G1 X296.477 Y406.752 E0.8223
G1 X297.426 Y406.254 E0.8886
G1 X297.276 Y405.645 E0.9273
G92 E0
G1 E-1.0000 F3600
G1 X300.544 Y404.397 F7200
G1 E0.0000 F3600
G92 E0
G1 X316.020 Y404.397 E0.9569 F3000
G1 X316.020 Y402.111 E1.0982
G1 X301.578 Y402.111 E1.9912
G1 X301.696 Y401.770 E2.0135
G1 X301.855 Y399.825 E2.1341
G1 X316.020 Y399.825 E3.0100
G1 X316.020 Y397.539 E3.1513
G1 X301.380 Y397.539 E4.0565
G92 E0
G1 E-1.0000 F3600
G1 X289.980 Y397.539 F7200
G1 E0.0000 F3600
G92 E0
G1 X298.020 Y397.539 E0.4971 F3000
G1 X298.020 Y399.825 E0.6384
G1 X289.980 Y399.825 E1.1356
G1 X289.980 Y402.111 E1.2769
G1 X298.020 Y402.111 E1.7740
G1 X298.020 Y403.791 E1.8779
G1 X297.414 Y404.397 E1.9309
G1 X289.980 Y404.397 E2.3905
G92 E0
G1 E-1.0000 F3600
G1 X303.414 Y420.397 F7200
G1 E0.0000 F3600
G92 E0
G1 X286.586 Y420.397 E1.0405 F3000
G1 X285.980 Y419.791 E1.0935
G1 X285.980 Y418.845 E1.1520
G1 X283.034 Y418.845 E1.3341
G1 X282.300 Y418.111 E1.3983
G1 X307.700 Y418.111 E2.9688
G1 X308.020 Y417.791 E2.9968
G1 X308.020 Y416.845 E3.0552
G1 X310.966 Y416.845 E3.2374
G1 X311.986 Y415.825 E3.3266
G1 X280.014 Y415.825 E5.3034
G1 X279.980 Y415.791 E5.3064
G1 X279.980 Y414.845 E5.3648
G1 X279.034 Y414.845 E5.4233
G1 X277.980 Y413.791 E5.5155
G1 X277.980 Y413.539 E5.5310
G1 X312.020 Y413.539 E7.6358
G1 X312.020 Y412.845 E7.6787
G1 X312.966 Y412.845 E7.7372
G1 X314.020 Y411.791 E7.8294
G1 X314.020 Y411.254 E7.8626
G1 X275.980 Y411.254 E10.2146
G1 X275.980 Y408.968 E10.3559
G1 X314.020 Y408.968 E12.7080
G1 X314.020 Y408.845 E12.7156
G1 X314.966 Y408.845 E12.7741
G1 X316.020 Y407.791 E12.8663
G1 X316.020 Y406.682 E12.9348
G1 X298.330 Y406.682 E14.0286
G1 X296.759 Y407.507 E14.1383
G1 X294.844 Y407.959 E14.2600
G1 X292.872 Y407.921 E14.3819
G1 X290.973 Y407.396 E14.5037
G1 X289.732 Y406.682 E14.5923
G1 X274.872 Y406.682 E15.5111
G1 X273.980 Y405.791 E15.5891
G1 X273.980 Y404.397 E15.6753
G1 X287.466 Y404.397 E16.5091
G1 X286.833 Y403.355 E16.5845
G1 X286.456 Y402.111 E16.6649
G1 X273.980 Y402.111 E17.4363
G1 X273.980 Y399.825 E17.5776
G1 X286.190 Y399.825 E18.3325
G1 X286.176 Y399.504 E18.3524
G1 X286.583 Y397.578 E18.4742
G1 X286.602 Y397.539 E18.4768
G1 X273.980 Y397.539 E19.2572
G1 X273.980 Y395.254 E19.3985
G1 X287.934 Y395.254 E20.2613
G1 X288.415 Y394.695 E20.3069
G1 X289.921 Y395.254 E20.4063
G1 X298.020 Y395.254 E20.9070
G1 X299.629 Y394.691 E21.0124
G1 X300.076 Y395.254 E21.0568
G1 X316.020 Y395.254 E22.0426
G1 X316.020 Y392.968 E22.1840
G1 X296.102 Y392.968 E23.4155
G1 X295.968 Y394.805 E23.5294
G1 X292.026 Y394.805 E23.7732
G1 X291.928 Y392.968 E23.8869
G1 X273.980 Y392.968 E24.9966
G1 X273.980 Y391.860 E25.0652
G1 X275.034 Y390.805 E25.1574
G1 X275.980 Y390.805 E25.2158
G1 X275.980 Y390.682 E25.2234
G1 X315.128 Y390.682 E27.6440
G1 X316.020 Y389.791 E27.7220
G1 X316.020 Y388.397 E27.8082
G1 X277.980 Y388.397 E30.1602
G1 X277.980 Y386.111 E30.3016
G1 X316.020 Y386.111 E32.6536
G1 X316.020 Y385.860 E32.6691
G1 X314.966 Y384.805 E32.7614
G1 X314.020 Y384.805 E32.8198
G1 X314.020 Y383.860 E32.8783
G1 X313.986 Y383.825 E32.8813
G1 X280.014 Y383.825 E34.9818
G1 X281.034 Y382.805 E35.0710
G1 X281.980 Y382.805 E35.1294
G1 X281.980 Y381.860 E35.1879
G1 X282.300 Y381.539 E35.2159
G1 X305.700 Y381.539 E36.6627
G1 X304.966 Y380.805 E36.7269
G1 X304.020 Y380.805 E36.7854
G1 X304.020 Y379.860 E36.8439
G1 X303.414 Y379.254 E36.8968
G1 X286.586 Y379.254 E37.9373
G92 E0
G1 E-1.0000 F3600
M117 Layer 2, Z=0.722
M106 S255
; tool H0.222 W0.400
G1 X294.071 Y393.805 F7200
G1 Z0.722 F276
G1 E0.0000 F3600
G92 E0
G1 X299.020 Y398.754 E0.0962 F4500
G1 X299.020 Y398.188 E0.1039
G1 X294.637 Y393.805 E0.1891
G92 E0
G1 E-1.0000 F3600
G1 X288.980 Y396.068 F7200
G1 E0.0000 F3600
G92 E0
G1 X310.757 Y417.845 E0.4232 F4500
G1 X310.192 Y417.845 E0.4309
G1 X288.980 Y396.634 E0.8431
G1 X288.980 Y397.199 E0.8509
G1 X309.626 Y417.845 E1.2521
G1 X309.060 Y417.845 E1.2598
G1 X297.138 Y405.923 E1.4915
G1 X297.119 Y405.845 E1.4926
G1 X297.060 Y405.845 E1.4934
G1 X288.980 Y397.765 E1.6504
G1 X288.980 Y398.331 E1.6582
G1 X296.495 Y405.845 E1.8042
G1 X295.929 Y405.845 E1.8120
G1 X288.980 Y398.896 E1.9470
G1 X288.980 Y399.462 E1.9548
G1 X295.363 Y405.845 E2.0788
G1 X294.797 Y405.845 E2.0866
G1 X288.980 Y400.028 E2.1996
G1 X288.980 Y400.593 E2.2074
G1 X294.232 Y405.845 E2.3095
G1 X293.666 Y405.845 E2.3172
G1 X288.980 Y401.159 E2.4083
G1 X288.980 Y401.725 E2.4161
G1 X293.100 Y405.845 E2.4961
G1 X292.535 Y405.845 E2.5039
G1 X288.980 Y402.290 E2.5730
G1 X288.980 Y402.856 E2.5807
G1 X291.969 Y405.845 E2.6388
G1 X291.403 Y405.845 E2.6466
G1 X288.980 Y403.422 E2.6937
G1 X288.980 Y403.988 E2.7015
G1 X290.869 Y405.877 E2.7382
G1 X290.798 Y406.142 E2.7419
G1 X291.362 Y406.466 E2.7509
G1 X291.495 Y406.503 E2.7528
G1 X305.020 Y420.028 E3.0156
G1 X305.020 Y420.205 E3.0180
G1 X304.826 Y420.399 E3.0218
G1 X288.860 Y404.433 E3.3320
G92 E0
G1 E-1.0000 F3600
G1 X292.277 Y406.719 F7200
G1 E0.0000 F3600
G92 E0
G1 X305.403 Y419.845 E0.2551 F4500
G1 X305.969 Y419.845 E0.2628
G1 X293.049 Y406.925 E0.5139
G1 X293.625 Y406.936 E0.5218
G1 X306.535 Y419.845 E0.7727
G1 X307.100 Y419.845 E0.7804
G1 X294.202 Y406.947 E1.0311
G1 X294.737 Y406.957 E1.0384
G1 X294.770 Y406.949 E1.0389
G1 X307.523 Y419.702 E1.2867
G1 X307.806 Y419.419 E1.2922
G1 X295.228 Y406.841 E1.5366
G1 X295.685 Y406.733 E1.5431
G1 X308.089 Y419.136 E1.7841
G1 X308.371 Y418.854 E1.7896
G1 X296.143 Y406.625 E2.0272
G1 X296.406 Y406.563 E2.0309
G1 X296.564 Y406.480 E2.0334
G1 X308.654 Y418.571 E2.2683
G1 X308.937 Y418.288 E2.2738
G1 X296.935 Y406.286 E2.5070
G92 E0
G1 E-1.0000 F3600
G1 X299.210 Y404.601 F7200
G1 E0.0000 F3600
G92 E0
G1 X311.917 Y417.308 E0.2469 F4500
G1 X312.200 Y417.025 E0.2524
G1 X299.435 Y404.260 E0.5005
G1 X299.661 Y403.920 E0.5061
G1 X312.483 Y416.742 E0.7552
G1 X312.766 Y416.459 E0.7607
G1 X299.886 Y403.580 E1.0110
G1 X300.111 Y403.239 E1.0166
G1 X313.020 Y416.148 E1.2674
G1 X313.020 Y415.582 E1.2752
G1 X300.270 Y402.832 E1.5230
G1 X300.415 Y402.412 E1.5291
G1 X313.020 Y415.017 E1.7740
G1 X313.020 Y414.451 E1.7818
G1 X300.561 Y401.992 E2.0239
G1 X300.706 Y401.572 E2.0300
G1 X313.020 Y413.885 E2.2693
G1 X313.020 Y413.845 E2.2698
G1 X313.380 Y413.845 E2.2748
G1 X313.463 Y413.762 E2.2764
G1 X300.752 Y401.051 E2.5234
G1 X300.794 Y400.528 E2.5306
G1 X313.745 Y413.479 E2.7822
G1 X314.028 Y413.197 E2.7877
G1 X300.837 Y400.006 E3.0441
G1 X300.850 Y399.850 E3.0462
G1 X300.768 Y399.370 E3.0529
G1 X314.311 Y412.914 E3.3161
G1 X314.594 Y412.631 E3.3216
