; G-Code generated by Simplify3D(R) Version 4.0.1
; Jun 13, 2018 at 1:26:15 PM
; Settings Summary
;   processName,Process1
;   applyToModels,K=0.0
;   profileName,re3D GB3+ Rev4.1 Linear Advance (modified)
;   profileVersion,2018-06-12 09:38:20
;   baseProfile,re3D GB3+
;   printMaterial,PLA
;   printQuality,Highest Resolution - No Raft
;   printExtruders,Left Extruder Only
;   extruderName,Right Extruder,Left Extruder
;   extruderToolheadNumber,1,0
;   extruderDiameter,0.4,0.4
;   extruderAutoWidth,1,1
;   extruderWidth,0.48,0.48
;   extrusionMultiplier,1,1
;   extruderUseRetract,1,1
;   extruderRetractionDistance,0.85,0.85
;   extruderExtraRestartDistance,0,0
;   extruderRetractionZLift,0,0
;   extruderRetractionSpeed,3600,3600
;   extruderUseCoasting,1,0
;   extruderCoastingDistance,0,0
;   extruderUseWipe,0,0
;   extruderWipeDistance,5,5
;   primaryExtruder,1
;   layerHeight,0.151
;   topSolidLayers,4
;   bottomSolidLayers,4
;   perimeterOutlines,2
;   printPerimetersInsideOut,1
;   startPointOption,2
;   startPointOriginX,300
;   startPointOriginY,600
;   sequentialIslands,0
;   spiralVaseMode,0
;   firstLayerHeightPercentage,180
;   firstLayerWidthPercentage,120
;   firstLayerUnderspeed,0.4
;   useRaft,0
;   raftExtruder,1
;   raftTopLayers,2
;   raftBaseLayers,1
;   raftOffset,3
;   raftSeparationDistance,0.15
;   raftTopInfill,100
;   aboveRaftSpeedMultiplier,1
;   useSkirt,1
;   skirtExtruder,1
;   skirtLayers,1
;   skirtOutlines,1
;   skirtOffset,15
;   usePrimePillar,0
;   primePillarExtruder,999
;   primePillarWidth,25
;   primePillarLocation,7
;   primePillarSpeedMultiplier,0.95
;   useOozeShield,0
;   oozeShieldExtruder,999
;   oozeShieldOffset,2
;   oozeShieldOutlines,1
;   oozeShieldSidewallShape,1
;   oozeShieldSidewallAngle,30
;   oozeShieldSpeedMultiplier,1
;   infillExtruder,1
;   internalInfillPattern,Rectilinear
;   externalInfillPattern,Rectilinear
;   infillPercentage,15
;   outlineOverlapPercentage,15
;   infillExtrusionWidthPercentage,100
;   minInfillLength,5
;   infillLayerInterval,2
;   internalInfillAngles,45,-45
;   overlapInternalInfillAngles,0
;   externalInfillAngles,45,-45
;   generateSupport,0
;   supportExtruder,1
;   supportInfillPercentage,15
;   supportExtraInflation,0
;   supportBaseLayers,0
;   denseSupportExtruder,1
;   denseSupportLayers,6
;   denseSupportInfillPercentage,100
;   supportLayerInterval,2
;   supportHorizontalPartOffset,0.5
;   supportUpperSeparationLayers,1
;   supportLowerSeparationLayers,1
;   supportType,0
;   supportGridSpacing,2
;   maxOverhangAngle,55
;   supportAngles,45,-45,45,45,45,45,45,45,45,45,45
;   temperatureName,Left Extruder,Right Extruder,Heated Bed,Left Cool,Right Cool
;   temperatureNumber,0,1,2,2,3
;   temperatureSetpointCount,1,1,1,1,1
;   temperatureSetpointLayers,1,1,1,1,1
;   temperatureSetpointTemperatures,210,0,60,0,0
;   temperatureStabilizeAtStartup,1,0,1,1,1
;   temperatureHeatedBed,0,0,1,0,0
;   temperatureRelayBetweenLayers,0,0,0,0,0
;   temperatureRelayBetweenLoops,0,0,0,0,0
;   fanLayers,1,2
;   fanSpeeds,0,100
;   blipFanToFullPower,1
;   adjustSpeedForCooling,0
;   minSpeedLayerTime,7
;   minCoolingSpeedSlowdown,25
;   increaseFanForCooling,0
;   minFanLayerTime,45
;   maxCoolingFanSpeed,100
;   increaseFanForBridging,0
;   bridgingFanSpeed,100
;   use5D,1
;   relativeEdistances,0
;   allowEaxisZeroing,1
;   independentExtruderAxes,0
;   includeM10123,0
;   stickySupport,1
;   applyToolheadOffsets,0
;   gcodeXoffset,0
;   gcodeYoffset,0
;   gcodeZoffset,0
;   overrideMachineDefinition,1
;   machineTypeOverride,0
;   strokeXoverride,590
;   strokeYoverride,600
;   strokeZoverride,600
;   originOffsetXoverride,0
;   originOffsetYoverride,0
;   originOffsetZoverride,0
;   homeXdirOverride,-1
;   homeYdirOverride,-1
;   homeZdirOverride,-1
;   flipXoverride,1
;   flipYoverride,-1
;   flipZoverride,1
;   toolheadOffsets,0,0|0,0|0,0|0,0|0,0|0,0
;   overrideFirmwareConfiguration,1
;   firmwareTypeOverride,RepRap (Marlin/Repetier/Sprinter)
;   GPXconfigOverride,r2
;   baudRateOverride,250000
;   overridePrinterModels,0
;   printerModelsOverride
;   startingGcode,M92 X118.52 ; calibrate X,M92 Y118.52 ; calibrate Y,M92 Z4031.5 ; calibrate Z,M92 E947 ; calibrate E,M220 S100,M221 S100,M204 S2000,T0,G28,M900 K0.00,G92 E0,G1 Z0.3 F200,,
;   layerChangeGcode,
;   retractionGcode,
;   toolChangeGcode, 
;   endingGcode,T0,G1 E-3 F200,M104 S0,T1,G1 E-3 F200,M104 S0,M190 S0,G28 X0 Y0,M18,M107,
;   exportFileFormat,gcode
;   celebration,0
;   celebrationSong,Funky Town
;   postProcessing,{REPLACE "; layer" "M117 Layer"},{REPLACE " Z = " " Z="},{REPLACE "; prime pillar" "M221 S90 ; prime pillar"},{REPLACE "; inner perimeter" "M221 S100 ; inner perimeter"},{REPLACE "; support" "M221 S100 ; support"}
;   defaultSpeed,3600
;   outlineUnderspeed,1
;   solidInfillUnderspeed,1
;   supportUnderspeed,1
;   rapidXYspeed,7200
;   rapidZspeed,276
;   minBridgingArea,25
;   bridgingExtraInflation,1
;   bridgingExtrusionMultiplier,1
;   bridgingSpeedMultiplier,0.8
;   useFixedBridgingAngle,0
;   fixedBridgingAngle,0
;   applyBridgingToPerimeters,0
;   filamentDiameters,2.87|2.87|2.87|2.87|2.87|2.87
;   filamentPricesPerKg,41.8|41.8|41.8|41.8|41.8|41.8
;   filamentDensities,1.25|1.25|1.25|1.25|1.25|1.25
;   useMinPrintHeight,0
;   minPrintHeight,0
;   useMaxPrintHeight,0
;   maxPrintHeight,6
;   useDiaphragm,0
;   diaphragmLayerInterval,20
;   robustSlicing,1
;   mergeAllIntoSolid,0
;   onlyRetractWhenCrossingOutline,0
;   retractBetweenLayers,1
;   useRetractionMinTravel,1
;   retractionMinTravel,1.5
;   retractWhileWiping,0
;   onlyWipeOutlines,1
;   avoidCrossingOutline,1
;   maxMovementDetourFactor,4
;   toolChangeRetractionDistance,12
;   toolChangeExtraRestartDistance,0.01
;   toolChangeRetractionSpeed,3600
;   externalThinWallType,0
;   internalThinWallType,1
;   thinWallAllowedOverlapPercentage,17
;   singleExtrusionMinLength,1
;   singleExtrusionMinPrintingWidthPercentage,50
;   singleExtrusionMaxPrintingWidthPercentage,200
;   singleExtrusionEndpointExtension,0.2
;   horizontalSizeCompensation,0
G90
M82
M106 S255
G4 P500
M106 S0
M140 S60
M190 S60
M104 S210 T0
M104 S0 T1
M104 S0 T2
M104 S0 T3
M109 S210 T0
M92 X118.52 ; calibrate X
M92 Y118.52 ; calibrate Y
M92 Z4031.5 ; calibrate Z
M92 E947 ; calibrate E
M220 S100
M221 S100
M204 S2000
T0
G28
M900 K0.00
G92 E0
G1 Z0.3 F200
G92 E0
G1 E-0.8500 F3600
G1 Z0.272 F276
; process Process1
M117 Layer 1, Z=0.272
 
T0
; tool H0.272 W0.576
; skirt
G1 X207.175 Y143.525 F7200
G1 E0.0000 F1080
G92 E0
G1 X216.030 Y134.671 E0.3030 F1440
G1 X216.118 Y134.634 E0.3053
G1 X253.640 Y134.634 E1.2134
G1 X253.728 Y134.671 E1.2157
G1 X262.582 Y143.525 E1.5187
G1 X262.619 Y143.613 E1.5210
G1 X262.619 Y181.135 E2.4291
G1 X262.582 Y181.224 E2.4314
G1 X253.728 Y190.078 E2.7344
G1 X253.640 Y190.114 E2.7367
G1 X216.118 Y190.114 E3.6448
G1 X216.030 Y190.078 E3.6471
G1 X207.175 Y181.224 E3.9501
G1 X207.139 Y181.135 E3.9524
G1 X207.139 Y143.613 E4.8604
G1 X207.175 Y143.525 E4.8628
G92 E0
G1 E-0.8500 F3600
M221 S100 ; inner perimeter
G1 X222.661 Y150.157 F7200
G1 X222.661 Y150.477 F7200
G1 X223.243 Y150.738 F7200
G1 E0.0000 F3600
G92 E0
G1 X246.515 Y150.738 E0.5632 F1440
G1 X246.515 Y174.010 E1.1264
G1 X223.243 Y174.010 E1.6896
G1 X223.243 Y150.738 E2.2527
; outer perimeter
G1 X222.667 Y150.162 F7200
G92 E0
G1 X247.091 Y150.162 E0.5911 F1440
G1 X247.091 Y174.586 E1.1821
G1 X222.667 Y174.586 E1.7732
G1 X222.667 Y150.162 E2.3643
G92 E0
G1 E-0.8500 F3600
M221 S100 ; inner perimeter
G1 X225.016 Y159.124 F7200
G1 E0.0000 F3600
G92 E0
G1 X225.016 Y165.863 E0.1631 F1440
G1 X227.756 Y165.863 E0.2294
G1 X227.756 Y165.129 E0.2471
G1 X228.109 Y165.033 E0.2560
G1 X228.595 Y165.863 E0.2792
G1 X230.913 Y165.863 E0.3353
G1 X231.404 Y164.959 E0.3602
G1 X231.327 Y164.841 E0.3636
G1 X231.463 Y164.591 E0.3705
G1 X234.318 Y164.591 E0.4396
G1 X234.530 Y165.036 E0.4515
G1 X234.925 Y165.415 E0.4648
G1 X235.138 Y165.580 E0.4713
G1 X235.391 Y165.728 E0.4784
G1 X235.665 Y165.831 E0.4855
G1 X235.917 Y165.890 E0.4917
G1 X236.413 Y165.954 E0.5038
G1 X236.884 Y165.903 E0.5153
G1 X237.138 Y165.849 E0.5216
G1 X237.405 Y165.756 E0.5284
G1 X237.656 Y165.618 E0.5354
G1 X237.769 Y165.534 E0.5388
G1 X238.032 Y165.666 E0.5459
G1 X238.032 Y165.863 E0.5506
G1 X240.720 Y165.863 E0.6157
G1 X240.720 Y165.709 E0.6194
G1 X240.960 Y165.571 E0.6261
G1 X241.229 Y165.728 E0.6336
G1 X241.503 Y165.831 E0.6407
G1 X241.765 Y165.892 E0.6472
G1 X242.252 Y165.954 E0.6591
G1 X242.722 Y165.903 E0.6706
G1 X242.976 Y165.849 E0.6768
G1 X243.243 Y165.756 E0.6837
G1 X243.494 Y165.618 E0.6906
G1 X243.707 Y165.459 E0.6970
G1 X244.096 Y165.099 E0.7099
G1 X244.424 Y164.446 E0.7276
G1 X244.552 Y164.122 E0.7360
G1 X244.647 Y163.782 E0.7445
G1 X244.705 Y163.444 E0.7528
G1 X244.734 Y163.118 E0.7607
G1 X244.751 Y162.528 E0.7750
G1 X244.735 Y161.938 E0.7893
G1 X244.706 Y161.613 E0.7972
G1 X244.649 Y161.276 E0.8055
G1 X244.555 Y160.936 E0.8140
G1 X244.427 Y160.613 E0.8224
G1 X244.101 Y159.962 E0.8401
G1 X243.713 Y159.599 E0.8529
G1 X243.500 Y159.439 E0.8593
G1 X243.249 Y159.300 E0.8663
G1 X242.981 Y159.204 E0.8732
G1 X242.726 Y159.150 E0.8795
G1 X242.260 Y159.098 E0.8908
G1 X241.796 Y159.148 E0.9021
G1 X241.543 Y159.202 E0.9084
G1 X241.276 Y159.296 E0.9152
G1 X241.025 Y159.434 E0.9222
G1 X240.812 Y159.592 E0.9286
G1 X240.423 Y159.952 E0.9414
G1 X240.095 Y160.603 E0.9591
G1 X239.967 Y160.925 E0.9674
G1 X239.872 Y161.265 E0.9760
G1 X239.814 Y161.602 E0.9843
G1 X239.784 Y161.927 E0.9922
G1 X239.768 Y162.513 E1.0063
G1 X239.780 Y163.174 E1.0223
G1 X238.894 Y163.174 E1.0438
G1 X238.913 Y162.529 E1.0594
G1 X238.897 Y161.938 E1.0737
G1 X238.868 Y161.613 E1.0816
G1 X238.811 Y161.276 E1.0899
G1 X238.717 Y160.936 E1.0984
G1 X238.589 Y160.613 E1.1068
G1 X238.263 Y159.962 E1.1244
G1 X237.875 Y159.599 E1.1373
G1 X237.662 Y159.439 E1.1437
G1 X237.411 Y159.300 E1.1507
G1 X237.143 Y159.204 E1.1576
G1 X236.898 Y159.152 E1.1636
G1 X236.424 Y159.098 E1.1752
G1 X235.958 Y159.148 E1.1865
G1 X235.705 Y159.202 E1.1928
G1 X235.438 Y159.296 E1.1996
G1 X235.187 Y159.434 E1.2066
G1 X234.982 Y159.586 E1.2127
G1 X234.586 Y159.951 E1.2258
G1 X234.328 Y160.464 E1.2397
G1 X231.437 Y160.464 E1.3096
G1 X230.868 Y159.124 E1.3449
G1 X228.557 Y159.124 E1.4008
G1 X228.061 Y159.664 E1.4185
G1 X227.756 Y159.545 E1.4264
G1 X227.756 Y159.124 E1.4366
G1 X225.016 Y159.124 E1.5029
G92 E0
G1 E-0.8500 F3600
; outer perimeter
G1 X228.573 Y159.966 F7200
G1 X228.812 Y159.706 F7200
G1 X230.483 Y159.706 F7200
G1 X230.629 Y160.050 F7200
G1 X230.312 Y160.377 F7200
G1 X233.134 Y161.045 F7200
G1 X234.489 Y161.045 F7200
G1 X234.489 Y161.366 F7200
G1 X234.596 Y161.392 F7200
G1 E0.0000 F3600
G92 E0
G1 X234.548 Y161.677 E0.0070 F1440
G1 X234.523 Y161.947 E0.0136
G1 X234.506 Y162.515 E0.0273
G1 X234.516 Y163.058 E0.0405
G1 X234.536 Y163.322 E0.0469
G1 X234.580 Y163.616 E0.0541
G1 X234.652 Y163.894 E0.0610
G1 X234.752 Y164.162 E0.0679
G1 X235.005 Y164.693 E0.0822
G1 X235.302 Y164.978 E0.0921
G1 X235.461 Y165.102 E0.0970
G1 X235.640 Y165.206 E0.1020
G1 X235.833 Y165.279 E0.1070
G1 X236.020 Y165.323 E0.1117
G1 X236.418 Y165.374 E0.1214
G1 X236.793 Y165.333 E0.1305
G1 X236.982 Y165.293 E0.1352
G1 X237.169 Y165.228 E0.1400
G1 X237.344 Y165.132 E0.1448
G1 X237.493 Y165.021 E0.1493
G1 X237.790 Y164.747 E0.1591
G1 X238.060 Y164.210 E0.1736
G1 X238.168 Y163.938 E0.1807
G1 X238.247 Y163.656 E0.1878
G1 X238.295 Y163.370 E0.1948
G1 X238.320 Y163.099 E0.2014
G1 X238.337 Y162.528 E0.2152
G1 X238.322 Y161.972 E0.2287
G1 X238.296 Y161.687 E0.2356
G1 X238.248 Y161.401 E0.2426
G1 X238.170 Y161.119 E0.2497
G1 X238.063 Y160.848 E0.2568
G1 X237.794 Y160.312 E0.2713
G1 X237.505 Y160.041 E0.2809
G1 X237.348 Y159.924 E0.2856
G1 X237.173 Y159.826 E0.2904
G1 X236.985 Y159.760 E0.2953
G1 X236.805 Y159.721 E0.2997
G1 X236.422 Y159.678 E0.3091
G1 X236.049 Y159.718 E0.3181
G1 X235.861 Y159.758 E0.3228
G1 X235.674 Y159.823 E0.3276
G1 X235.499 Y159.920 E0.3324
G1 X235.350 Y160.030 E0.3369
G1 X235.053 Y160.304 E0.3467
G1 X234.783 Y160.840 E0.3612
G1 X234.676 Y161.110 E0.3683
G1 X234.596 Y161.392 E0.3753
G1 X234.495 Y161.040 F7200
G92 E0
G1 X230.415 Y161.040 E0.0987 F1440
G1 X230.415 Y162.497 E0.1340
G1 X234.495 Y162.497 E0.2327
G1 X234.495 Y161.040 E0.2680
G92 E0
G1 E-0.8500 F3600
G1 X234.495 Y162.554 F7200
G1 E0.0000 F3600
G92 E0
G1 X230.415 Y162.554 E0.0987 F1440
G1 X230.415 Y164.015 E0.1341
G1 X234.495 Y164.015 E0.2328
G1 X234.495 Y162.554 E0.2682
G92 E0
G1 E-0.8500 F3600
G1 X234.513 Y162.559 F7200
G1 X234.522 Y163.058 F7200
G1 X234.542 Y163.322 F7200
G1 X234.586 Y163.615 F7200
G1 X234.657 Y163.892 F7200
G1 X234.757 Y164.159 F7200
G1 X235.010 Y164.690 F7200
G1 X235.305 Y164.974 F7200
G1 X235.464 Y165.097 F7200
G1 X235.642 Y165.201 F7200
G1 X235.835 Y165.273 F7200
G1 X236.021 Y165.317 F7200
G1 X236.419 Y165.368 F7200
G1 X236.793 Y165.328 F7200
G1 X236.980 Y165.288 F7200
G1 X237.167 Y165.222 F7200
G1 X237.341 Y165.127 F7200
G1 X237.489 Y165.017 F7200
G1 X237.785 Y164.744 F7200
G1 X238.055 Y164.207 F7200
G1 X238.162 Y163.936 F7200
G1 X238.241 Y163.655 F7200
G1 X238.243 Y163.644 F7200
G1 X238.608 Y163.750 F7200
G1 E0.0000 F3600
G92 E0
G1 X238.608 Y165.287 E0.0372 F1440
G1 X240.144 Y165.287 E0.0744
G1 X240.144 Y163.750 E0.1115
G1 X238.608 Y163.750 E0.1487
G92 E0
G1 E-0.8500 F3600
G1 X240.376 Y163.337 F7200
G1 E0.0000 F3600
G92 E0
G1 X240.418 Y163.617 E0.0068 F1440
G1 X240.490 Y163.894 E0.0138
G1 X240.589 Y164.162 E0.0207
G1 X240.843 Y164.693 E0.0349
G1 X241.140 Y164.978 E0.0449
G1 X241.299 Y165.102 E0.0498
G1 X241.478 Y165.206 E0.0548
G1 X241.671 Y165.279 E0.0598
G1 X241.867 Y165.325 E0.0647
G1 X242.257 Y165.374 E0.0742
G1 X242.631 Y165.333 E0.0833
G1 X242.820 Y165.293 E0.0879
G1 X243.007 Y165.228 E0.0927
G1 X243.182 Y165.132 E0.0976
G1 X243.338 Y165.016 E0.1023
G1 X243.628 Y164.747 E0.1118
G1 X243.898 Y164.210 E0.1264
G1 X244.006 Y163.938 E0.1335
G1 X244.085 Y163.656 E0.1406
G1 X244.133 Y163.370 E0.1476
G1 X244.159 Y163.084 E0.1545
G1 X244.174 Y162.527 E0.1680
G1 X244.160 Y161.972 E0.1815
G1 X244.134 Y161.687 E0.1884
G1 X244.086 Y161.401 E0.1954
G1 X244.008 Y161.119 E0.2025
G1 X243.900 Y160.848 E0.2095
G1 X243.632 Y160.312 E0.2240
G1 X243.342 Y160.041 E0.2336
G1 X243.186 Y159.924 E0.2384
G1 X243.011 Y159.826 E0.2432
G1 X242.823 Y159.760 E0.2480
G1 X242.634 Y159.719 E0.2527
G1 X242.260 Y159.678 E0.2618
G1 X241.887 Y159.718 E0.2709
G1 X241.699 Y159.758 E0.2756
G1 X241.511 Y159.823 E0.2804
G1 X241.337 Y159.920 E0.2852
G1 X241.180 Y160.035 E0.2899
G1 X240.891 Y160.304 E0.2995
G1 X240.621 Y160.840 E0.3140
G1 X240.513 Y161.110 E0.3210
G1 X240.434 Y161.392 E0.3281
G1 X240.386 Y161.677 E0.3351
G1 X240.360 Y161.962 E0.3420
G1 X240.344 Y162.516 E0.3554
G1 X240.354 Y163.058 E0.3686
G1 X240.376 Y163.337 E0.3753
G92 E0
G1 E-0.8500 F3600
G1 X238.227 Y163.704 F7200
G1 X238.162 Y163.936 F7200
G1 X238.055 Y164.207 F7200
G1 X237.785 Y164.744 F7200
G1 X237.489 Y165.017 F7200
G1 X237.341 Y165.127 F7200
G1 X237.167 Y165.222 F7200
G1 X236.980 Y165.288 F7200
G1 X236.793 Y165.328 F7200
G1 X236.419 Y165.368 F7200
G1 X236.021 Y165.317 F7200
G1 X235.835 Y165.273 F7200
G1 X235.642 Y165.201 F7200
G1 X235.464 Y165.097 F7200
G1 X235.305 Y164.974 F7200
G1 X235.010 Y164.690 F7200
G1 X234.818 Y164.287 F7200
G1 X230.734 Y164.985 F7200
G1 E0.0000 F3600
G92 E0
G1 X228.776 Y161.975 E0.0869 F1440
G1 X230.636 Y160.051 E0.1517
G1 X230.487 Y159.700 E0.1609
G1 X228.810 Y159.700 E0.2015
G1 X227.180 Y161.474 E0.2598
G1 X227.180 Y159.700 E0.3027
G1 X225.592 Y159.700 E0.3411
G1 X225.592 Y165.287 E0.4763
G1 X227.180 Y165.287 E0.5147
G1 X227.180 Y163.602 E0.5555
G1 X227.654 Y163.118 E0.5719
G1 X228.925 Y165.287 E0.6327
G1 X230.570 Y165.287 E0.6726
G1 X230.734 Y164.985 E0.6809
G92 E0
G1 E-0.8500 F3600
; internal single extrusion
G1 X230.094 Y163.412 F7200
G1 E0.0000 F3600
G92 E0
; tool H0.272 W0.240
G1 X230.067 Y163.319 E0.0010 F1440
G1 X230.039 Y163.227 E0.0019
G1 X230.012 Y163.134 E0.0029
; tool H0.272 W0.247
G1 X229.984 Y163.042 E0.0039
; tool H0.272 W0.302
G1 X229.957 Y162.949 E0.0051
; tool H0.272 W0.357
