; G-Code generated by Simplify3D(R) Version 4.0.1
; Aug 29, 2018 at 4:30:06 PM
; Settings Summary
;   processName,Process1
;   applyToModels,3DBenchy
;   profileName,Ender 2
;   profileVersion,2018-08-02 20:19:12
;   baseProfile,Ender 2
;   printMaterial,PLA
;   printQuality,Standard Resolution - No Raft
;   printExtruders,
;   extruderName,Extruder 1
;   extruderToolheadNumber,0
;   extruderDiameter,0.4
;   extruderAutoWidth,0
;   extruderWidth,0.4
;   extrusionMultiplier,1
;   extruderUseRetract,1
;   extruderRetractionDistance,5
;   extruderExtraRestartDistance,0
;   extruderRetractionZLift,0.1
;   extruderRetractionSpeed,3600
;   extruderUseCoasting,0
;   extruderCoastingDistance,0.2
;   extruderUseWipe,0
;   extruderWipeDistance,6
;   primaryExtruder,0
;   layerHeight,0.3
;   topSolidLayers,3
;   bottomSolidLayers,2
;   perimeterOutlines,2
;   printPerimetersInsideOut,1
;   startPointOption,2
;   startPointOriginX,0
;   startPointOriginY,0
;   sequentialIslands,0
;   spiralVaseMode,0
;   firstLayerHeightPercentage,120
;   firstLayerWidthPercentage,110
;   firstLayerUnderspeed,0.5
;   useRaft,0
;   raftExtruder,0
;   raftTopLayers,2
;   raftBaseLayers,1
;   raftOffset,3
;   raftSeparationDistance,0.2
;   raftTopInfill,100
;   aboveRaftSpeedMultiplier,0.45
;   useSkirt,1
;   skirtExtruder,0
;   skirtLayers,1
;   skirtOutlines,2
;   skirtOffset,7
;   usePrimePillar,0
;   primePillarExtruder,999
;   primePillarWidth,25
;   primePillarLocation,7
;   primePillarSpeedMultiplier,0.95
;   useOozeShield,0
;   oozeShieldExtruder,999
;   oozeShieldOffset,2
;   oozeShieldOutlines,1
;   oozeShieldSidewallShape,1
;   oozeShieldSidewallAngle,30
;   oozeShieldSpeedMultiplier,1
;   infillExtruder,0
;   internalInfillPattern,Rectilinear
;   externalInfillPattern,Rectilinear
;   infillPercentage,20
;   outlineOverlapPercentage,15
;   infillExtrusionWidthPercentage,100
;   minInfillLength,5
;   infillLayerInterval,1
;   internalInfillAngles,45,-45
;   overlapInternalInfillAngles,0
;   externalInfillAngles,45,-45
;   generateSupport,0
;   supportExtruder,0
;   supportInfillPercentage,15
;   supportExtraInflation,0
;   supportBaseLayers,0
;   denseSupportExtruder,0
;   denseSupportLayers,2
;   denseSupportInfillPercentage,100
;   supportLayerInterval,1
;   supportHorizontalPartOffset,0.5
;   supportUpperSeparationLayers,1
;   supportLowerSeparationLayers,1
;   supportType,0
;   supportGridSpacing,2
;   maxOverhangAngle,55
;   supportAngles,0
;   temperatureName,Extruder 1,Heated Bed
;   temperatureNumber,0,0
;   temperatureSetpointCount,1,1
;   temperatureSetpointLayers,1,1
;   temperatureSetpointTemperatures,195,60
;   temperatureStabilizeAtStartup,1,1
;   temperatureHeatedBed,0,1
;   temperatureRelayBetweenLayers,0,0
;   temperatureRelayBetweenLoops,0,0
;   fanLayers,1,2
;   fanSpeeds,0,100
;   blipFanToFullPower,0
;   adjustSpeedForCooling,1
;   minSpeedLayerTime,4
;   minCoolingSpeedSlowdown,65
;   increaseFanForCooling,0
;   minFanLayerTime,45
;   maxCoolingFanSpeed,100
;   increaseFanForBridging,0
;   bridgingFanSpeed,100
;   use5D,1
;   relativeEdistances,0
;   allowEaxisZeroing,1
;   independentExtruderAxes,0
;   includeM10123,0
;   stickySupport,1
;   applyToolheadOffsets,0
;   gcodeXoffset,0
;   gcodeYoffset,0
;   gcodeZoffset,0
;   overrideMachineDefinition,1
;   machineTypeOverride,0
;   strokeXoverride,160
;   strokeYoverride,160
;   strokeZoverride,200
;   originOffsetXoverride,0
;   originOffsetYoverride,0
;   originOffsetZoverride,0
;   homeXdirOverride,-1
;   homeYdirOverride,-1
;   homeZdirOverride,-1
;   flipXoverride,1
;   flipYoverride,-1
;   flipZoverride,1
;   toolheadOffsets,0,0|0,0|0,0|0,0|0,0|0,0
;   overrideFirmwareConfiguration,1
;   firmwareTypeOverride,RepRap (Marlin/Repetier/Sprinter)
;   GPXconfigOverride,r2
;   baudRateOverride,115200
;   overridePrinterModels,0
;   printerModelsOverride
;   startingGcode,G28 ; home all axes
;   layerChangeGcode,
;   retractionGcode,
;   toolChangeGcode,
;   endingGcode,M104 S0 ; turn off extruder,M107 ;turn off cooling fan,M140 S0 ; turn off bed,G28 X,G1 Y150,M84 ; disable motors
;   exportFileFormat,gcode
;   celebration,0
;   celebrationSong,Funky Town
;   postProcessing,
;   defaultSpeed,3600
;   outlineUnderspeed,1
;   solidInfillUnderspeed,1
;   supportUnderspeed,1
;   rapidXYspeed,6000
;   rapidZspeed,1002
;   minBridgingArea,50
;   bridgingExtraInflation,0
;   bridgingExtrusionMultiplier,1
;   bridgingSpeedMultiplier,1
;   useFixedBridgingAngle,0
;   fixedBridgingAngle,0
;   applyBridgingToPerimeters,0
;   filamentDiameters,1.75|1.75|1.75|1.75|1.75|1.75
;   filamentPricesPerKg,25|46|46|46|46|46
;   filamentDensities,1.25|1.25|1.25|1.25|1.25|1.25
;   useMinPrintHeight,0
;   minPrintHeight,0
;   useMaxPrintHeight,0
;   maxPrintHeight,0
;   useDiaphragm,0
;   diaphragmLayerInterval,20
;   robustSlicing,1
;   mergeAllIntoSolid,0
;   onlyRetractWhenCrossingOutline,1
;   retractBetweenLayers,1
;   useRetractionMinTravel,0
;   retractionMinTravel,1.5
;   retractWhileWiping,0
;   onlyWipeOutlines,1
;   avoidCrossingOutline,0
;   maxMovementDetourFactor,3
;   toolChangeRetractionDistance,12
;   toolChangeExtraRestartDistance,-0.5
;   toolChangeRetractionSpeed,600
;   externalThinWallType,0
;   internalThinWallType,2
;   thinWallAllowedOverlapPercentage,10
;   singleExtrusionMinLength,1
;   singleExtrusionMinPrintingWidthPercentage,50
;   singleExtrusionMaxPrintingWidthPercentage,200
;   singleExtrusionEndpointExtension,0.2
;   horizontalSizeCompensation,0
G90
M82
M106 S0
M140 S60
M190 S60
M104 S195 T0
M109 S195 T0
G28 ; home all axes
G92 E0
G1 E-5.0000 F3600
G1 Z0.460 F1002
; process Process1
; layer 1, Z = 0.360
T0
; tool H0.360 W0.440
; skirt
G1 X49.914 Y67.794 F6000
G1 Z0.360 F1002
G1 E0.0000 F1080
G92 E0
G1 X50.642 Y67.254 E0.0597 F1800
G1 X50.673 Y67.233 E0.0622
G1 X51.753 Y66.622 E0.1439
G1 X51.786 Y66.606 E0.1464
G1 X52.616 Y66.263 E0.2055
G1 X52.651 Y66.251 E0.2079
G1 X53.956 Y65.891 E0.2970
G1 X53.986 Y65.885 E0.2991
G1 X54.734 Y65.760 E0.3490
G1 X54.765 Y65.757 E0.3511
G1 X78.706 Y64.283 E1.9307
G1 X78.710 Y64.283 E1.9310
G1 X78.813 Y64.278 E1.9378
G1 X78.817 Y64.278 E1.9380
G1 X79.830 Y64.245 E2.0047
G1 X79.837 Y64.244 E2.0052
G1 X80.008 Y64.243 E2.0165
G1 X80.015 Y64.243 E2.0170
G1 X80.697 Y64.252 E2.0618
G1 X80.704 Y64.252 E2.0623
G1 X80.870 Y64.258 E2.0733
G1 X80.877 Y64.259 E2.0737
G1 X81.944 Y64.322 E2.1441
G1 X81.952 Y64.323 E2.1446
G1 X82.153 Y64.341 E2.1579
G1 X82.161 Y64.341 E2.1585
G1 X83.108 Y64.451 E2.2213
G1 X83.118 Y64.452 E2.2219
G1 X83.343 Y64.485 E2.2369
G1 X83.352 Y64.486 E2.2375
G1 X84.706 Y64.729 E2.3280
G1 X84.716 Y64.731 E2.3287
G1 X84.962 Y64.784 E2.3453
G1 X84.972 Y64.786 E2.3460
G1 X86.130 Y65.077 E2.4246
G1 X86.139 Y65.080 E2.4252
G1 X86.345 Y65.138 E2.4393
G1 X86.354 Y65.141 E2.4399
G1 X87.332 Y65.449 E2.5075
G1 X87.340 Y65.451 E2.5081
G1 X87.536 Y65.519 E2.5217
G1 X87.544 Y65.522 E2.5223
G1 X88.585 Y65.916 E2.5955
G1 X88.593 Y65.919 E2.5961
G1 X88.789 Y66.000 E2.6100
G1 X88.797 Y66.003 E2.6106
G1 X89.737 Y66.423 E2.6784
G1 X89.746 Y66.427 E2.6791
G1 X89.960 Y66.532 E2.6948
G1 X89.969 Y66.536 E2.6954
G1 X91.216 Y67.194 E2.7883
G1 X91.226 Y67.199 E2.7890
G1 X91.465 Y67.337 E2.8072
G1 X91.475 Y67.343 E2.8080
G1 X92.643 Y68.077 E2.8988
G1 X92.650 Y68.081 E2.8993
G1 X92.827 Y68.200 E2.9133
G1 X92.834 Y68.205 E2.9139
G1 X93.505 Y68.683 E2.9682
G1 X93.511 Y68.687 E2.9687
G1 X93.657 Y68.797 E2.9807
G1 X93.663 Y68.802 E2.9812
G1 X94.488 Y69.454 E3.0505
G1 X94.495 Y69.461 E3.0511
G1 X94.679 Y69.616 E3.0670
G1 X94.686 Y69.622 E3.0676
G1 X95.721 Y70.558 E3.1595
G1 X95.728 Y70.565 E3.1601
G1 X95.905 Y70.736 E3.1763
G1 X95.912 Y70.743 E3.1770
G1 X96.680 Y71.538 E3.2498
G1 X96.687 Y71.545 E3.2504
G1 X96.846 Y71.721 E3.2661
G1 X96.853 Y71.729 E3.2667
G1 X97.740 Y72.775 E3.3571
G1 X97.747 Y72.784 E3.3578
G1 X97.922 Y73.008 E3.3766
G1 X97.929 Y73.018 E3.3773
G1 X98.814 Y74.243 E3.4768
G1 X98.820 Y74.253 E3.4776
G1 X98.979 Y74.492 E3.4965
G1 X98.985 Y74.502 E3.4973
G1 X99.800 Y75.841 E3.6005
G1 X99.816 Y75.873 E3.6029
G1 X100.178 Y76.667 E3.6604
G1 X100.191 Y76.701 E3.6627
G1 X100.576 Y77.915 E3.7466
G1 X100.585 Y77.949 E3.7490
G1 X100.748 Y78.806 E3.8064
G1 X100.753 Y78.841 E3.8087
G1 X100.829 Y79.939 E3.8812
G1 X100.829 Y79.974 E3.8835
G1 X100.786 Y80.837 E3.9404
G1 X100.783 Y80.872 E3.9427
G1 X100.584 Y82.050 E4.0214
G1 X100.576 Y82.081 E4.0235
G1 X100.359 Y82.848 E4.0760
G1 X100.348 Y82.879 E4.0782
G1 X100.003 Y83.729 E4.1386
G1 X99.993 Y83.750 E4.1401
G1 X99.737 Y84.263 E4.1779
G1 X99.725 Y84.284 E4.1795
G1 X99.123 Y85.282 E4.2562
G1 X99.119 Y85.289 E4.2568
G1 X99.009 Y85.461 E4.2702
G1 X99.004 Y85.468 E4.2707
G1 X98.426 Y86.316 E4.3384
G1 X98.420 Y86.323 E4.3390
G1 X98.290 Y86.502 E4.3535
G1 X98.285 Y86.510 E4.3541
G1 X97.530 Y87.485 E4.4353
G1 X97.523 Y87.493 E4.4360
G1 X97.366 Y87.682 E4.4522
G1 X97.360 Y87.689 E4.4529
G1 X96.540 Y88.612 E4.5341
G1 X96.534 Y88.618 E4.5347
G1 X96.387 Y88.774 E4.5488
G1 X96.381 Y88.781 E4.5494
G1 X95.670 Y89.492 E4.6157
G1 X95.664 Y89.498 E4.6162
G1 X95.520 Y89.634 E4.6293
G1 X95.514 Y89.640 E4.6298
G1 X94.754 Y90.322 E4.6970
G1 X94.747 Y90.327 E4.6976
G1 X94.589 Y90.462 E4.7113
G1 X94.582 Y90.467 E4.7119
G1 X93.733 Y91.146 E4.7835
G1 X93.726 Y91.151 E4.7840
G1 X93.562 Y91.275 E4.7975
G1 X93.555 Y91.280 E4.7981
G1 X92.732 Y91.865 E4.8646
G1 X92.724 Y91.870 E4.8652
G1 X92.539 Y91.994 E4.8799
G1 X92.531 Y91.999 E4.8805
G1 X91.477 Y92.655 E4.9623
G1 X91.469 Y92.660 E4.9629
G1 X91.260 Y92.781 E4.9788
G1 X91.251 Y92.786 E4.9795
G1 X90.149 Y93.375 E5.0618
G1 X90.141 Y93.379 E5.0624
G1 X89.943 Y93.478 E5.0770
G1 X89.934 Y93.482 E5.0776
G1 X89.031 Y93.896 E5.1430
G1 X89.024 Y93.899 E5.1435
G1 X88.842 Y93.977 E5.1565
G1 X88.835 Y93.980 E5.1571
G1 X87.847 Y94.370 E5.2270
G1 X87.838 Y94.373 E5.2276
G1 X87.627 Y94.450 E5.2424
G1 X87.618 Y94.453 E5.2430
G1 X86.470 Y94.826 E5.3225
G1 X86.461 Y94.829 E5.3232
G1 X86.243 Y94.893 E5.3381
G1 X86.234 Y94.895 E5.3387
G1 X85.156 Y95.173 E5.4120
G1 X85.145 Y95.175 E5.4128
G1 X84.879 Y95.234 E5.4307
G1 X84.868 Y95.236 E5.4314
G1 X83.190 Y95.537 E5.5437
G1 X83.178 Y95.539 E5.5445
G1 X82.882 Y95.580 E5.5642
G1 X82.870 Y95.581 E5.5650
G1 X81.575 Y95.706 E5.6507
G1 X81.565 Y95.706 E5.6513
G1 X81.319 Y95.722 E5.6675
G1 X81.309 Y95.722 E5.6682
G1 X80.091 Y95.757 E5.7485
G1 X80.083 Y95.757 E5.7490
G1 X79.875 Y95.757 E5.7627
G1 X79.867 Y95.757 E5.7632
G1 X79.014 Y95.732 E5.8194
G1 X79.009 Y95.732 E5.8198
G1 X78.888 Y95.727 E5.8277
G1 X78.884 Y95.727 E5.8280
G1 X54.851 Y94.249 E7.4137
G1 X54.827 Y94.246 E7.4153
G1 X54.247 Y94.164 E7.4539
G1 X54.223 Y94.159 E7.4554
G1 X53.280 Y93.946 E7.5191
G1 X53.255 Y93.940 E7.5208
G1 X52.660 Y93.751 E7.5619
G1 X52.636 Y93.742 E7.5636
G1 X51.813 Y93.401 E7.6223
G1 X51.789 Y93.389 E7.6240
G1 X51.209 Y93.086 E7.6672
G1 X51.186 Y93.072 E7.6689
G1 X50.220 Y92.450 E7.7446
G1 X50.189 Y92.427 E7.7471
G1 X49.480 Y91.832 E7.8081
G1 X49.453 Y91.805 E7.8106
G1 X48.524 Y90.798 E7.9008
G1 X48.501 Y90.770 E7.9032
G1 X47.984 Y90.052 E7.9614
G1 X47.965 Y90.022 E7.9638
G1 X47.438 Y89.065 E8.0357
G1 X47.427 Y89.042 E8.0374
G1 X47.173 Y88.471 E8.0786
G1 X47.164 Y88.447 E8.0803
G1 X46.845 Y87.523 E8.1447
G1 X46.837 Y87.493 E8.1467
G1 X46.667 Y86.765 E8.1960
G1 X46.661 Y86.734 E8.1980
G1 X46.522 Y85.645 E8.2703
G1 X46.520 Y85.626 E8.2715
G1 X46.491 Y85.157 E8.3025
G1 X46.490 Y85.138 E8.3038
G1 X46.506 Y74.384 E9.0120
G1 X46.509 Y74.347 E9.0144
G1 X46.623 Y73.445 E9.0743
G1 X46.630 Y73.408 E9.0767
G1 X46.990 Y71.999 E9.1725
G1 X47.003 Y71.960 E9.1752
G1 X47.379 Y71.036 E9.2409
G1 X47.397 Y70.999 E9.2436
G1 X48.144 Y69.704 E9.3421
G1 X48.168 Y69.668 E9.3449
G1 X48.811 Y68.850 E9.4135
G1 X48.839 Y68.818 E9.4163
G1 X49.885 Y67.819 E9.5116
G1 X49.914 Y67.794 E9.5140
G1 X50.153 Y68.116 F6000
G92 E0
G1 X50.162 Y68.108 E0.0008 F1800
G1 X50.870 Y67.582 E0.0589
G1 X50.881 Y67.575 E0.0597
G1 X51.940 Y66.976 E0.1398
G1 X51.951 Y66.971 E0.1407
G1 X52.758 Y66.637 E0.1982
G1 X52.769 Y66.633 E0.1990
G1 X54.052 Y66.280 E0.2866
G1 X54.062 Y66.278 E0.2873
G1 X54.790 Y66.156 E0.3358
G1 X54.800 Y66.155 E0.3365
G1 X78.729 Y64.683 E1.9154
G1 X78.831 Y64.678 E1.9220
G1 X79.841 Y64.644 E1.9884
G1 X79.843 Y64.644 E1.9886
G1 X80.010 Y64.643 E1.9996
G1 X80.012 Y64.643 E1.9997
G1 X80.689 Y64.652 E2.0443
G1 X80.691 Y64.652 E2.0445
G1 X80.853 Y64.658 E2.0551
G1 X80.856 Y64.658 E2.0553
G1 X81.917 Y64.721 E2.1253
G1 X81.920 Y64.722 E2.1255
G1 X82.115 Y64.739 E2.1384
G1 X82.118 Y64.739 E2.1386
G1 X83.059 Y64.848 E2.2010
G1 X83.063 Y64.848 E2.2012
G1 X83.282 Y64.880 E2.2158
G1 X83.285 Y64.881 E2.2160
G1 X84.632 Y65.122 E2.3061
G1 X84.635 Y65.123 E2.3063
G1 X84.875 Y65.174 E2.3225
G1 X84.878 Y65.175 E2.3227
G1 X86.030 Y65.465 E2.4009
G1 X86.032 Y65.465 E2.4011
G1 X86.233 Y65.522 E2.4149
G1 X86.236 Y65.523 E2.4150
G1 X87.209 Y65.829 E2.4822
G1 X87.212 Y65.830 E2.4824
G1 X87.403 Y65.896 E2.4957
G1 X87.405 Y65.897 E2.4959
G1 X88.440 Y66.289 E2.5688
G1 X88.443 Y66.290 E2.5690
G1 X88.634 Y66.369 E2.5825
G1 X88.636 Y66.370 E2.5827
G1 X89.571 Y66.787 E2.6501
G1 X89.574 Y66.788 E2.6503
G1 X89.783 Y66.890 E2.6656
G1 X89.785 Y66.891 E2.6658
G1 X91.026 Y67.546 E2.7582
G1 X91.029 Y67.547 E2.7585
G1 X91.262 Y67.682 E2.7762
G1 X91.265 Y67.684 E2.7764
G1 X92.427 Y68.414 E2.8668
G1 X92.430 Y68.415 E2.8670
G1 X92.602 Y68.530 E2.8806
G1 X92.604 Y68.532 E2.8808
G1 X93.271 Y69.007 E2.9347
G1 X93.273 Y69.009 E2.9349
G1 X93.415 Y69.116 E2.9466
G1 X93.417 Y69.117 E2.9467
G1 X94.237 Y69.766 E3.0156
G1 X94.240 Y69.768 E3.0158
G1 X94.418 Y69.919 E3.0312
G1 X94.421 Y69.921 E3.0314
G1 X95.450 Y70.852 E3.1229
G1 X95.453 Y70.855 E3.1231
G1 X95.625 Y71.021 E3.1389
G1 X95.627 Y71.024 E3.1391
G1 X96.390 Y71.813 E3.2114
G1 X96.392 Y71.816 E3.2116
G1 X96.548 Y71.987 E3.2268
G1 X96.550 Y71.990 E3.2271
G1 X97.432 Y73.031 E3.3169
G1 X97.434 Y73.034 E3.3172
G1 X97.605 Y73.252 E3.3354
G1 X97.607 Y73.255 E3.3357
G1 X98.487 Y74.474 E3.4347
G1 X98.489 Y74.477 E3.4349
G1 X98.644 Y74.710 E3.4533
G1 X98.646 Y74.713 E3.4536
G1 X99.452 Y76.039 E3.5557
G1 X99.457 Y76.049 E3.5565
G1 X99.809 Y76.822 E3.6124
G1 X99.813 Y76.833 E3.6132
G1 X100.191 Y78.024 E3.6955
G1 X100.194 Y78.036 E3.6963
G1 X100.353 Y78.869 E3.7522
G1 X100.355 Y78.881 E3.7529
G1 X100.429 Y79.954 E3.8238
G1 X100.429 Y79.966 E3.8246
G1 X100.387 Y80.806 E3.8799
G1 X100.386 Y80.817 E3.8807
G1 X100.191 Y81.972 E3.9578
G1 X100.189 Y81.983 E3.9586
G1 X99.977 Y82.728 E4.0096
G1 X99.973 Y82.739 E4.0103
G1 X99.636 Y83.571 E4.0695
G1 X99.632 Y83.578 E4.0700
G1 X99.382 Y84.077 E4.1068
G1 X99.379 Y84.084 E4.1073
G1 X98.782 Y85.073 E4.1833
G1 X98.781 Y85.076 E4.1835
G1 X98.674 Y85.242 E4.1966
G1 X98.672 Y85.245 E4.1968
G1 X98.097 Y86.088 E4.2640
G1 X98.095 Y86.091 E4.2642
G1 X97.969 Y86.265 E4.2783
G1 X97.967 Y86.267 E4.2785
G1 X97.215 Y87.237 E4.3594
G1 X97.213 Y87.240 E4.3596
G1 X97.061 Y87.424 E4.3753
G1 X97.059 Y87.426 E4.3755
G1 X96.243 Y88.344 E4.4564
G1 X96.241 Y88.346 E4.4566
G1 X96.098 Y88.498 E4.4703
G1 X96.096 Y88.500 E4.4705
G1 X95.389 Y89.207 E4.5364
G1 X95.387 Y89.209 E4.5366
G1 X95.247 Y89.342 E4.5493
G1 X95.245 Y89.344 E4.5495
G1 X94.489 Y90.022 E4.6163
G1 X94.487 Y90.024 E4.6165
G1 X94.332 Y90.155 E4.6299
G1 X94.330 Y90.157 E4.6300
G1 X93.485 Y90.832 E4.7013
G1 X93.483 Y90.834 E4.7015
G1 X93.324 Y90.954 E4.7146
G1 X93.321 Y90.955 E4.7148
G1 X92.503 Y91.537 E4.7809
G1 X92.500 Y91.539 E4.7811
G1 X92.320 Y91.659 E4.7954
G1 X92.317 Y91.661 E4.7956
G1 X91.269 Y92.314 E4.8770
G1 X91.266 Y92.316 E4.8772
G1 X91.062 Y92.433 E4.8926
G1 X91.060 Y92.435 E4.8928
G1 X89.963 Y93.021 E4.9748
G1 X89.960 Y93.022 E4.9750
G1 X89.767 Y93.118 E4.9891
G1 X89.765 Y93.119 E4.9893
G1 X88.867 Y93.531 E5.0544
G1 X88.864 Y93.533 E5.0545
G1 X88.688 Y93.608 E5.0672
G1 X88.685 Y93.609 E5.0674
G1 X87.703 Y93.997 E5.1369
G1 X87.700 Y93.998 E5.1371
G1 X87.494 Y94.072 E5.1515
G1 X87.491 Y94.073 E5.1517
G1 X86.349 Y94.445 E5.2308
G1 X86.346 Y94.446 E5.2310
G1 X86.134 Y94.508 E5.2456
G1 X86.131 Y94.508 E5.2458
G1 X85.060 Y94.785 E5.3187
G1 X85.056 Y94.785 E5.3189
G1 X84.797 Y94.842 E5.3363
