Recovery File Generated by re:3D's reCovery Application 
Visit re:3D.org for more information 
M109 S195.000000
;Sliced at: Wed 29-08-2018 16:06:14
;Basic settings: Layer height: 0.2 Walls: 0.8 Fill: 20
;Print time: 1 hour 2 minutes
;Filament used: 3.726m 11.0g
;Filament cost: 0.26
;M190 S70 ;Uncomment to add your own bed temperature line
;M109 S195 ;Uncomment to add your own temperature line
G21        ;metric values
G90        ;absolute positioning
M82        ;set extruder to absolute mode
M107       ;start with the fan off
G28 X Y 
G92 E0                  ;zero the extruded length
G1 F200 E3              ;extrude 3mm of feed stock
G92 E0                  ;zero the extruded length again
G1 F4500
;Put printing message on LCD screen
M117 Printing...

;Layer count: 240
;LAYER:0
M107

G1 Z0.900
G0 F4500 X41.548 Y61.347 Z0.900
;TYPE:FILL
G1 F2520 X39.535 Y59.334 E165.02297
G0 F4500 X39.535 Y59.459
G1 F2520 X41.192 Y57.802 E165.10091
G0 F4500 X42.143 Y56.851
G1 F2520 X42.655 Y56.339 E165.12500
G0 F4500 X42.198 Y56.340
G1 F2520 X42.765 Y56.907 E165.15167
G0 F4500 X43.776 Y57.919
G1 F2520 X47.603 Y61.745 E165.33165
G0 F4500 X48.502 Y61.806
G1 F2520 X52.166 Y58.142 E165.50400
G0 F4500 X53.489 Y56.317
G1 F2520 X52.482 Y55.310 E165.55136
G0 F4500 X51.759 Y54.587
G1 F2520 X50.125 Y52.953 E165.62822
G0 F4500 X51.388 Y53.262
G1 F2520 X48.368 Y56.282 E165.77027
G0 F4500 X48.376 Y56.861
G1 F2520 X53.659 Y62.144 E166.01877
G0 F4500 X53.810 Y62.155
G1 F2520 X57.947 Y58.018 E166.21336
G0 F4500 X59.131 Y56.302
G1 F2520 X57.265 Y54.437 E166.30111
G0 F4500 X55.984 Y54.324
G1 F2520 X54.734 Y55.574 E166.35990
G0 F4500 X54.500 Y57.328
G1 F2520 X59.715 Y62.543 E166.60520
G0 F4500 X59.117 Y62.504
G1 F2520 X63.603 Y58.018 E166.81621
G0 F4500 X64.394 Y55.909
G1 F2520 X56.176 Y47.691 E167.20276
G0 F4500 X57.016 Y47.635
G1 F2520 X52.917 Y51.734 E167.39556
G0 F4500 X55.992 Y53.164
G1 F2520 X50.872 Y48.043 E167.63642
G0 F4500 X50.957 Y48.037
G1 F2520 X47.086 Y51.908 E167.81850
G0 F4500 X45.817 Y53.177
G1 F2520 X44.916 Y54.078 E167.86088
G0 F4500 X44.476 Y52.961
G1 F2520 X47.150 Y55.635 E167.98665
G0 F4500 X47.121 Y57.530
G1 F2520 X43.195 Y61.456 E168.17132
G0 F4500 X44.717 Y56.141
G0 X44.717 Y53.860
G0 X39.677 Y53.660
G1 F2520 X40.383 Y52.954 E168.20453
G0 F4500 X41.283 Y52.055
G1 F2520 X44.898 Y48.439 E168.37459
G0 F4500 X45.567 Y48.395
G1 F2520 X49.082 Y51.910 E168.53992
G0 F4500 X43.353 Y51.838
G1 F2520 X40.272 Y48.757 E168.68485
G0 F4500 X58.372 Y51.936
G1 F2520 X63.075 Y47.233 E168.90606
G0 F4500 X61.481 Y47.339
G1 F2520 X67.685 Y53.543 E169.19788
G0 F4500 X67.585 Y54.037
G1 F2520 X65.927 Y55.694 E169.27584
G0 F4500 X66.607 Y58.122
G1 F2520 X67.924 Y59.439 E169.33779
G0 F4500 X67.788 Y59.491
G1 F2520 X68.504 Y58.774 E169.37149
G0 F4500 X70.493 Y56.785
G1 F2520 X72.691 Y54.587 E169.47488
G0 F4500 X73.138 Y53.339
G1 F2520 X67.076 Y47.277 E169.76002
G0 F4500 X68.438 Y47.526
G1 F2520 X60.751 Y55.213 E170.12159
G0 F4500 X60.034 Y57.206
G1 F2520 X60.832 Y58.003 E170.15910
G0 F4500 X61.120 Y58.291
G1 F2520 X65.674 Y62.846 E170.37333
G0 F4500 X64.428 Y62.850
G1 F2520 X67.160 Y60.118 E170.50184
G0 F4500 X68.879 Y60.394
G1 F2520 X70.373 Y61.888 E170.57211
G0 F4500 X71.540 Y61.395
G1 F2520 X74.715 Y58.221 E170.72143
G0 F4500 X75.621 Y57.314
G1 F2520 X78.179 Y54.756 E170.84175
G0 F4500 X76.918 Y57.119
G1 F2520 X75.007 Y55.208 E170.93164
G0 F4500 X73.938 Y53.340
G1 F2520 X75.730 Y51.548 E171.01593
G0 F4500 X72.513 Y49.109
G1 F2520 X68.261 Y53.360 E171.21590
G0 F4500 X69.256 Y55.114
G1 F2520 X69.693 Y55.551 E171.23646
G0 F4500 X70.606 Y56.463
G1 F2520 X74.038 Y59.896 E171.39791
G0 F4500 X74.291 Y59.890
;TYPE:WALL-INNER
G1 F2520 X73.461 Y60.477 E171.43172
G1 X73.023 Y60.755 E171.44898
G1 X72.554 Y61.028 E171.46703
G1 X72.108 Y61.271 E171.48392
G1 X71.616 Y61.515 E171.50219
G1 X71.150 Y61.727 E171.51921
G1 X70.634 Y61.940 E171.53778
G1 X70.131 Y62.129 E171.55565
G1 X69.478 Y62.343 E171.57851
G1 X68.957 Y62.490 E171.59651
G1 X68.407 Y62.626 E171.61536
G1 X67.853 Y62.739 E171.63416
G1 X67.292 Y62.836 E171.65310
G1 X66.714 Y62.911 E171.67248
G1 X66.563 Y62.927 E171.67754
G1 X65.976 Y62.975 E171.69712
G1 X65.380 Y63.000 E171.71696
G1 X65.228 Y63.004 E171.72202
G1 X65.073 Y63.002 E171.72718
G1 X64.931 Y63.003 E171.73190
G1 X64.306 Y62.987 E171.75270
G1 X62.847 Y62.893 E171.80132
G1 X62.171 Y62.846 E171.82386
G1 X61.486 Y62.801 E171.84669
G1 X60.853 Y62.758 E171.86779
G1 X60.084 Y62.709 E171.89342
G1 X59.434 Y62.664 E171.91509
G1 X40.491 Y61.419 E172.54650
G1 X40.218 Y61.376 E172.55569
G1 X40.074 Y61.326 E172.56076
G1 X39.932 Y61.254 E172.56606
G1 X39.801 Y61.162 E172.57138
G1 X39.706 Y61.071 E172.57576
G1 X39.543 Y60.842 E172.58511
G1 X39.466 Y60.662 E172.59162
G1 X39.407 Y60.392 E172.60081
G1 X39.395 Y59.776 E172.62130
G1 X39.396 Y56.544 E172.72880
G1 X39.395 Y56.407 E172.73336
G1 X39.396 Y56.201 E172.74021
G1 X44.776 Y56.200 E172.91915
G1 X44.776 Y53.802 E172.99890
G1 X39.396 Y53.801 E173.17784
G1 X39.395 Y53.677 E173.18197
G1 X39.396 Y53.505 E173.18769
G1 X39.395 Y50.296 E173.29442
G1 X39.407 Y49.604 E173.31744
G1 X39.439 Y49.433 E173.32323
G1 X39.511 Y49.227 E173.33049
G1 X39.550 Y49.148 E173.33342
G1 X39.772 Y48.864 E173.34540
G1 X39.910 Y48.758 E173.35119
G1 X40.153 Y48.645 E173.36011
G1 X40.307 Y48.604 E173.36541
G1 X44.613 Y48.309 E173.50896
G1 X47.901 Y48.095 E173.61855
G1 X56.484 Y47.530 E173.90464
G1 X57.160 Y47.487 E173.92717
G1 X63.496 Y47.064 E174.13838
G1 X64.134 Y47.023 E174.15964
G1 X64.770 Y46.999 E174.18081
G1 X65.058 Y46.996 E174.19039
G1 X65.666 Y47.010 E174.21061
G1 X66.263 Y47.047 E174.23051
G1 X66.855 Y47.106 E174.25030
G1 X67.405 Y47.182 E174.26876
G1 X67.990 Y47.286 E174.28853
G1 X68.523 Y47.402 E174.30667
G1 X69.074 Y47.541 E174.32557
G1 X69.606 Y47.698 E174.34402
G1 X70.134 Y47.872 E174.36251
G1 X70.764 Y48.111 E174.38492
G1 X71.238 Y48.310 E174.40202
G1 X71.740 Y48.544 E174.42044
G1 X72.187 Y48.771 E174.43711
G1 X72.658 Y49.030 E174.45499
G1 X73.113 Y49.302 E174.47262
G1 X73.964 Y49.869 E174.50663
G1 X74.579 Y50.333 E174.53226
G1 X74.998 Y50.679 E174.55033
G1 X75.373 Y51.011 E174.56699
G1 X75.848 Y51.466 E174.58887
G1 X76.292 Y51.928 E174.61018
G1 X76.715 Y52.404 E174.63136
G1 X77.049 Y52.814 E174.64895
G1 X77.444 Y53.340 E174.67083
G1 X77.950 Y54.085 E174.70078
G1 X78.233 Y54.550 E174.71888
G1 X78.331 Y54.744 E174.72611
G1 X78.375 Y54.888 E174.73112
G1 X78.383 Y54.987 E174.73442
G1 X78.338 Y55.242 E174.74304
G1 X77.975 Y55.873 E174.76725
G1 X77.764 Y56.202 E174.78025
G1 X77.605 Y56.435 E174.78963
G1 X77.303 Y56.854 E174.80681
G1 X76.898 Y57.373 E174.82871
G1 X76.391 Y57.964 E174.85460
G1 X75.948 Y58.434 E174.87609
G1 X75.391 Y58.972 E174.90184
G1 X75.291 Y59.063 E174.90634
G1 X74.699 Y59.569 E174.93224
G1 X74.291 Y59.890 E174.94951
G0 F4500 X74.538 Y60.205
;TYPE:WALL-OUTER
G1 F2520 X74.110 Y60.520 E174.96718
G1 X73.675 Y60.815 E174.98466
G1 X73.224 Y61.101 E175.00243
G1 X72.760 Y61.371 E175.02028
G1 X72.279 Y61.633 E175.03850
G1 X71.800 Y61.871 E175.05629
G1 X71.303 Y62.097 E175.07445
G1 X70.789 Y62.309 E175.09294
G1 X70.534 Y62.410 E175.10206
G1 X70.007 Y62.595 E175.12064
G1 X69.599 Y62.724 E175.13487
G1 X69.057 Y62.878 E175.15361
G1 X68.353 Y63.048 E175.17770
G1 X68.072 Y63.106 E175.18724
G1 X67.493 Y63.208 E175.20680
G1 X66.753 Y63.309 E175.23164
G1 X66.156 Y63.365 E175.25158
G1 X65.540 Y63.397 E175.27210
G1 X65.233 Y63.404 E175.28231
G1 X65.072 Y63.402 E175.28767
G1 X64.924 Y63.403 E175.29259
G1 X64.293 Y63.387 E175.31358
G1 X62.819 Y63.292 E175.36271
G1 X60.827 Y63.157 E175.42912
G1 X60.056 Y63.108 E175.45481
G1 X40.449 Y61.817 E176.10836
G1 X40.106 Y61.760 E176.11992
G1 X39.920 Y61.696 E176.12646
G1 X39.720 Y61.595 E176.13392
G1 X39.551 Y61.475 E176.14081
G1 X39.399 Y61.332 E176.14775
G1 X39.162 Y60.978 E176.16192
G1 X39.082 Y60.783 E176.16893
G1 X39.009 Y60.450 E176.18027
G1 X38.995 Y60.152 E176.19019
G1 X38.996 Y60.138 E176.19066
G1 X38.995 Y56.406 E176.31478
G1 X38.996 Y56.016 E176.32776
G1 X38.995 Y55.948 E176.33002
G1 X38.996 Y55.801 E176.33491
G1 X44.376 Y55.800 E176.51385
G1 X44.376 Y54.201 E176.56703
G1 X38.995 Y54.201 E176.74600
G1 X38.996 Y53.851 E176.75764
G1 X38.995 Y53.674 E176.76353
G1 X38.996 Y49.799 E176.89241
G1 X39.009 Y49.552 E176.90064
G1 X39.051 Y49.329 E176.90819
G1 X39.142 Y49.070 E176.91732
G1 X39.209 Y48.933 E176.92239
G1 X39.478 Y48.590 E176.93689
G1 X39.634 Y48.459 E176.94366
G1 X39.713 Y48.408 E176.94679
G1 X40.016 Y48.267 E176.95791
G1 X40.424 Y48.185 E176.97175
G1 X64.121 Y46.623 E177.76162
G1 X64.755 Y46.599 E177.78273
G1 X65.063 Y46.596 E177.79297
G1 X65.679 Y46.610 E177.81347
G1 X66.296 Y46.648 E177.83403
G1 X66.895 Y46.708 E177.85405
G1 X67.475 Y46.788 E177.87352
G1 X68.060 Y46.892 E177.89328
G1 X68.621 Y47.014 E177.91238
G1 X69.183 Y47.156 E177.93166
G1 X69.720 Y47.314 E177.95028
G1 X70.259 Y47.492 E177.96916
G1 X70.382 Y47.535 E177.97349
G1 X70.907 Y47.738 E177.99221
G1 X71.407 Y47.947 E178.01024
G1 X71.903 Y48.178 E178.02843
G1 X72.380 Y48.420 E178.04622
G1 X72.852 Y48.679 E178.06413
G1 X73.318 Y48.959 E178.08221
G1 X73.762 Y49.242 E178.09972
G1 X74.201 Y49.546 E178.11749
G1 X74.840 Y50.029 E178.14413
G1 X75.248 Y50.366 E178.16173
G1 X75.645 Y50.718 E178.17937
G1 X76.127 Y51.179 E178.20156
G1 X76.310 Y51.365 E178.21024
G1 X76.676 Y51.754 E178.22800
G1 X77.024 Y52.151 E178.24556
G1 X77.446 Y52.672 E178.26786
G1 X77.769 Y53.107 E178.28588
G1 X77.924 Y53.322 E178.29470
G1 X78.296 Y53.884 E178.31711
G1 X78.579 Y54.349 E178.33522
G1 X78.705 Y54.598 E178.34450
G1 X78.762 Y54.785 E178.35100
G1 X78.784 Y54.965 E178.35703
G1 X78.783 Y54.982 E178.35760
G1 X78.784 Y55.021 E178.35890
G1 X78.725 Y55.351 E178.37005
G1 X78.708 Y55.397 E178.37168
G1 X78.317 Y56.081 E178.39788
G1 X77.936 Y56.660 E178.42094
G1 X77.622 Y57.095 E178.43878
G1 X77.209 Y57.625 E178.46113
G1 X76.687 Y58.233 E178.48778
G1 X76.506 Y58.429 E178.49665
G1 X76.138 Y58.810 E178.51427
G1 X75.661 Y59.269 E178.53629
G1 X75.364 Y59.534 E178.54953
G1 X74.960 Y59.873 E178.56707
G1 X74.538 Y60.205 E178.58493
G0 F4500 X73.525 Y60.258
;TYPE:SKIN
G1 F2520 X77.617 Y56.166 E178.77740
G0 F4500 X76.779 Y56.439
G1 F2520 X78.240 Y54.978 E178.84612
G0 F4500 X78.081 Y54.571
G1 F2520 X77.515 Y54.855 E178.87008
G1 X77.753 Y54.050 E178.88921
G1 X77.136 Y54.102 E178.90764
G1 X77.292 Y53.380 E178.92576
G1 X76.678 Y53.428 E178.94332
G1 X76.804 Y52.737 E178.96084
G1 X76.186 Y52.788 E178.97786
G1 X76.280 Y52.129 E178.99452
G1 X75.662 Y52.181 E179.01092
G1 X75.727 Y51.551 E179.02688
G1 X75.106 Y51.606 E179.04274
G1 X75.148 Y50.999 E179.05832
G1 X74.522 Y51.058 E179.07359
G1 X74.534 Y50.481 E179.08856
G1 X73.902 Y50.548 E179.10325
G1 X73.890 Y49.994 E179.11804
G1 X73.251 Y50.067 E179.13243
G1 X73.215 Y49.537 E179.14652
G1 X72.566 Y49.621 E179.16072
G1 X72.510 Y49.110 E179.17487
G1 X71.850 Y49.205 E179.18867
G1 X71.771 Y48.718 E179.20254
G1 X71.093 Y48.830 E179.21631
G1 X70.998 Y48.360 E179.23034
G1 X70.304 Y48.489 E179.24402
G1 X70.184 Y48.043 E179.25765
G1 X69.470 Y48.191 E179.27148
G1 X69.332 Y47.763 E179.28531
G1 X68.742 Y47.788 E179.29916
G1 X68.287 Y47.677 E179.31310
G1 X67.819 Y47.579 E179.32726
G1 X67.338 Y47.494 E179.34163
G1 X66.843 Y47.425 E179.35639
G1 X66.331 Y47.370 E179.37146
G1 X65.802 Y47.333 E179.38689
G1 X65.254 Y47.316 E179.40289
G1 X64.686 Y47.319 E179.41947
G1 X64.095 Y47.344 E179.43678
G1 X63.491 Y47.382 E179.45455
G1 X62.887 Y47.420 E179.47221
G1 X62.282 Y47.459 E179.48970
G1 X61.678 Y47.498 E179.50707
G1 X61.074 Y47.537 E179.52428
G1 X60.469 Y47.575 E179.54131
G1 X59.865 Y47.614 E179.55822
G1 X59.261 Y47.652 E179.57498
G1 X58.657 Y47.691 E179.59154
G1 X58.052 Y47.729 E179.60802
G1 X57.448 Y47.768 E179.62433
G1 X56.844 Y47.807 E179.64048
G1 X56.239 Y47.845 E179.65651
G1 X55.635 Y47.884 E179.67237
G1 X55.031 Y47.923 E179.68807
G1 X54.426 Y47.961 E179.70359
G1 X53.823 Y48.000 E179.71897
G1 X53.218 Y48.038 E179.73424
G1 X52.614 Y48.077 E179.74934
G1 X52.010 Y48.116 E179.76429
G1 X51.405 Y48.154 E179.77910
G1 X50.801 Y48.193 E179.79375
G1 X50.197 Y48.232 E179.80824
G1 X49.592 Y48.270 E179.82261
G1 X48.988 Y48.309 E179.83680
G1 X48.384 Y48.347 E179.85084
G1 X47.779 Y48.386 E179.86475
G1 X47.175 Y48.424 E179.87849
G1 X46.571 Y48.463 E179.89213
G1 X45.966 Y48.502 E179.90559
G1 X45.362 Y48.540 E179.91888
G1 X44.758 Y48.579 E179.93201
G1 X44.153 Y48.618 E179.94502
G1 X43.549 Y48.656 E179.95785
G1 X42.945 Y48.695 E179.97048
G1 X42.340 Y48.733 E179.98298
G1 X41.736 Y48.772 E179.99531
G1 X41.132 Y48.811 E180.00754
G1 X40.693 Y48.967 E180.02304
G0 F4500 X40.353 Y48.741
G1 F2520 X39.564 Y49.531 E180.06017
G0 F4500 X39.769 Y49.891
G1 F2520 X39.642 Y50.300 E180.07068
G1 X39.642 Y50.867 E180.07987
G1 X39.641 Y51.434 E180.08916
G1 X39.639 Y52.000 E180.09857
G1 X39.638 Y52.567 E180.10810
G1 X39.536 Y52.953 E180.12137
G0 F4500 X39.534 Y53.520
G1 F2520 X41.734 Y51.320 E180.22486
G0 F4500 X42.394 Y51.226
G1 F2520 X39.960 Y53.660 E180.33934
G0 F4500 X44.717 Y53.860
G0 X44.717 Y56.141
G0 X40.109 Y56.339
G1 F2520 X39.535 Y56.914 E180.36637
G0 F4500 X39.880 Y57.134
G1 F2520 X40.675 Y56.339 E180.40376
G0 F4500 X41.241 Y56.339
G1 F2520 X40.094 Y57.486 E180.45771
G0 F4500 X40.353 Y57.792
G1 F2520 X41.806 Y56.339 E180.52606
G0 F4500 X42.372 Y56.339
G1 F2520 X40.648 Y58.064 E180.60717
G0 F4500 X40.991 Y58.286
G1 F2520 X42.938 Y56.339 E180.69875
G0 F4500 X43.504 Y56.339
G1 F2520 X41.357 Y58.485 E180.79972
G0 F4500 X41.798 Y58.610
G1 F2520 X44.069 Y56.339 E180.90654
G0 F4500 X44.635 Y56.339
G1 F2520 X42.285 Y58.689 E181.01708
G0 F4500 X42.842 Y58.697
G1 F2520 X44.948 Y56.591 E181.11614
G0 F4500 X45.026 Y57.079
G1 F2520 X43.521 Y58.584 E181.18693
G0 F4500 X46.631 Y57.737
G1 F2520 X48.890 Y55.478 E181.29318
G0 F4500 X48.891 Y54.911
G1 F2520 X46.616 Y57.186 E181.40019
G0 F4500 X46.635 Y56.602
G1 F2520 X48.892 Y54.344 E181.50638
G0 F4500 X48.893 Y53.778
G1 F2520 X46.629 Y56.042 E181.61287
G0 F4500 X46.630 Y55.475
G1 F2520 X50.466 Y51.639 E181.79330
G0 F4500 X50.703 Y51.968
G1 F2520 X49.010 Y53.661 E181.87294
G0 F4500 X49.585 Y53.651
G1 F2520 X51.917 Y51.319 E181.98263
G0 F4500 X52.583 Y51.219
G1 F2520 X50.655 Y53.148 E182.07334
G0 F4500 X50.619 Y53.183
G1 F2520 X50.403 Y53.399 E182.08350
G0 F4500 X50.884 Y53.484
G1 F2520 X53.135 Y51.233 E182.18938
G0 F4500 X53.619 Y51.314
G1 F2520 X51.189 Y53.745 E182.30370
G0 F4500 X51.377 Y54.122
G1 F2520 X54.034 Y51.466 E182.42865
G0 F4500 X54.393 Y51.672
G1 F2520 X51.228 Y54.837 E182.57753
G0 F4500 X51.350 Y55.280
G1 F2520 X54.684 Y51.947 E182.73432
G0 F4500 X54.916 Y52.280
G1 F2520 X51.616 Y55.580 E182.88955
G0 F4500 X52.014 Y55.748
G1 F2520 X55.074 Y52.688 E183.03348
G0 F4500 X55.459 Y52.868
G1 F2520 X56.949 Y51.379 E183.10354
G0 F4500 X57.504 Y51.389
G1 F2520 X55.467 Y53.426 E183.19935
G0 F4500 X55.126 Y53.202
G1 F2520 X52.487 Y55.841 E183.32348
G0 F4500 X52.219 Y56.108
G1 F2520 X50.652 Y57.676 E183.39722
G0 F4500 X50.862 Y58.032
G1 F2520 X52.582 Y56.311 E183.47814
G0 F4500 X52.839 Y56.055
G1 F2520 X55.073 Y53.820 E183.58325
G0 F4500 X55.465 Y53.994
G1 F2520 X58.061 Y51.398 E183.70535
G0 F4500 X58.586 Y51.439
G1 F2520 X55.466 Y54.559 E183.85211
G0 F4500 X55.075 Y54.949
G1 F2520 X51.517 Y58.508 E184.01949
G0 F4500 X51.159 Y58.300
G1 F2520 X54.872 Y54.587 E184.19414
G0 F4500 X55.467 Y55.123
G1 F2520 X59.062 Y51.528 E184.36324
G0 F4500 X59.502 Y51.654
G1 F2520 X55.468 Y55.688 E184.55298
G0 F4500 X55.328 Y55.828
G1 F2520 X52.454 Y58.702 E184.68817
G0 F4500 X51.958 Y58.632
G1 F2520 X55.216 Y55.374 E184.84141
G0 F4500 X55.468 Y56.253
G1 F2520 X57.786 Y53.936 E184.95042
G0 F4500 X58.006 Y53.716
G1 F2520 X59.868 Y51.854 E185.03800
G0 F4500 X60.196 Y52.092
G1 F2520 X58.513 Y53.775 E185.11717
G0 F4500 X58.802 Y54.051
G1 F2520 X60.474 Y52.379 E185.19581
G0 F4500 X60.705 Y52.714
G1 F2520 X58.926 Y54.493 E185.27949
G0 F4500 X58.953 Y55.031
G1 F2520 X60.911 Y53.074 E185.37157
G0 F4500 X61.065 Y53.485
G1 F2520 X58.856 Y55.694 E185.47547
G0 F4500 X58.371 Y56.179
G1 F2520 X56.075 Y58.475 E185.58347
G0 F4500 X55.765 Y58.219
G1 F2520 X57.789 Y56.196 E185.67865
G0 F4500 X57.784 Y55.635
G1 F2520 X55.559 Y57.860 E185.78330
G0 F4500 X55.463 Y57.390
G1 F2520 X57.785 Y55.068 E185.89252
G0 F4500 X57.785 Y54.503
G1 F2520 X55.464 Y56.823 E186.00167
G0 F4500 X55.197 Y57.091
G1 F2520 X53.727 Y58.561 E186.07082
G0 F4500 X53.029 Y58.693
G1 F2520 X55.366 Y56.356 E186.18074
G0 F4500 X56.542 Y58.574
G1 F2520 X61.178 Y53.938 E186.39881
G0 F4500 X61.251 Y54.430
G1 F2520 X57.149 Y58.532 E186.59175
G0 F4500 X57.707 Y58.540
G1 F2520 X61.279 Y54.969 E186.75974
G0 F4500 X61.240 Y55.573
G1 F2520 X58.292 Y58.521 E186.89841
G0 F4500 X58.950 Y58.429
G1 F2520 X61.673 Y55.706 E187.02649
G0 F4500 X62.184 Y55.761
G1 F2520 X59.973 Y57.971 E187.13047
G0 F4500 X55.441 Y52.321
G1 F2520 X56.348 Y51.414 E187.17313
G0 F4500 X50.106 Y51.434
G1 F2520 X46.632 Y54.908 E187.33653
G0 F4500 X46.624 Y54.350
G1 F2520 X49.594 Y51.380 E187.47623
G0 F4500 X49.019 Y51.389
G1 F2520 X46.645 Y53.763 E187.58790
G0 F4500 X46.168 Y53.675
G1 F2520 X48.457 Y51.386 E187.69557
G0 F4500 X47.889 Y51.388
G1 F2520 X45.597 Y53.680 E187.80338
G0 F4500 X45.209 Y53.502
G1 F2520 X47.321 Y51.391 E187.90269
G0 F4500 X46.752 Y51.393
G1 F2520 X44.485 Y53.660 E188.00933
G0 F4500 X43.919 Y53.660
G1 F2520 X46.210 Y51.370 E188.11707
G0 F4500 X45.633 Y51.381
G1 F2520 X43.354 Y53.660 E188.22426
G0 F4500 X42.788 Y53.660
G1 F2520 X44.527 Y51.921 E188.30606
G0 F4500 X44.221 Y51.661
G1 F2520 X42.222 Y53.660 E188.40009
G0 F4500 X41.657 Y53.660
G1 F2520 X43.849 Y51.468 E188.50319
G0 F4500 X43.430 Y51.321
G1 F2520 X41.091 Y53.660 E188.61321
G0 F4500 X40.525 Y53.660
G1 F2520 X42.958 Y51.228 E188.72763
G0 F4500 X40.332 Y52.156
G1 F2520 X40.235 Y52.254 E188.73221
G0 F4500 X44.717 Y53.860
G0 X46.803 Y58.131
G1 F2520 X48.888 Y56.045 E188.83031
G0 F4500 X48.887 Y56.612
G1 F2520 X47.097 Y58.402 E188.91451
G0 F4500 X47.513 Y58.552
G1 F2520 X48.907 Y57.158 E188.98008
G0 F4500 X48.794 Y57.837
G1 F2520 X48.117 Y58.514 E189.01192
G0 F4500 X50.542 Y57.220
G1 F2520 X51.739 Y56.023 E189.06822
G0 F4500 X51.172 Y61.681
G1 F2520 X50.765 Y61.806 E189.08146
G1 X50.233 Y61.772 E189.09454
G1 X49.701 Y61.738 E189.10753
G1 X49.168 Y61.704 E189.12041
G1 X48.637 Y61.670 E189.13310
G1 X48.105 Y61.636 E189.14574
G1 X47.574 Y61.603 E189.15830
G1 X47.042 Y61.569 E189.17071
G1 X46.509 Y61.535 E189.18301
G1 X45.977 Y61.501 E189.19520
G1 X45.445 Y61.468 E189.20730
G1 X44.914 Y61.434 E189.21925
G1 X44.382 Y61.400 E189.23108
G1 X43.850 Y61.366 E189.24283
G1 X43.318 Y61.332 E189.25453
G1 X42.786 Y61.298 E189.26606
G1 X42.254 Y61.265 E189.27749
G1 X41.722 Y61.231 E189.28884
G1 X41.191 Y61.197 E189.30003
G1 X40.672 Y61.151 E189.31117
G1 X40.101 Y61.155 E189.32251
G1 X40.159 Y60.815 E189.33399
G0 F4500 X51.422 Y61.997
G1 F2520 X51.828 Y61.873 E189.34729
G1 X52.360 Y61.907 E189.36072
G1 X52.892 Y61.941 E189.37424
G1 X53.424 Y61.974 E189.38790
G1 X53.956 Y62.008 E189.40164
G1 X54.488 Y62.042 E189.41547
G1 X55.020 Y62.076 E189.42943
G1 X55.552 Y62.109 E189.44352
G1 X56.083 Y62.143 E189.45773
G1 X56.615 Y62.177 E189.47195
G1 X57.147 Y62.211 E189.48632
G1 X57.679 Y62.245 E189.50081
G1 X58.211 Y62.278 E189.51544
G1 X58.743 Y62.312 E189.53020
G1 X59.275 Y62.346 E189.54509
G1 X59.807 Y62.380 E189.56003
G1 X60.339 Y62.414 E189.57505
G1 X60.871 Y62.448 E189.59021
G1 X61.402 Y62.481 E189.60548
G1 X61.934 Y62.515 E189.62086
G1 X62.466 Y62.549 E189.63637
G1 X62.998 Y62.583 E189.65197
G1 X63.530 Y62.617 E189.66767
G1 X64.062 Y62.651 E189.68349
G1 X64.601 Y62.677 E189.69946
G1 X65.157 Y62.686 E189.71574
G1 X65.745 Y62.664 E189.73326
G1 X66.349 Y62.625 E189.75122
G1 X66.985 Y62.555 E189.77011
G1 X67.656 Y62.450 E189.79016
G1 X68.373 Y62.299 E189.81221
G1 X69.004 Y61.951 E189.83618
G0 F4500 X69.263 Y62.257
G1 F2520 X69.831 Y61.690 E189.86287
G0 F4500 X70.092 Y61.994
G1 F2520 X70.765 Y61.321 E189.89453
G0 F4500 X71.027 Y61.625
G1 F2520 X71.860 Y60.792 E189.93371
G0 F4500 X72.107 Y61.110
G1 F2520 X73.372 Y59.845 E189.99321
G0 F4500 X73.353 Y58.733
G1 F2520 X75.520 Y56.567 E190.09512
G0 F4500 X75.864 Y56.788
G1 F2520 X73.915 Y58.737 E190.18679
G0 F4500 X74.478 Y58.740
G1 F2520 X76.103 Y57.115 E190.26323
G0 F4500 X75.069 Y56.452
G1 F2520 X72.760 Y58.761 E190.37184
G0 F4500 X72.269 Y58.687
G1 F2520 X75.395 Y55.560 E190.51890
G0 F4500 X76.088 Y54.302
G1 F2520 X71.917 Y58.472 E190.71507
G0 F4500 X71.677 Y58.147
G1 F2520 X76.081 Y53.742 E190.92224
G0 F4500 X75.931 Y53.327
G1 F2520 X71.550 Y57.708 E191.12831
G0 F4500 X71.607 Y57.086
G1 F2520 X75.666 Y53.027 E191.31923
G0 F4500 X75.270 Y52.856
G1 F2520 X72.599 Y55.528 E191.44489
G0 F4500 X72.486 Y55.075
G1 F2520 X74.740 Y52.821 E191.55091
G0 F4500 X74.171 Y52.824
G1 F2520 X72.076 Y54.919 E191.64945
G0 F4500 X71.494 Y55.501
G1 F2520 X66.674 Y60.321 E191.87617
G0 F4500 X66.832 Y60.729
G1 F2520 X71.186 Y56.375 E192.08097
G0 F4500 X70.878 Y57.249
G1 F2520 X67.097 Y61.030 E192.25882
G0 F4500 X67.471 Y61.222
G1 F2520 X70.569 Y58.123 E192.40456
G0 F4500 X70.222 Y59.036
G1 F2520 X67.991 Y61.267 E192.50950
G0 F4500 X68.756 Y61.067
G1 F2520 X69.806 Y60.017 E192.55889
G0 F4500 X68.143 Y58.287
G1 F2520 X73.609 Y52.821 E192.81599
G0 F4500 X73.046 Y52.818
G1 F2520 X68.322 Y57.542 E193.03820
G0 F4500 X68.146 Y57.152
G1 F2520 X72.424 Y52.874 E193.23942
G0 F4500 X71.594 Y53.139
G1 F2520 X67.990 Y56.743 E193.40894
G0 F4500 X67.837 Y56.330
G1 F2520 X71.258 Y52.909 E193.56985
G0 F4500 X70.774 Y52.827
G1 F2520 X69.703 Y53.899 E193.62025
G0 F4500 X69.454 Y54.147
G1 F2520 X67.684 Y55.917 E193.70351
G0 F4500 X67.532 Y55.504
G1 F2520 X69.317 Y53.718 E193.78749
G0 F4500 X69.138 Y53.332
G1 F2520 X67.368 Y55.102 E193.87075
G0 F4500 X67.211 Y54.693
G1 F2520 X68.858 Y53.047 E193.94820
G0 F4500 X68.464 Y52.875
G1 F2520 X62.494 Y58.845 E194.22901
G0 F4500 X61.750 Y59.022
G1 F2520 X67.936 Y52.837 E194.51995
G0 F4500 X67.008 Y53.199
G1 F2520 X61.266 Y58.941 E194.79004
G0 F4500 X60.881 Y58.761
G1 F2520 X63.170 Y56.472 E194.89771
G0 F4500 X62.914 Y56.162
G1 F2520 X60.568 Y58.508 E195.00806
G0 F4500 X60.323 Y58.187
G1 F2520 X62.588 Y55.922 E195.11459
G0 F4500 X63.662 Y55.414
G1 F2520 X66.257 Y52.819 E195.23666
G0 F4500 X66.693 Y52.948
G1 F2520 X63.867 Y55.775 E195.36961
G0 F4500 X63.456 Y55.054
G1 F2520 X65.118 Y53.392 E195.44778
G0 F4500 X64.849 Y53.095
G1 F2520 X63.250 Y54.694 E195.52299
G0 F4500 X63.095 Y54.283
G1 F2520 X64.498 Y52.880 E195.58899
G0 F4500 X63.976 Y52.837
G1 F2520 X63.016 Y53.797 E195.63414
G0 F4500 X66.768 Y55.136
G1 F2520 X63.390 Y58.515 E195.79306
G0 F4500 X63.765 Y58.705
G1 F2520 X66.559 Y55.911 E195.92448
G0 F4500 X66.770 Y56.265
G1 F2520 X64.329 Y58.706 E196.03929
G0 F4500 X65.316 Y58.286
G1 F2520 X66.972 Y56.629 E196.11721
G0 F4500 X67.175 Y56.992
G1 F2520 X65.596 Y58.571 E196.19148
G0 F4500 X65.995 Y58.737
G1 F2520 X67.324 Y57.409 E196.25397
G0 F4500 X67.291 Y58.008
G1 F2520 X66.608 Y58.691 E196.28610
G0 F4500 X67.362 Y59.068
G1 F2520 X66.649 Y59.780 E196.31961
G0 F4500 X39.892 Y60.517
G1 F2520 X39.600 Y60.524 E196.33061
G1 X39.645 Y59.914 E196.34053
G1 X39.637 Y59.357 E196.35012
G1 X39.637 Y58.791 E196.35972
G1 X39.637 Y58.225 E196.36932
G1 X39.637 Y57.660 E196.37890
G1 X39.740 Y57.274 E196.39219
;LAYER:4
G0 F4500 X39.440 Y59.239 Z1.100
;TYPE:FILL
G1 F3000 X41.671 Y61.470 E196.49713
G0 F4500 X43.084 Y61.567
G1 F3000 X57.158 Y47.492 E197.15915
G0 F4500 X56.053 Y47.567
G1 F3000 X70.490 Y62.004 E197.83822
G0 F4500 X71.237 Y61.698
G1 F3000 X78.342 Y54.593 E198.17242
G0 F4500 X77.056 Y57.257
G1 F3000 X66.909 Y47.110 E198.64971
G0 F4500 X68.556 Y47.408
G1 F3000 X53.684 Y62.280 E199.34924
G0 F4500 X53.802 Y62.287
G1 F3000 X40.170 Y48.655 E199.99045
G0 F4500 X39.877 Y53.460
G1 F3000 X45.032 Y48.305 E200.23292
G0 F4500 X45.449 Y48.277
G1 F3000 X59.867 Y62.695 E200.91110
G0 F4500 X58.985 Y62.636
G1 F3000 X72.631 Y48.991 E201.55294
G0 F4500 X75.859 Y51.419
G1 F3000 X64.290 Y62.988 E202.09711
G0 F4500 X65.813 Y62.984
G1 F3000 X50.751 Y47.922 E202.80558
G0 F4500 X51.096 Y47.898
G1 F3000 X44.916 Y54.078 E203.09627
G0 F4500 X44.717 Y56.343
G0 X42.452 Y56.542
G1 F3000 X39.441 Y59.553 E203.23790
G0 F4500 X42.400 Y56.543
G1 F3000 X47.737 Y61.879 E203.48891
G0 F4500 X48.385 Y61.923
G1 F3000 X63.222 Y47.086 E204.18680
G0 F4500 X61.354 Y47.212
G1 F3000 X74.161 Y60.019 E204.78920
G0 F4500 X74.325 Y60.076
;TYPE:WALL-INNER
G1 F3000 X73.894 Y60.384 E204.80682
G1 X73.452 Y60.678 E204.82448
G1 X72.984 Y60.966 E204.84275
G1 X72.530 Y61.224 E204.86012
G1 X72.061 Y61.473 E204.87778
G1 X71.142 Y61.898 E204.91146
G1 X70.624 Y62.106 E204.93002
G1 X70.091 Y62.301 E204.94890
G1 X69.564 Y62.471 E204.96732
G1 X68.624 Y62.725 E204.99970
G1 X68.129 Y62.835 E205.01657
G1 X67.635 Y62.926 E205.03328
G1 X67.124 Y63.006 E205.05048
G1 X66.616 Y63.065 E205.06749
G1 X66.084 Y63.112 E205.08525
G1 X65.562 Y63.138 E205.10264
G1 X65.182 Y63.149 E205.11528
G1 X65.103 Y63.148 E205.11791
G1 X65.038 Y63.149 E205.12007
G1 X64.946 Y63.147 E205.12313
G1 X64.885 Y63.148 E205.12516
G1 X64.791 Y63.145 E205.12829
G1 X64.730 Y63.146 E205.13032
G1 X64.162 Y63.124 E205.14922
G1 X63.592 Y63.087 E205.16822
G1 X63.074 Y63.050 E205.18549
G1 X62.398 Y63.004 E205.20803
G1 X60.174 Y62.855 E205.28217
G1 X55.762 Y62.555 E205.42925
G1 X40.406 Y61.526 E205.94114
G1 X40.125 Y61.479 E205.95061
G1 X39.834 Y61.357 E205.96111
G1 X39.713 Y61.273 E205.96601
G1 X39.603 Y61.167 E205.97109
G1 X39.504 Y61.041 E205.97642
G1 X39.435 Y60.920 E205.98105
G1 X39.341 Y60.662 E205.99018
G1 X39.312 Y60.508 E205.99540
G1 X39.300 Y60.157 E206.00708
G1 X39.301 Y56.403 E206.13194
G1 X43.996 Y56.399 E206.28809
G1 X44.776 Y56.403 E206.31403
G1 X44.776 Y53.601 E206.40723
G1 X39.300 Y53.600 E206.58936
G1 X39.301 Y49.700 E206.71908
G1 X39.303 Y49.622 E206.72167
G1 X39.347 Y49.322 E206.73176
G1 X39.435 Y49.080 E206.74032
G1 X39.511 Y48.948 E206.74539
G1 X39.710 Y48.728 E206.75525
G1 X39.761 Y48.691 E206.75735
G1 X39.890 Y48.612 E206.76238
G1 X40.124 Y48.521 E206.77073
G1 X40.392 Y48.476 E206.77977
G1 X49.379 Y47.873 E207.07935
G1 X53.853 Y47.575 E207.22849
G1 X58.363 Y47.269 E207.37883
G1 X59.811 Y47.172 E207.42710
G1 X61.225 Y47.074 E207.47425
G1 X62.767 Y46.970 E207.52565
G1 X63.438 Y46.923 E207.54802
G1 X63.950 Y46.889 E207.56509
G1 X64.481 Y46.862 E207.58277
G1 X65.026 Y46.851 E207.60090
G1 X65.111 Y46.852 E207.60373
G1 X65.169 Y46.851 E207.60566
G1 X65.724 Y46.869 E207.62413
G1 X66.240 Y46.900 E207.64132
G1 X66.756 Y46.950 E207.65856
G1 X67.264 Y47.015 E207.67560
G1 X67.775 Y47.098 E207.69282
G1 X68.273 Y47.195 E207.70969
G1 X69.233 Y47.432 E207.74258
G1 X69.717 Y47.577 E207.75938
G1 X70.227 Y47.746 E207.77725
G1 X70.756 Y47.943 E207.79603
G1 X71.269 Y48.156 E207.81450
G1 X71.746 Y48.375 E207.83196
G1 X72.232 Y48.615 E207.84999
G1 X72.685 Y48.860 E207.86712
G1 X73.164 Y49.141 E207.88559
G1 X73.598 Y49.416 E207.90268
G1 X74.054 Y49.725 E207.92100
G1 X74.479 Y50.037 E207.93853
G1 X74.876 Y50.348 E207.95531
G1 X75.340 Y50.743 E207.97558
G1 X75.730 Y51.098 E207.99312
G1 X76.123 Y51.481 E208.01137
G1 X76.477 Y51.852 E208.02842
G1 X76.861 Y52.285 E208.04767
G1 X77.512 Y53.092 E208.08216
G1 X77.813 Y53.509 E208.09926
G1 X78.106 Y53.943 E208.11668
G1 X78.405 Y54.424 E208.13552
G1 X78.504 Y54.589 E208.14192
G1 X78.595 Y54.792 E208.14932
G1 X78.622 Y54.904 E208.15315
G1 X78.627 Y54.998 E208.15628
G1 X78.586 Y55.232 E208.16418
G1 X78.524 Y55.379 E208.16949
G1 X78.211 Y55.891 E208.18945
G1 X77.903 Y56.361 E208.20814
G1 X77.594 Y56.797 E208.22591
G1 X77.276 Y57.214 E208.24335
G1 X76.673 Y57.933 E208.27456
G1 X76.307 Y58.331 E208.29255
G1 X75.948 Y58.694 E208.30953
G1 X75.565 Y59.056 E208.32706
G1 X75.154 Y59.419 E208.34529
G1 X74.745 Y59.754 E208.36288
G1 X74.325 Y60.076 E208.38048
G0 F4500 X74.552 Y60.405
;TYPE:WALL-OUTER
G1 F3000 X74.115 Y60.717 E208.39834
G1 X73.656 Y61.022 E208.41667
G1 X73.196 Y61.306 E208.43465
G1 X72.718 Y61.577 E208.45293
G1 X72.240 Y61.831 E208.47093
G1 X71.291 Y62.269 E208.50569
G1 X70.762 Y62.482 E208.52466
G1 X70.228 Y62.677 E208.54357
G1 X69.690 Y62.851 E208.56237
G1 X68.705 Y63.117 E208.59631
G1 X67.697 Y63.321 E208.63051
G1 X67.183 Y63.402 E208.64782
G1 X66.646 Y63.464 E208.66580
G1 X66.127 Y63.510 E208.68313
G1 X65.569 Y63.538 E208.70171
G1 X65.189 Y63.549 E208.71436
G1 X65.104 Y63.548 E208.71718
G1 X65.034 Y63.549 E208.71951
G1 X64.945 Y63.547 E208.72247
G1 X64.878 Y63.548 E208.72470
G1 X64.787 Y63.545 E208.72773
G1 X64.719 Y63.546 E208.72999
G1 X64.150 Y63.524 E208.74893
G1 X63.566 Y63.486 E208.76840
G1 X40.363 Y61.925 E209.54188
G1 X40.022 Y61.868 E209.55338
G1 X39.712 Y61.748 E209.56443
G1 X39.456 Y61.581 E209.57460
G1 X39.305 Y61.435 E209.58158
G1 X39.173 Y61.267 E209.58869
G1 X39.070 Y61.088 E209.59556
G1 X38.954 Y60.769 E209.60685
G1 X38.915 Y60.560 E209.61392
G1 X38.900 Y60.307 E209.62235
G1 X38.901 Y60.291 E209.62288
G1 X38.900 Y60.157 E209.62734
G1 X38.901 Y56.119 E209.76164
G1 X38.900 Y56.003 E209.76550
G1 X43.998 Y55.999 E209.93506
G1 X44.376 Y56.001 E209.94763
G1 X44.376 Y54.001 E210.01416
G1 X38.900 Y54.000 E210.19629
G1 X38.901 Y49.689 E210.33967
G1 X38.904 Y49.587 E210.34307
G1 X38.957 Y49.223 E210.35530
G1 X39.070 Y48.912 E210.36631
G1 X39.233 Y48.651 E210.37654
G1 X39.382 Y48.486 E210.38394
G1 X39.455 Y48.419 E210.38723
G1 X39.715 Y48.251 E210.39753
G1 X40.022 Y48.132 E210.40848
G1 X40.350 Y48.078 E210.41953
G1 X63.924 Y46.490 E211.20539
G1 X64.479 Y46.462 E211.22387
G1 X65.022 Y46.451 E211.24193
G1 X65.110 Y46.452 E211.24486
G1 X65.177 Y46.451 E211.24709
G1 X65.731 Y46.469 E211.26552
G1 X66.267 Y46.501 E211.28338
G1 X66.809 Y46.553 E211.30149
G1 X67.323 Y46.619 E211.31873
G1 X67.844 Y46.704 E211.33629
G1 X68.342 Y46.801 E211.35316
G1 X68.853 Y46.920 E211.37061
G1 X69.341 Y47.047 E211.38738
G1 X69.832 Y47.194 E211.40443
G1 X70.374 Y47.374 E211.42343
G1 X70.896 Y47.568 E211.44195
G1 X71.422 Y47.787 E211.46090
G1 X71.929 Y48.019 E211.47944
G1 X72.403 Y48.253 E211.49702
G1 X72.888 Y48.515 E211.51536
G1 X73.367 Y48.796 E211.53383
G1 X73.823 Y49.085 E211.55179
G1 X74.279 Y49.394 E211.57011
G1 X74.711 Y49.710 E211.58791
G1 X75.136 Y50.044 E211.60589
G1 X75.609 Y50.447 E211.62655
G1 X76.009 Y50.811 E211.64454
G1 X76.397 Y51.189 E211.66256
G1 X76.777 Y51.587 E211.68086
G1 X77.162 Y52.021 E211.70016
G1 X77.487 Y52.408 E211.71697
G1 X77.828 Y52.847 E211.73545
G1 X78.151 Y53.294 E211.75380
G1 X78.447 Y53.732 E211.77138
G1 X78.743 Y54.209 E211.79005
G1 X78.860 Y54.406 E211.79767
G1 X78.976 Y54.665 E211.80711
G1 X79.019 Y54.841 E211.81314
G1 X79.028 Y55.025 E211.81926
G1 X78.972 Y55.346 E211.83010
G1 X78.869 Y55.581 E211.83864
G1 X78.546 Y56.110 E211.85925
G1 X78.242 Y56.574 E211.87770
G1 X77.922 Y57.026 E211.89612
G1 X77.587 Y57.465 E211.91449
G1 X76.971 Y58.200 E211.94638
G1 X76.605 Y58.598 E211.96437
G1 X76.218 Y58.989 E211.98267
G1 X75.830 Y59.356 E212.00043
G1 X75.423 Y59.715 E212.01848
G1 X74.988 Y60.071 E212.03718
G1 X74.552 Y60.405 E212.05544
G0 F4500 X73.995 Y60.136
;TYPE:SKIN
G1 F3000 X73.852 Y59.710 E212.06968
G1 X74.483 Y59.775 E212.08429
G1 X74.479 Y59.205 E212.09927
G1 X75.107 Y59.268 E212.11433
G1 X75.077 Y58.672 E212.12971
G1 X75.702 Y58.732 E212.14532
G1 X75.645 Y58.108 E212.16132
G1 X76.266 Y58.164 E212.17765
G1 X76.185 Y57.517 E212.19397
G1 X76.798 Y57.565 E212.21063
G1 X76.690 Y56.891 E212.22743
G1 X77.306 Y56.942 E212.24496
G1 X77.165 Y56.234 E212.26267
G1 X77.781 Y56.285 E212.28086
G1 X77.605 Y55.543 E212.29944
G1 X78.225 Y55.598 E212.31864
G1 X77.814 Y54.904 E212.34547
G0 F4500 X78.483 Y55.007
G1 F3000 X76.999 Y53.523 E212.41527
G0 F4500 X77.834 Y53.793
G1 F3000 X73.689 Y49.647 E212.61026
G0 F4500 X73.517 Y50.041
G1 F3000 X72.272 Y48.796 E212.66883
G0 F4500 X72.046 Y49.136
G1 F3000 X71.183 Y48.273 E212.70942
G0 F4500 X70.927 Y48.583
G1 F3000 X70.247 Y47.902 E212.74143
G0 F4500 X69.990 Y48.211
G1 F3000 X69.411 Y47.632 E212.76866
G0 F4500 X69.149 Y47.936
G1 F3000 X68.512 Y47.581 E212.79243
G1 X67.791 Y47.426 E212.81432
G1 X67.115 Y47.317 E212.83471
G1 X66.472 Y47.239 E212.85388
G1 X65.860 Y47.193 E212.87169
G1 X65.274 Y47.172 E212.88880
G1 X64.712 Y47.176 E212.90539
G1 X64.167 Y47.197 E212.92140
G1 X63.636 Y47.231 E212.93666
G1 X63.105 Y47.266 E212.95180
G1 X62.574 Y47.300 E212.96688
G1 X62.043 Y47.335 E212.98189
G1 X61.512 Y47.370 E212.99680
G1 X60.981 Y47.404 E213.01166
G1 X60.450 Y47.439 E213.02640
G1 X59.919 Y47.474 E213.04109
G1 X59.388 Y47.508 E213.05569
G1 X58.856 Y47.542 E213.07023
G1 X58.325 Y47.577 E213.08465
G1 X57.795 Y47.612 E213.09896
G1 X57.263 Y47.646 E213.11319
G1 X56.732 Y47.681 E213.12735
G1 X56.201 Y47.716 E213.14142
G1 X55.669 Y47.750 E213.15538
G1 X55.138 Y47.784 E213.16923
G1 X54.607 Y47.819 E213.18291
G1 X54.075 Y47.853 E213.19660
G1 X53.545 Y47.888 E213.21016
G1 X53.013 Y47.922 E213.22368
G1 X52.482 Y47.957 E213.23709
G1 X51.951 Y47.991 E213.25036
G1 X51.420 Y48.026 E213.26346
G1 X50.889 Y48.060 E213.27651
G1 X50.358 Y48.095 E213.28947
G1 X49.826 Y48.129 E213.30237
G1 X49.295 Y48.163 E213.31507
G1 X48.764 Y48.198 E213.32773
G1 X48.232 Y48.232 E213.34032
G1 X47.701 Y48.267 E213.35275
G1 X47.170 Y48.301 E213.36514
G1 X46.639 Y48.336 E213.37739
G1 X46.107 Y48.370 E213.38958
G1 X45.576 Y48.405 E213.40162
G1 X45.045 Y48.439 E213.41357
G1 X44.514 Y48.474 E213.42538
G1 X43.983 Y48.508 E213.43715
G1 X43.451 Y48.543 E213.44885
G1 X42.920 Y48.577 E213.46044
G1 X42.389 Y48.611 E213.47190
G1 X41.858 Y48.646 E213.48327
G1 X41.327 Y48.680 E213.49451
G1 X40.797 Y48.716 E213.50569
G1 X40.309 Y48.795 E213.51691
G1 X39.811 Y48.861 E213.52831
G1 X39.804 Y49.421 E213.53949
G1 X39.459 Y49.642 E213.55042
G1 X39.543 Y50.291 E213.56006
G1 X39.543 Y50.856 E213.56969
G1 X39.543 Y51.422 E213.57934
G1 X39.543 Y51.988 E213.58898
G1 X39.543 Y52.553 E213.59861
G1 X39.543 Y53.119 E213.60826
G1 X39.600 Y53.459 E213.61973
G0 F4500 X44.717 Y53.660
G0 X44.717 Y56.343
G0 X39.440 Y56.693
G1 F3000 X39.543 Y57.079 E213.62939
G1 X39.543 Y57.645 E213.63904
G1 X39.543 Y58.210 E213.64867
G1 X39.542 Y58.775 E213.65826
G1 X39.542 Y59.341 E213.66786
G1 X39.542 Y59.907 E213.67746
G1 X39.689 Y60.336 E213.69254
G0 F4500 X39.513 Y60.727
G1 F3000 X40.106 Y61.319 E213.72041
G0 F4500 X40.453 Y61.101
G1 F3000 X40.927 Y61.292 E213.73490
G1 X41.532 Y61.331 E213.74781
G1 X42.137 Y61.371 E213.76086
G1 X42.742 Y61.410 E213.77407
G1 X43.347 Y61.449 E213.78738
G1 X43.952 Y61.488 E213.80084
G1 X44.557 Y61.528 E213.81445
G1 X45.163 Y61.567 E213.82824
G1 X45.767 Y61.606 E213.84213
G1 X46.372 Y61.646 E213.85619
G1 X46.977 Y61.685 E213.87036
G1 X47.583 Y61.725 E213.88470
G1 X48.187 Y61.764 E213.89914
G1 X48.792 Y61.803 E213.91371
G1 X49.397 Y61.842 E213.92848
G1 X50.003 Y61.882 E213.94338
G1 X50.607 Y61.921 E213.95838
G1 X51.212 Y61.960 E213.97350
G1 X51.817 Y62.000 E213.98883
G1 X52.423 Y62.039 E214.00428
G1 X53.027 Y62.078 E214.01988
G1 X53.632 Y62.118 E214.03561
G1 X54.237 Y62.157 E214.05149
G1 X54.842 Y62.196 E214.06752
G1 X55.447 Y62.236 E214.08365
G1 X56.053 Y62.275 E214.09996
G1 X56.657 Y62.314 E214.11637
G1 X57.262 Y62.353 E214.13295
G1 X57.867 Y62.393 E214.14969
G1 X58.473 Y62.432 E214.16656
G1 X59.077 Y62.472 E214.18352
G1 X59.682 Y62.511 E214.20066
G1 X60.288 Y62.550 E214.21798
G1 X60.893 Y62.590 E214.23542
G1 X61.498 Y62.629 E214.25296
G1 X62.102 Y62.668 E214.27063
G1 X62.708 Y62.708 E214.28845
G1 X63.313 Y62.747 E214.30645
G1 X63.917 Y62.786 E214.32457
G1 X64.517 Y62.820 E214.34241
G1 X65.093 Y62.830 E214.35927
G1 X65.645 Y62.816 E214.37543
G1 X66.177 Y62.783 E214.39112
G1 X66.695 Y62.736 E214.40660
G1 X67.197 Y62.672 E214.42150
G1 X67.683 Y62.591 E214.43600
G1 X68.156 Y62.499 E214.45039
G1 X68.614 Y62.392 E214.46458
G1 X69.060 Y62.272 E214.47849
G1 X69.502 Y62.148 E214.49246
G1 X70.072 Y62.153 E214.50611
G1 X70.198 Y61.713 E214.51969
G1 X70.894 Y61.843 E214.53329
G1 X71.001 Y61.384 E214.54693
G1 X71.676 Y61.494 E214.56041
G1 X71.761 Y61.013 E214.57430
G1 X72.428 Y61.114 E214.58827
G1 X72.490 Y60.611 E214.60226
G1 X73.146 Y60.701 E214.61652
G1 X73.188 Y60.177 E214.63064
G1 X73.661 Y60.367 E214.64759
G0 F4500 X44.691 Y53.459
G1 F3000 X44.348 Y53.399 E214.65321
G1 X43.782 Y53.399 E214.65881
G1 X43.217 Y53.399 E214.66440
G1 X42.651 Y53.399 E214.67000
G1 X42.085 Y53.399 E214.67560
G1 X41.520 Y53.399 E214.68119
G1 X40.954 Y53.399 E214.68679
G1 X40.388 Y53.399 E214.69239
G1 X40.046 Y53.339 E214.70394
;LAYER:5
G0 F4500 X39.993 Y53.344 Z1.300
;TYPE:FILL
G1 F3000 X45.162 Y48.175 E214.94707
G0 F4500 X45.335 Y48.163
G1 F3000 X60.011 Y62.839 E215.63739
G0 F4500 X64.154 Y63.124
G1 F3000 X75.987 Y51.291 E216.19397
G0 F4500 X78.495 Y54.440
G1 F3000 X70.940 Y61.995 E216.54934
G0 F4500 X70.608 Y62.123
G1 F3000 X55.920 Y47.435 E217.24022
G0 F4500 X57.312 Y47.339
G1 F3000 X42.980 Y61.671 E217.91435
G0 F4500 X41.790 Y61.589
G1 F3000 X39.354 Y59.153 E218.02893
G0 F4500 X39.356 Y59.638
G1 F3000 X42.339 Y56.655 E218.16924
G0 F4500 X42.514 Y56.656
G1 F3000 X47.864 Y62.006 E218.42089
G0 F4500 X48.274 Y62.034
G1 F3000 X63.387 Y46.921 E219.13176
G0 F4500 X61.213 Y47.071
G1 F3000 X74.286 Y60.144 E219.74667
G0 F4500 X65.950 Y63.122
G1 F3000 X50.628 Y47.799 E220.46740
G0 F4500 X51.237 Y47.757
G1 F3000 X44.916 Y54.078 E220.76472
G0 F4500 X44.916 Y53.401
G1 F3000 X53.937 Y62.422 E221.18904
G0 F4500 X53.567 Y62.397
G1 F3000 X68.684 Y47.280 E221.90010
G0 F4500 X66.745 Y46.946
G1 F3000 X77.195 Y57.396 E222.39163
G0 F4500 X72.747 Y48.874
G1 F3000 X58.860 Y62.761 E223.04483
G0 F4500 X44.858 Y53.344
G1 F3000 X40.075 Y48.560 E223.26983
G0 F4500 X40.307 Y48.370
;TYPE:WALL-INNER
G1 F3000 X59.700 Y47.042 E223.91636
G1 X64.040 Y46.736 E224.06107
G1 X64.517 Y46.715 E224.07695
G1 X64.796 Y46.709 E224.08623
G1 X64.808 Y46.710 E224.08663
G1 X65.123 Y46.706 E224.09711
G1 X65.746 Y46.725 E224.11784
G1 X66.360 Y46.766 E224.13830
G1 X66.959 Y46.827 E224.15833
G1 X67.533 Y46.909 E224.17762
G1 X68.136 Y47.017 E224.19799
G1 X68.692 Y47.140 E224.21693
G1 X69.242 Y47.281 E224.23582
G1 X69.812 Y47.448 E224.25557
G1 X70.327 Y47.620 E224.27363
G1 X70.873 Y47.825 E224.29303
G1 X71.374 Y48.033 E224.31107
G1 X72.264 Y48.453 E224.34380
G1 X72.970 Y48.836 E224.37052
G1 X73.420 Y49.107 E224.38799
G1 X73.894 Y49.412 E224.40673
G1 X74.324 Y49.710 E224.42414
G1 X74.774 Y50.046 E224.44281
G1 X75.557 Y50.698 E224.47670
G1 X75.956 Y51.064 E224.49471
G1 X76.358 Y51.458 E224.51343
G1 X76.716 Y51.834 E224.53070
G1 X77.077 Y52.241 E224.54880
G1 X77.425 Y52.660 E224.56691
G1 X77.771 Y53.110 E224.58579
G1 X78.082 Y53.542 E224.60350
G1 X78.412 Y54.035 E224.62323
G1 X78.715 Y54.527 E224.64245
G1 X78.807 Y54.696 E224.64885
G1 X78.854 Y54.828 E224.65351
G1 X78.875 Y54.974 E224.65841
G1 X78.867 Y55.107 E224.66284
G1 X78.789 Y55.339 E224.67098
G1 X78.447 Y55.911 E224.69315
G1 X78.174 Y56.324 E224.70962
G1 X77.844 Y56.791 E224.72864
G1 X77.525 Y57.213 E224.74623
G1 X77.168 Y57.653 E224.76508
G1 X76.823 Y58.047 E224.78249
G1 X76.442 Y58.456 E224.80109
G1 X76.071 Y58.827 E224.81854
G1 X75.663 Y59.207 E224.83708
G1 X75.266 Y59.552 E224.85457
G1 X74.810 Y59.925 E224.87417
G1 X74.372 Y60.256 E224.89243
G1 X73.942 Y60.557 E224.90989
G1 X73.480 Y60.859 E224.92824
G1 X73.021 Y61.135 E224.94606
G1 X72.521 Y61.412 E224.96507
G1 X72.014 Y61.672 E224.98402
G1 X71.513 Y61.907 E225.00243
G1 X71.017 Y62.117 E225.02034
G1 X70.474 Y62.327 E225.03970
G1 X69.959 Y62.504 E225.05782
G1 X69.404 Y62.674 E225.07712
G1 X68.847 Y62.823 E225.09630
G1 X68.310 Y62.946 E225.11462
G1 X67.551 Y63.089 E225.14031
G1 X66.825 Y63.190 E225.16469
G1 X66.224 Y63.246 E225.18477
G1 X65.955 Y63.264 E225.19373
G1 X65.945 Y63.263 E225.19407
G1 X65.643 Y63.281 E225.20413
G1 X65.486 Y63.286 E225.20936
G1 X65.330 Y63.289 E225.21454
G1 X65.317 Y63.288 E225.21498
G1 X65.000 Y63.294 E225.22552
G1 X64.359 Y63.279 E225.24685
G1 X63.723 Y63.242 E225.26804
G1 X55.700 Y62.682 E225.53553
G1 X54.176 Y62.579 E225.58634
G1 X46.146 Y62.028 E225.85404
G1 X41.686 Y61.725 E226.00273
G1 X40.457 Y61.639 E226.04370
G1 X40.012 Y61.578 E226.05864
G1 X39.886 Y61.535 E226.06307
G1 X39.668 Y61.412 E226.07140
G1 X39.569 Y61.329 E226.07569
G1 X39.404 Y61.135 E226.08416
G1 X39.308 Y60.957 E226.09089
G1 X39.221 Y60.634 E226.10202
G1 X39.206 Y59.365 E226.14423
G1 X39.207 Y58.885 E226.16019
G1 X39.205 Y56.517 E226.23895
G1 X44.776 Y56.516 E226.42424
G1 X44.776 Y53.485 E226.52505
G1 X39.205 Y53.484 E226.71035
G1 X39.206 Y52.828 E226.73217
G1 X39.207 Y52.528 E226.74214
G1 X39.206 Y49.601 E226.83950
G1 X39.218 Y49.406 E226.84599
G1 X39.278 Y49.128 E226.85545
G1 X39.336 Y48.984 E226.86062
G1 X39.405 Y48.864 E226.86522
G1 X39.560 Y48.680 E226.87322
G1 X39.743 Y48.539 E226.88091
G1 X39.943 Y48.445 E226.88826
G1 X40.307 Y48.370 E226.90062
G0 F4500 X40.250 Y47.973
;TYPE:WALL-OUTER
G1 F3000 X64.012 Y46.337 E227.69282
G1 X64.812 Y46.308 E227.71944
G1 X64.971 Y46.306 E227.72473
G1 X65.764 Y46.325 E227.75111
G1 X66.394 Y46.367 E227.77211
G1 X67.007 Y46.430 E227.79261
G1 X67.604 Y46.515 E227.81267
G1 X68.207 Y46.623 E227.83304
G1 X68.782 Y46.749 E227.85262
G1 X69.361 Y46.899 E227.87251
G1 X69.918 Y47.062 E227.89182
G1 X70.475 Y47.248 E227.91135
G1 X71.007 Y47.447 E227.93024
G1 X71.537 Y47.668 E227.94934
G1 X72.440 Y48.094 E227.98255
G1 X73.172 Y48.491 E228.01024
G1 X73.637 Y48.770 E228.02828
G1 X74.105 Y49.071 E228.04679
G1 X74.563 Y49.389 E228.06533
G1 X75.013 Y49.725 E228.08401
G1 X75.407 Y50.044 E228.10087
G1 X75.833 Y50.408 E228.11951
G1 X76.236 Y50.778 E228.13770
G1 X76.633 Y51.167 E228.15619
G1 X77.015 Y51.569 E228.17463
G1 X77.385 Y51.986 E228.19318
G1 X77.742 Y52.416 E228.21177
G1 X78.088 Y52.866 E228.23065
G1 X78.414 Y53.319 E228.24921
G1 X78.753 Y53.825 E228.26947
G1 X79.052 Y54.310 E228.28842
G1 X79.175 Y54.537 E228.29700
G1 X79.240 Y54.721 E228.30349
G1 X79.276 Y54.963 E228.31163
G1 X79.266 Y55.153 E228.31796
G1 X79.200 Y55.400 E228.32646
G1 X79.145 Y55.523 E228.33094
G1 X78.790 Y56.117 E228.35396
G1 X78.500 Y56.555 E228.37143
G1 X78.171 Y57.022 E228.39043
G1 X77.836 Y57.465 E228.40890
G1 X77.484 Y57.899 E228.42749
G1 X77.116 Y58.320 E228.44609
G1 X76.737 Y58.727 E228.46459
G1 X76.344 Y59.120 E228.48307
G1 X75.939 Y59.497 E228.50147
G1 X75.519 Y59.861 E228.51996
G1 X75.053 Y60.243 E228.54000
G1 X74.616 Y60.572 E228.55819
G1 X74.155 Y60.895 E228.57692
G1 X73.694 Y61.197 E228.59525
G1 X73.215 Y61.485 E228.61384
G1 X72.708 Y61.766 E228.63312
G1 X72.201 Y62.026 E228.65207
G1 X71.682 Y62.270 E228.67114
G1 X71.161 Y62.490 E228.68995
G1 X70.618 Y62.700 E228.70931
G1 X70.076 Y62.887 E228.72838
G1 X69.518 Y63.058 E228.74780
G1 X68.947 Y63.211 E228.76746
G1 X68.519 Y63.310 E228.78207
G1 X68.220 Y63.375 E228.79225
G1 X67.616 Y63.483 E228.81265
G1 X67.167 Y63.550 E228.82775
G1 X66.867 Y63.588 E228.83781
G1 X66.251 Y63.646 E228.85839
G1 X65.950 Y63.665 E228.86842
G1 X65.940 Y63.664 E228.86875
G1 X65.473 Y63.687 E228.88431
G1 X65.315 Y63.690 E228.88956
G1 X65.155 Y63.694 E228.89488
G1 X64.351 Y63.679 E228.92163
G1 X63.695 Y63.641 E228.94349
G1 X40.424 Y62.038 E229.71932
G1 X39.917 Y61.969 E229.73634
G1 X39.720 Y61.901 E229.74327
G1 X39.442 Y61.744 E229.75389
G1 X39.285 Y61.614 E229.76067
G1 X39.076 Y61.367 E229.77143
G1 X38.932 Y61.095 E229.78166
G1 X38.836 Y60.765 E229.79309
G1 X38.821 Y60.664 E229.79649
G1 X38.806 Y59.364 E229.83973
G1 X38.805 Y56.117 E229.94773
G1 X44.376 Y56.116 E230.13302
G1 X44.376 Y53.885 E230.20722
G1 X38.806 Y53.884 E230.39248
G1 X38.806 Y49.592 E230.53523
G1 X38.821 Y49.350 E230.54330
G1 X38.894 Y49.011 E230.55483
G1 X38.976 Y48.808 E230.56211
G1 X39.076 Y48.633 E230.56882
G1 X39.282 Y48.390 E230.57941
G1 X39.531 Y48.198 E230.58987
G1 X39.818 Y48.062 E230.60043
G1 X40.250 Y47.973 E230.61510
G0 F4500 X40.607 Y48.488
;TYPE:SKIN
G1 F3000 X40.615 Y48.762 E230.62969
G1 X41.376 Y48.566 E230.64283
G1 X41.982 Y48.526 E230.65611
G1 X42.588 Y48.486 E230.66949
G1 X43.194 Y48.446 E230.68302
G1 X43.801 Y48.405 E230.69673
G1 X44.407 Y48.364 E230.71052
G1 X45.013 Y48.324 E230.72446
G1 X45.618 Y48.283 E230.73852
G1 X46.225 Y48.244 E230.75269
G1 X46.831 Y48.203 E230.76703
G1 X47.437 Y48.162 E230.78147
G1 X48.043 Y48.122 E230.79602
G1 X48.649 Y48.082 E230.81071
G1 X49.255 Y48.041 E230.82551
G1 X49.861 Y48.001 E230.84051
G1 X50.467 Y47.960 E230.85561
G1 X51.074 Y47.920 E230.87083
G1 X51.679 Y47.880 E230.88616
G1 X52.286 Y47.839 E230.90169
G1 X52.892 Y47.799 E230.91729
G1 X53.498 Y47.758 E230.93305
G1 X54.104 Y47.718 E230.94891
G1 X54.710 Y47.678 E230.96492
G1 X55.316 Y47.637 E230.98108
G1 X55.922 Y47.597 E230.99734
G1 X56.528 Y47.557 E231.01370
G1 X57.135 Y47.516 E231.03029
G1 X57.741 Y47.476 E231.04696
G1 X58.346 Y47.435 E231.06375
G1 X58.953 Y47.394 E231.08069
G1 X59.559 Y47.354 E231.09771
G1 X60.165 Y47.314 E231.11488
G1 X60.771 Y47.274 E231.13215
G1 X61.377 Y47.233 E231.14958
G1 X61.983 Y47.193 E231.16710
G1 X62.589 Y47.152 E231.18473
G1 X63.195 Y47.112 E231.20250
G1 X63.801 Y47.071 E231.22043
G1 X64.399 Y47.040 E231.23821
G1 X64.980 Y47.025 E231.25551
G1 X65.536 Y47.034 E231.27178
G1 X66.072 Y47.064 E231.28750
G1 X66.593 Y47.108 E231.30289
G1 X67.099 Y47.168 E231.31797
G1 X67.591 Y47.242 E231.33278
G1 X68.067 Y47.331 E231.34723
G1 X68.531 Y47.432 E231.36145
G1 X68.983 Y47.547 E231.37533
G1 X69.422 Y47.673 E231.38919
G1 X70.002 Y47.659 E231.40323
G1 X70.128 Y48.099 E231.41705
G1 X70.830 Y47.962 E231.43073
G1 X70.938 Y48.420 E231.44442
G1 X71.621 Y48.304 E231.45819
G1 X71.708 Y48.781 E231.47190
G1 X72.380 Y48.675 E231.48604
G1 X72.450 Y49.170 E231.49980
G1 X73.106 Y49.080 E231.51389
G1 X73.150 Y49.602 E231.52818
G1 X73.798 Y49.520 E231.54252
G1 X73.826 Y50.058 E231.55694
G1 X74.462 Y49.987 E231.57152
G1 X74.463 Y50.551 E231.58625
G1 X75.089 Y50.492 E231.60115
G1 X75.073 Y51.073 E231.61618
G1 X75.696 Y51.016 E231.63142
G1 X75.655 Y51.623 E231.64690
G1 X76.269 Y51.574 E231.66257
G1 X76.202 Y52.207 E231.67850
G1 X76.816 Y52.159 E231.69489
G1 X76.718 Y52.823 E231.71174
G1 X77.331 Y52.775 E231.72867
G1 X77.207 Y53.465 E231.74598
G1 X77.819 Y53.419 E231.76359
G1 X77.662 Y54.141 E231.78171
G1 X78.277 Y54.092 E231.80023
G1 X78.014 Y54.921 E231.81947
G1 X78.602 Y54.616 E231.84150
G0 F4500 X78.727 Y55.056
G1 F3000 X77.100 Y56.684 E231.91805
G0 F4500 X77.944 Y56.405
G1 F3000 X74.017 Y60.332 E232.10276
G0 F4500 X73.916 Y59.867
G1 F3000 X72.548 Y61.236 E232.16713
G0 F4500 X72.310 Y60.908
G1 F3000 X71.427 Y61.791 E232.20867
G0 F4500 X71.178 Y61.475
G1 F3000 X70.479 Y62.173 E232.24152
G0 F4500 X70.216 Y61.871
G1 F3000 X69.627 Y62.460 E232.26923
G0 F4500 X69.368 Y62.153
G1 F3000 X68.715 Y62.523 E232.29388
G1 X67.991 Y62.681 E232.31600
G1 X67.304 Y62.803 E232.33677
G1 X66.653 Y62.887 E232.35620
G1 X66.035 Y62.940 E232.37451
G1 X65.440 Y62.969 E232.39200
G1 X64.871 Y62.972 E232.40879
G1 X64.323 Y62.955 E232.42516
G1 X63.788 Y62.924 E232.44098
G1 X63.257 Y62.889 E232.45637
G1 X62.727 Y62.853 E232.47161
G1 X62.197 Y62.818 E232.48676
G1 X61.666 Y62.783 E232.50181
G1 X61.136 Y62.747 E232.51674
G1 X60.605 Y62.712 E232.53160
G1 X60.075 Y62.677 E232.54636
G1 X59.545 Y62.642 E232.56102
G1 X59.014 Y62.606 E232.57558
G1 X58.484 Y62.571 E232.59002
G1 X57.953 Y62.536 E232.60440
G1 X57.423 Y62.501 E232.61867
G1 X56.893 Y62.466 E232.63284
G1 X56.362 Y62.430 E232.64692
G1 X55.832 Y62.395 E232.66092
G1 X55.302 Y62.359 E232.67479
G1 X54.771 Y62.325 E232.68859
G1 X54.241 Y62.289 E232.70224
G1 X53.711 Y62.254 E232.71580
G1 X53.180 Y62.219 E232.72934
G1 X52.650 Y62.183 E232.74272
G1 X52.119 Y62.148 E232.75604
G1 X51.589 Y62.112 E232.76925
G1 X51.058 Y62.077 E232.78235
G1 X50.528 Y62.042 E232.79533
G1 X49.998 Y62.006 E232.80823
G1 X49.467 Y61.971 E232.82106
G1 X48.937 Y61.936 E232.83378
G1 X48.406 Y61.901 E232.84635
G1 X47.876 Y61.865 E232.85885
G1 X47.346 Y61.830 E232.87126
G1 X46.815 Y61.795 E232.88356
G1 X46.285 Y61.760 E232.89579
G1 X45.754 Y61.725 E232.90792
G1 X45.224 Y61.689 E232.91993
G1 X44.693 Y61.654 E232.93188
G1 X44.163 Y61.618 E232.94372
G1 X43.633 Y61.583 E232.95547
G1 X43.102 Y61.548 E232.96710
G1 X42.572 Y61.513 E232.97863
G1 X42.041 Y61.478 E232.99009
G1 X41.512 Y61.442 E233.00138
G1 X40.981 Y61.407 E233.01262
G1 X40.470 Y61.352 E233.02377
G1 X39.900 Y61.356 E233.03552
G1 X39.823 Y60.867 E233.04697
G1 X39.411 Y60.714 E233.05786
G1 X39.461 Y60.099 E233.06740
G1 X39.452 Y59.541 E233.07636
G1 X39.451 Y58.977 E233.08536
G1 X39.449 Y58.413 E233.09455
G1 X39.448 Y57.848 E233.10390
G1 X39.447 Y57.284 E233.11333
G1 X39.549 Y56.899 E233.12657
G0 F4500 X44.717 Y56.457
G0 X44.717 Y53.544
G0 X39.346 Y53.143
G1 F3000 X39.447 Y52.758 E233.13611
G1 X39.447 Y52.192 E233.14561
G1 X39.447 Y51.627 E233.15515
G1 X39.447 Y51.061 E233.16466
G1 X39.447 Y50.495 E233.17416
G1 X39.447 Y49.930 E233.18370
G1 X39.534 Y49.277 E233.19657
G1 X39.920 Y48.609 E233.22223
;LAYER:6
G0 F4500 X39.966 Y48.451 Z1.500
;TYPE:FILL
G1 F3000 X44.799 Y53.284 E233.44956
G0 F4500 X44.916 Y53.401
G1 F3000 X54.075 Y62.561 E233.88040
G0 F4500 X53.447 Y62.518
G1 F3000 X68.802 Y47.162 E234.60267
G0 F4500 X66.581 Y46.782
G1 F3000 X77.333 Y57.534 E235.10841
G0 F4500 X78.648 Y54.287
G1 F3000 X70.680 Y62.255 E235.48320
G0 F4500 X70.723 Y62.238
G1 F3000 X55.798 Y47.313 E236.18523
G0 F4500 X57.455 Y47.195
G1 F3000 X42.874 Y61.777 E236.87110
G0 F4500 X41.910 Y61.709
G1 F3000 X39.257 Y59.056 E236.99589
G0 F4500 X39.260 Y59.734
G1 F3000 X42.272 Y56.721 E237.13759
G0 F4500 X42.580 Y56.722
G1 F3000 X47.993 Y62.135 E237.39220
G0 F4500 X48.160 Y62.148
G1 F3000 X63.541 Y46.767 E238.11567
G0 F4500 X61.083 Y46.941
G1 F3000 X74.403 Y60.261 E238.74221
G0 F4500 X66.086 Y63.258
G1 F3000 X50.512 Y47.684 E239.47476
G0 F4500 X51.371 Y47.623
G1 F3000 X44.916 Y54.078 E239.77838
G0 F4500 X44.717 Y53.482
G0 X40.056 Y53.281
G1 F3000 X45.285 Y48.052 E240.02434
G0 F4500 X45.227 Y48.056
G1 F3000 X60.157 Y62.986 E240.72660
G0 F4500 X64.021 Y63.257
G1 F3000 X76.117 Y51.162 E241.29554
G0 F4500 X72.865 Y48.756
G1 F3000 X58.734 Y62.887 E241.96021
G0 F4500 X61.376 Y63.218
;TYPE:WALL-INNER
G1 F3000 X55.638 Y62.810 E242.15154
G1 X52.572 Y62.595 E242.25377
G1 X52.065 Y62.559 E242.27067
G1 X43.179 Y61.942 E242.56694
G1 X40.797 Y61.774 E242.64636
G1 X40.207 Y61.733 E242.66603
G1 X39.935 Y61.687 E242.67520
G1 X39.713 Y61.602 E242.68311
G1 X39.587 Y61.526 E242.68800
G1 X39.406 Y61.365 E242.69606
G1 X39.314 Y61.248 E242.70101
G1 X39.244 Y61.125 E242.70572
G1 X39.153 Y60.874 E242.71460
G1 X39.123 Y60.711 E242.72011
G1 X39.111 Y56.580 E242.85751
G1 X44.010 Y56.579 E243.02045
G1 X44.776 Y56.584 E243.04593
G1 X44.776 Y53.425 E243.15100
G1 X44.017 Y53.420 E243.17624
G1 X39.112 Y53.421 E243.33938
G1 X39.111 Y52.069 E243.38435
G1 X39.112 Y49.491 E243.47010
G1 X39.122 Y49.311 E243.47609
G1 X39.214 Y48.949 E243.48851
G1 X39.323 Y48.740 E243.49635
G1 X39.439 Y48.598 E243.50245
G1 X39.729 Y48.393 E243.51427
G1 X39.885 Y48.328 E243.51989
G1 X40.089 Y48.279 E243.52686
G1 X40.796 Y48.226 E243.55045
G1 X61.017 Y46.809 E244.22465
G1 X62.638 Y46.691 E244.27870
G1 X63.848 Y46.606 E244.31905
G1 X64.387 Y46.576 E244.33700
G1 X64.941 Y46.563 E244.35544
G1 X65.029 Y46.564 E244.35836
G1 X65.088 Y46.563 E244.36032
G1 X65.661 Y46.578 E244.37939
G1 X66.184 Y46.606 E244.39681
G1 X66.716 Y46.655 E244.41458
G1 X67.245 Y46.720 E244.43231
G1 X67.769 Y46.803 E244.44995
G1 X68.283 Y46.900 E244.46735
G1 X68.787 Y47.013 E244.48453
G1 X69.785 Y47.285 E244.51893
G1 X70.723 Y47.605 E244.55190
G1 X71.174 Y47.781 E244.56800
G1 X71.658 Y47.990 E244.58553
G1 X72.589 Y48.445 E244.62000
G1 X73.081 Y48.716 E244.63868
G1 X73.551 Y48.997 E244.65689
G1 X74.016 Y49.294 E244.67524
G1 X74.489 Y49.623 E244.69441
G1 X74.933 Y49.954 E244.71283
G1 X75.342 Y50.282 E244.73027
G1 X75.747 Y50.628 E244.74798
G1 X76.169 Y51.016 E244.76705
G1 X76.550 Y51.390 E244.78481
G1 X76.946 Y51.806 E244.80391
G1 X77.301 Y52.206 E244.82170
G1 X77.659 Y52.639 E244.84038
G1 X78.245 Y53.422 E244.87291
G1 X78.575 Y53.907 E244.89242
G1 X78.876 Y54.386 E244.91124
G1 X79.045 Y54.688 E244.92275
G1 X79.116 Y54.930 E244.93114
G1 X79.121 Y54.997 E244.93337
G1 X79.092 Y55.193 E244.93996
G1 X79.065 Y55.277 E244.94290
G1 X78.522 Y56.172 E244.97771
G1 X78.207 Y56.631 E244.99623
G1 X77.879 Y57.078 E245.01467
G1 X77.541 Y57.507 E245.03284
G1 X77.174 Y57.940 E245.05171
G1 X76.794 Y58.356 E245.07045
G1 X76.420 Y58.740 E245.08828
G1 X76.020 Y59.123 E245.10670
G1 X75.597 Y59.503 E245.12561
G1 X75.216 Y59.824 E245.14218
G1 X74.728 Y60.202 E245.16272
G1 X74.261 Y60.537 E245.18183
G1 X73.802 Y60.846 E245.20023
G1 X73.331 Y61.138 E245.21867
G1 X72.860 Y61.408 E245.23672
G1 X72.345 Y61.680 E245.25609
G1 X71.457 Y62.099 E245.28875
G1 X70.540 Y62.462 E245.32155
G1 X70.033 Y62.636 E245.33938
G1 X69.071 Y62.916 E245.37271
G1 X68.577 Y63.037 E245.38962
G1 X68.052 Y63.145 E245.40745
G1 X67.541 Y63.236 E245.42471
G1 X67.009 Y63.311 E245.44258
G1 X66.494 Y63.368 E245.45982
G1 X65.947 Y63.408 E245.47806
G1 X65.422 Y63.431 E245.49554
G1 X65.104 Y63.437 E245.50612
G1 X65.013 Y63.436 E245.50914
G1 X64.952 Y63.437 E245.51117
G1 X64.376 Y63.423 E245.53033
G1 X63.797 Y63.390 E245.54962
G1 X62.935 Y63.329 E245.57837
G1 X62.248 Y63.279 E245.60128
G1 X61.376 Y63.218 E245.63035
G0 F4500 X63.789 Y63.491
G0 X63.774 Y63.789
;TYPE:WALL-OUTER
G1 F3000 X40.172 Y62.133 E246.41728
G1 X39.827 Y62.074 E246.42893
G1 X39.528 Y61.958 E246.43959
G1 X39.354 Y61.853 E246.44635
G1 X39.111 Y61.637 E246.45717
G1 X38.983 Y61.474 E246.46406
G1 X38.880 Y61.295 E246.47093
G1 X38.766 Y60.980 E246.48207
G1 X38.725 Y60.760 E246.48951
G1 X38.711 Y56.180 E246.64185
G1 X44.013 Y56.179 E246.81819
G1 X44.376 Y56.181 E246.83026
G1 X44.376 Y53.822 E246.90872
G1 X44.016 Y53.820 E246.92070
G1 X38.710 Y53.821 E247.09718
G1 X38.712 Y49.488 E247.24129
G1 X38.725 Y49.246 E247.24935
G1 X38.837 Y48.805 E247.26449
G1 X38.986 Y48.522 E247.27512
G1 X39.178 Y48.293 E247.28506
G1 X39.531 Y48.042 E247.29947
G1 X39.760 Y47.947 E247.30772
G1 X40.042 Y47.881 E247.31735
G1 X40.768 Y47.827 E247.34156
G1 X63.820 Y46.207 E248.11017
G1 X64.383 Y46.176 E248.12892
G1 X64.936 Y46.163 E248.14732
G1 X65.028 Y46.164 E248.15038
G1 X65.093 Y46.163 E248.15254
G1 X65.665 Y46.178 E248.17157
G1 X66.211 Y46.207 E248.18976
G1 X66.765 Y46.259 E248.20826
G1 X67.295 Y46.324 E248.22602
G1 X67.838 Y46.409 E248.24430
G1 X68.357 Y46.507 E248.26187
G1 X68.880 Y46.624 E248.27970
G1 X69.383 Y46.752 E248.29696
G1 X69.896 Y46.901 E248.31473
G1 X70.873 Y47.234 E248.34906
G1 X71.817 Y47.623 E248.38302
G1 X72.778 Y48.092 E248.41858
G1 X73.275 Y48.365 E248.43744
G1 X73.766 Y48.660 E248.45649
G1 X74.251 Y48.970 E248.47564
G1 X74.712 Y49.290 E248.49430
G1 X75.167 Y49.629 E248.51318
G1 X75.587 Y49.966 E248.53109
G1 X76.023 Y50.338 E248.55015
G1 X76.435 Y50.717 E248.56877
G1 X76.840 Y51.114 E248.58763
G1 X77.236 Y51.530 E248.60673
G1 X77.609 Y51.951 E248.62544
G1 X77.974 Y52.393 E248.64451
G1 X78.576 Y53.197 E248.67791
G1 X78.906 Y53.682 E248.69742
G1 X79.210 Y54.165 E248.71641
G1 X79.415 Y54.530 E248.73033
G1 X79.511 Y54.856 E248.74163
G1 X79.522 Y54.968 E248.74538
G1 X79.521 Y54.992 E248.74618
G1 X79.522 Y55.024 E248.74724
G1 X79.483 Y55.284 E248.75598
G1 X79.421 Y55.459 E248.76216
G1 X79.163 Y55.908 E248.77938
G1 X78.852 Y56.399 E248.79871
G1 X78.537 Y56.858 E248.81723
G1 X78.201 Y57.316 E248.83612
G1 X77.846 Y57.766 E248.85519
G1 X77.477 Y58.201 E248.87416
G1 X77.089 Y58.626 E248.89330
G1 X76.697 Y59.029 E248.91200
G1 X76.287 Y59.421 E248.93086
G1 X75.860 Y59.804 E248.94994
G1 X75.476 Y60.128 E248.96665
G1 X74.961 Y60.527 E248.98832
G1 X74.494 Y60.862 E249.00744
G1 X74.021 Y61.181 E249.02641
G1 X73.542 Y61.478 E249.04516
G1 X73.047 Y61.762 E249.06414
G1 X72.537 Y62.031 E249.08332
G1 X72.065 Y62.261 E249.10078
G1 X71.137 Y62.663 E249.13442
G1 X70.664 Y62.843 E249.15125
G1 X70.169 Y63.013 E249.16866
G1 X69.685 Y63.163 E249.18551
G1 X69.161 Y63.306 E249.20358
G1 X68.668 Y63.427 E249.22046
G1 X68.132 Y63.537 E249.23866
G1 X67.610 Y63.630 E249.25629
G1 X67.068 Y63.706 E249.27450
G1 X66.531 Y63.766 E249.29247
G1 X65.975 Y63.808 E249.31102
G1 X65.424 Y63.831 E249.32936
G1 X65.107 Y63.837 E249.33990
G1 X65.014 Y63.836 E249.34300
G1 X64.948 Y63.837 E249.34519
G1 X64.369 Y63.823 E249.36446
G1 X63.774 Y63.789 E249.38428
G0 F4500 X64.111 Y63.263
;TYPE:SKIN
G1 F3000 X63.620 Y63.055 E249.40179
G1 X63.014 Y63.013 E249.41917
G1 X62.406 Y62.972 E249.43639
G1 X61.800 Y62.931 E249.45352
G1 X61.193 Y62.890 E249.47051
G1 X60.586 Y62.849 E249.48741
G1 X60.105 Y62.651 E249.50471
G0 F4500 X64.343 Y62.928
G1 F3000 X64.813 Y63.116 E249.52167
G1 X65.376 Y63.113 E249.53815
G1 X65.920 Y63.092 E249.55404
G1 X66.447 Y63.053 E249.56942
G1 X66.956 Y62.996 E249.58432
G1 X67.451 Y62.926 E249.59900
G1 X67.932 Y62.841 E249.61334
G1 X68.402 Y62.745 E249.62754
G1 X68.859 Y62.637 E249.64151
G1 X69.304 Y62.515 E249.65521
G1 X69.737 Y62.383 E249.66869
G1 X70.310 Y62.390 E249.68236
G1 X70.435 Y61.950 E249.69598
G1 X71.127 Y62.077 E249.70937
G1 X71.236 Y61.619 E249.72300
G1 X71.911 Y61.729 E249.73653
G1 X72.001 Y61.253 E249.75011
G1 X72.664 Y61.350 E249.76376
G1 X72.733 Y60.853 E249.77761
G1 X73.383 Y60.937 E249.79145
G1 X73.429 Y60.418 E249.80544
G1 X74.069 Y60.493 E249.81964
G1 X74.095 Y59.953 E249.83412
G1 X74.728 Y60.020 E249.84846
G1 X74.731 Y59.458 E249.86309
G1 X75.358 Y59.518 E249.87807
G1 X75.337 Y58.932 E249.89313
G1 X75.956 Y58.985 E249.90837
G1 X75.912 Y58.376 E249.92391
G1 X76.528 Y58.426 E249.93974
G1 X76.458 Y57.790 E249.95575
G1 X77.071 Y57.838 E249.97216
G1 X76.973 Y57.175 E249.98871
G1 X77.586 Y57.222 E250.00584
G1 X77.459 Y56.529 E250.02324
G1 X78.071 Y56.575 E250.04084
G1 X77.911 Y55.849 E250.05889
G1 X78.523 Y55.896 E250.07757
G1 X78.257 Y55.064 E250.09660
G1 X78.845 Y55.369 E250.11863
G0 F4500 X78.969 Y54.928
G1 F3000 X77.324 Y53.282 E250.19603
G0 F4500 X78.173 Y53.566
G1 F3000 X74.199 Y49.592 E250.38296
G0 F4500 X74.053 Y50.011
G1 F3000 X72.717 Y48.675 E250.44580
G0 F4500 X72.474 Y48.998
G1 F3000 X71.588 Y48.112 E250.48747
G0 F4500 X71.327 Y48.417
G1 F3000 X70.633 Y47.723 E250.52012
G0 F4500 X70.370 Y48.025
G1 F3000 X69.775 Y47.430 E250.54810
G0 F4500 X69.512 Y47.733
G1 F3000 X68.861 Y47.365 E250.57242
G1 X68.123 Y47.192 E250.59492
G1 X67.435 Y47.070 E250.61543
G1 X66.782 Y46.983 E250.63460
G1 X66.157 Y46.924 E250.65303
G1 X65.559 Y46.891 E250.67061
G1 X64.982 Y46.880 E250.68755
G1 X64.430 Y46.894 E250.70371
G1 X63.892 Y46.922 E250.71952
G1 X63.361 Y46.956 E250.73514
G1 X62.832 Y46.993 E250.75057
G1 X62.303 Y47.029 E250.76600
G1 X61.773 Y47.065 E250.78133
G1 X61.243 Y47.101 E250.79657
G1 X60.714 Y47.137 E250.81169
G1 X60.185 Y47.174 E250.82668
G1 X59.655 Y47.210 E250.84166
G1 X59.125 Y47.246 E250.85645
G1 X58.596 Y47.282 E250.87122
G1 X58.067 Y47.318 E250.88586
G1 X57.537 Y47.355 E250.90044
G1 X57.007 Y47.390 E250.91492
G1 X56.478 Y47.427 E250.92926
G1 X55.948 Y47.463 E250.94352
G1 X55.419 Y47.499 E250.95768
G1 X54.890 Y47.536 E250.97179
G1 X54.360 Y47.571 E250.98579
G1 X53.830 Y47.608 E250.99966
G1 X53.301 Y47.644 E251.01346
G1 X52.772 Y47.680 E251.02712
G1 X52.242 Y47.716 E251.04073
G1 X51.712 Y47.752 E251.05425
G1 X51.183 Y47.789 E251.06765
G1 X50.654 Y47.825 E251.08096
G1 X50.124 Y47.861 E251.09417
G1 X49.594 Y47.897 E251.10729
G1 X49.065 Y47.934 E251.12030
G1 X48.536 Y47.970 E251.13330
G1 X48.006 Y48.006 E251.14620
G1 X47.476 Y48.042 E251.15897
G1 X46.947 Y48.078 E251.17162
G1 X46.418 Y48.115 E251.18423
G1 X45.888 Y48.150 E251.19673
G1 X45.358 Y48.187 E251.20910
G1 X44.829 Y48.223 E251.22136
G1 X44.300 Y48.259 E251.23353
G1 X43.770 Y48.295 E251.24563
G1 X43.240 Y48.331 E251.25764
G1 X42.711 Y48.368 E251.26955
G1 X42.182 Y48.404 E251.28136
G1 X41.652 Y48.440 E251.29311
G1 X41.122 Y48.476 E251.30473
G1 X40.593 Y48.512 E251.31624
G1 X40.107 Y48.592 E251.32770
G1 X39.613 Y48.664 E251.33895
G1 X39.609 Y49.226 E251.35064
G1 X39.273 Y49.455 E251.36078
G1 X39.356 Y50.104 E251.37063
G1 X39.353 Y50.667 E251.38018
G1 X39.353 Y51.232 E251.38971
G1 X39.353 Y51.798 E251.39932
G1 X39.353 Y52.364 E251.40887
G1 X39.353 Y52.929 E251.41841
G1 X39.420 Y53.279 E251.43026
G0 F4500 X44.717 Y53.482
G0 X44.717 Y56.523
G0 X39.252 Y57.072
G1 F3000 X39.354 Y57.456 E251.43977
G1 X39.355 Y58.023 E251.44920
G1 X39.356 Y58.589 E251.45857
G1 X39.356 Y59.155 E251.46784
G1 X39.357 Y59.722 E251.47703
G1 X39.361 Y60.292 E251.48646
G1 X39.803 Y61.016 E251.50198
G1 X40.558 Y61.488 E251.51960
G1 X41.165 Y61.530 E251.53235
G1 X41.771 Y61.570 E251.54523
G1 X42.378 Y61.612 E251.55823
G1 X42.986 Y61.653 E251.57136
G1 X43.592 Y61.694 E251.58459
G1 X44.200 Y61.736 E251.59802
G1 X44.806 Y61.777 E251.61155
G1 X45.413 Y61.818 E251.62516
G1 X46.020 Y61.859 E251.63892
G1 X46.627 Y61.900 E251.65283
G1 X47.234 Y61.942 E251.66685
G1 X47.841 Y61.983 E251.68096
G1 X48.448 Y62.024 E251.69522
G1 X49.054 Y62.065 E251.70957
G1 X49.661 Y62.106 E251.72404
G1 X50.269 Y62.148 E251.73868
G1 X50.875 Y62.189 E251.75343
G1 X51.482 Y62.230 E251.76830
G1 X52.089 Y62.272 E251.78328
G1 X52.696 Y62.313 E251.79845
G1 X53.303 Y62.353 E251.81368
G1 X53.910 Y62.395 E251.82911
G1 X54.517 Y62.436 E251.84464
G1 X55.124 Y62.477 E251.86027
G1 X55.731 Y62.519 E251.87606
G1 X56.337 Y62.560 E251.89191
G1 X56.944 Y62.601 E251.90795
G1 X57.551 Y62.643 E251.92409
G1 X58.158 Y62.683 E251.94038
G1 X58.765 Y62.725 E251.95682
G1 X59.372 Y62.766 E251.97331
G1 X59.853 Y62.965 E251.99062
;LAYER:7
G0 F4500 X58.600 Y63.022 Z1.700
;TYPE:FILL
G1 F3000 X72.984 Y48.637 E252.66723
G0 F4500 X76.246 Y51.032
G1 F3000 X63.877 Y63.401 E253.24903
G0 F4500 X66.222 Y63.394
G1 F3000 X50.397 Y47.569 E253.99339
G0 F4500 X51.505 Y47.489
G1 F3000 X44.915 Y54.079 E254.30336
G0 F4500 X44.915 Y53.400
G1 F3000 X54.222 Y62.707 E254.74113
G0 F4500 X53.321 Y62.644
G1 F3000 X68.923 Y47.041 E255.47503
G0 F4500 X66.424 Y46.625
G1 F3000 X77.471 Y57.672 E255.99464
G0 F4500 X78.798 Y54.137
G1 F3000 X70.424 Y62.511 E256.38853
G0 F4500 X70.842 Y62.357
G1 F3000 X55.676 Y47.190 E257.10192
G0 F4500 X57.600 Y47.051
G1 F3000 X42.765 Y61.886 E257.79971
G0 F4500 X42.034 Y61.833
G1 F3000 X39.156 Y58.955 E257.93508
G0 F4500 X39.156 Y59.838
G1 F3000 X42.256 Y56.738 E258.08090
G0 F4500 X42.596 Y56.738
G1 F3000 X48.128 Y62.270 E258.34110
G0 F4500 X48.043 Y62.264
G1 F3000 X63.694 Y46.614 E259.07726
G0 F4500 X60.954 Y46.811
G1 F3000 X74.527 Y60.385 E259.71571
G0 F4500 X60.316 Y63.144
G1 F3000 X45.119 Y47.947 E260.43053
G0 F4500 X45.411 Y47.926
G1 F3000 X40.078 Y53.259 E260.68138
G0 F4500 X44.774 Y53.259
G1 F3000 X39.863 Y48.348 E260.91238
G0 F4500 X40.101 Y48.166
;TYPE:WALL-INNER
G1 F3000 X42.832 Y47.968 E261.00345
G1 X56.520 Y46.995 E261.45986
G1 X60.912 Y46.677 E261.60632
G1 X62.576 Y46.553 E261.66182
G1 X63.235 Y46.505 E261.68380
G1 X64.097 Y46.445 E261.71254
G1 X64.382 Y46.431 E261.72203
G1 X64.399 Y46.432 E261.72260
G1 X64.877 Y46.420 E261.73850
G1 X64.887 Y46.421 E261.73883
G1 X65.045 Y46.420 E261.74409
G1 X65.548 Y46.430 E261.76082
G1 X66.156 Y46.460 E261.78107
G1 X66.764 Y46.516 E261.80138
G1 X67.375 Y46.593 E261.82186
G1 X67.974 Y46.691 E261.84205
G1 X68.562 Y46.811 E261.86201
G1 X69.164 Y46.955 E261.88259
G1 X69.719 Y47.109 E261.90175
G1 X70.274 Y47.286 E261.92113
G1 X70.841 Y47.487 E261.94113
G1 X71.382 Y47.702 E261.96050
G1 X71.915 Y47.937 E261.97987
G1 X72.425 Y48.182 E261.99869
G1 X72.942 Y48.453 E262.01810
G1 X73.408 Y48.719 E262.03595
G1 X73.899 Y49.020 E262.05511
G1 X74.375 Y49.336 E262.07411
G1 X74.852 Y49.678 E262.09363
G1 X75.285 Y50.010 E262.11178
G1 X75.736 Y50.382 E262.13122
G1 X76.160 Y50.757 E262.15005
G1 X76.569 Y51.145 E262.16880
G1 X76.951 Y51.535 E262.18696
G1 X77.342 Y51.960 E262.20617
G1 X77.716 Y52.399 E262.22535
G1 X78.059 Y52.828 E262.24362
G1 X78.401 Y53.291 E262.26276
G1 X78.727 Y53.763 E262.28184
G1 X79.039 Y54.251 E262.30110
G1 X79.250 Y54.605 E262.31481
G1 X79.312 Y54.734 E262.31957
G1 X79.362 Y54.923 E262.32607
G1 X79.368 Y54.985 E262.32815
G1 X79.363 Y55.064 E262.33078
G1 X79.341 Y55.184 E262.33484
G1 X79.279 Y55.342 E262.34048
G1 X78.742 Y56.214 E262.37454
G1 X78.425 Y56.677 E262.39321
G1 X78.077 Y57.149 E262.41271
G1 X77.730 Y57.584 E262.43122
G1 X77.356 Y58.024 E262.45042
G1 X76.965 Y58.449 E262.46963
G1 X76.583 Y58.841 E262.48784
G1 X76.172 Y59.231 E262.50668
G1 X75.737 Y59.619 E262.52607
G1 X75.326 Y59.957 E262.54377
G1 X75.299 Y59.976 E262.54487
G1 X74.631 Y60.485 E262.57280
G1 X74.159 Y60.812 E262.59190
G1 X73.697 Y61.109 E262.61016
G1 X73.207 Y61.399 E262.62910
G1 X72.704 Y61.674 E262.64817
G1 X72.179 Y61.939 E262.66773
G1 X71.650 Y62.183 E262.68711
G1 X71.135 Y62.398 E262.70567
G1 X70.574 Y62.609 E262.72560
G1 X70.014 Y62.801 E262.74529
G1 X69.466 Y62.963 E262.76430
G1 X68.872 Y63.118 E262.78472
G1 X68.300 Y63.244 E262.80420
G1 X67.694 Y63.358 E262.82471
G1 X67.082 Y63.448 E262.84528
G1 X66.470 Y63.515 E262.86576
G1 X66.202 Y63.537 E262.87470
G1 X66.191 Y63.536 E262.87507
G1 X66.044 Y63.547 E262.87997
G1 X66.033 Y63.546 E262.88034
G1 X65.883 Y63.556 E262.88534
G1 X65.730 Y63.563 E262.89043
G1 X65.718 Y63.562 E262.89083
G1 X65.079 Y63.580 E262.91209
G1 X64.405 Y63.568 E262.93452
G1 X63.916 Y63.544 E262.95080
G1 X63.271 Y63.498 E262.97231
G1 X62.588 Y63.447 E262.99509
G1 X61.893 Y63.397 E263.01826
G1 X58.569 Y63.154 E263.12911
G1 X52.513 Y62.719 E263.33106
G1 X51.938 Y62.676 E263.35023
G1 X50.666 Y62.587 E263.39264
G1 X40.107 Y61.836 E263.74473
G1 X39.936 Y61.815 E263.75046
G1 X39.668 Y61.726 E263.75985
G1 X39.436 Y61.588 E263.76883
G1 X39.313 Y61.471 E263.77447
G1 X39.225 Y61.359 E263.77921
G1 X39.136 Y61.200 E263.78527
G1 X39.061 Y60.986 E263.79281
G1 X39.016 Y60.606 E263.80554
G1 X39.018 Y56.600 E263.93878
G1 X44.776 Y56.599 E264.13029
G1 X44.776 Y53.400 E264.23669
G1 X39.017 Y53.400 E264.42824
G1 X39.018 Y52.871 E264.44583
G1 X39.016 Y49.394 E264.56148
G1 X39.028 Y49.198 E264.56801
G1 X39.086 Y48.933 E264.57703
G1 X39.183 Y48.716 E264.58494
G1 X39.322 Y48.523 E264.59285
G1 X39.486 Y48.376 E264.60017
G1 X39.694 Y48.260 E264.60809
G1 X39.840 Y48.208 E264.61325
G1 X40.007 Y48.174 E264.61892
G1 X40.101 Y48.166 E264.62205
G0 F4500 X39.953 Y47.777
;TYPE:WALL-OUTER
G1 F3000 X63.222 Y46.105 E265.39798
G1 X63.259 Y46.104 E265.39921
G1 X63.567 Y46.078 E265.40949
G1 X64.071 Y46.046 E265.42629
G1 X64.555 Y46.025 E265.44240
G1 X64.570 Y46.026 E265.44290
G1 X64.718 Y46.022 E265.44783
G1 X64.736 Y46.023 E265.44842
G1 X64.882 Y46.020 E265.45328
G1 X64.899 Y46.021 E265.45385
G1 X65.050 Y46.020 E265.45887
G1 X65.550 Y46.030 E265.47550
G1 X66.184 Y46.061 E265.49662
G1 X66.816 Y46.119 E265.51772
G1 X67.437 Y46.197 E265.53854
G1 X68.048 Y46.298 E265.55914
G1 X68.655 Y46.422 E265.57975
G1 X69.257 Y46.566 E265.60033
G1 X69.836 Y46.727 E265.62032
G1 X70.411 Y46.910 E265.64039
G1 X70.982 Y47.113 E265.66055
G1 X71.535 Y47.332 E265.68033
G1 X72.076 Y47.571 E265.70000
G1 X72.602 Y47.823 E265.71940
G1 X73.122 Y48.096 E265.73893
G1 X73.617 Y48.378 E265.75788
G1 X74.113 Y48.682 E265.77723
G1 X74.608 Y49.011 E265.79700
G1 X75.085 Y49.353 E265.81652
G1 X75.545 Y49.706 E265.83581
G1 X75.986 Y50.069 E265.85480
G1 X76.419 Y50.452 E265.87403
G1 X76.839 Y50.850 E265.89328
G1 X77.250 Y51.269 E265.91280
G1 X77.639 Y51.692 E265.93191
G1 X78.017 Y52.135 E265.95128
G1 X78.381 Y52.591 E265.97069
G1 X78.730 Y53.064 E265.99024
G1 X79.064 Y53.548 E266.00980
G1 X79.386 Y54.052 E266.02969
G1 X79.689 Y54.596 E266.05040
G1 X79.756 Y54.850 E266.05914
G1 X79.768 Y54.970 E266.06315
G1 X79.762 Y55.100 E266.06748
G1 X79.729 Y55.285 E266.07373
G1 X79.690 Y55.405 E266.07792
G1 X79.637 Y55.522 E266.08219
G1 X79.080 Y56.428 E266.11757
G1 X78.747 Y56.914 E266.13716
G1 X78.395 Y57.392 E266.15691
G1 X78.035 Y57.843 E266.17610
G1 X77.653 Y58.292 E266.19571
G1 X77.264 Y58.715 E266.21482
G1 X76.858 Y59.131 E266.23415
G1 X76.433 Y59.534 E266.25363
G1 X76.006 Y59.915 E266.27267
G1 X75.562 Y60.281 E266.29181
G1 X74.866 Y60.809 E266.32086
G1 X74.384 Y61.142 E266.34035
G1 X73.912 Y61.446 E266.35902
G1 X73.404 Y61.747 E266.37866
G1 X72.884 Y62.032 E266.39838
G1 X72.359 Y62.296 E266.41793
G1 X71.816 Y62.546 E266.43781
G1 X71.276 Y62.773 E266.45729
G1 X70.715 Y62.984 E266.47723
G1 X70.147 Y63.178 E266.49719
G1 X69.567 Y63.350 E266.51731
G1 X68.969 Y63.506 E266.53787
G1 X68.374 Y63.638 E266.55814
G1 X67.756 Y63.753 E266.57905
G1 X67.142 Y63.843 E266.59969
G1 X66.991 Y63.861 E266.60474
G1 X66.980 Y63.861 E266.60511
G1 X66.209 Y63.938 E266.63088
G1 X66.192 Y63.937 E266.63145
G1 X66.045 Y63.948 E266.63635
G1 X66.032 Y63.947 E266.63678
G1 X65.237 Y63.978 E266.66325
G1 X65.222 Y63.977 E266.66375
G1 X65.069 Y63.980 E266.66884
G1 X65.059 Y63.979 E266.66917
G1 X64.907 Y63.980 E266.67423
G1 X64.401 Y63.968 E266.69106
G1 X63.888 Y63.942 E266.70814
G1 X63.243 Y63.897 E266.72965
G1 X51.909 Y63.075 E267.10761
G1 X40.062 Y62.233 E267.50264
G1 X39.846 Y62.207 E267.50987
G1 X39.509 Y62.095 E267.52168
G1 X39.247 Y61.949 E267.53166
G1 X39.176 Y61.892 E267.53469
G1 X39.019 Y61.742 E267.54191
G1 X38.890 Y61.580 E267.54880
G1 X38.741 Y61.295 E267.55949
G1 X38.673 Y61.087 E267.56677
G1 X38.631 Y60.861 E267.57442
G1 X38.616 Y60.615 E267.58262
G1 X38.618 Y56.200 E267.72946
G1 X44.376 Y56.199 E267.92097
G1 X44.376 Y53.800 E268.00076
G1 X38.616 Y53.800 E268.19234
G1 X38.616 Y49.385 E268.33918
G1 X38.631 Y49.138 E268.34741
G1 X38.703 Y48.811 E268.35855
G1 X38.836 Y48.512 E268.36944
G1 X39.019 Y48.258 E268.37985
G1 X39.254 Y48.047 E268.39035
G1 X39.529 Y47.894 E268.40082
G1 X39.735 Y47.821 E268.40809
G1 X39.953 Y47.777 E268.41548
G0 F4500 X40.232 Y48.297
;TYPE:SKIN
G1 F3000 X39.721 Y48.807 E268.43692
G1 X39.259 Y49.553 E268.46077
G1 X39.258 Y50.119 E268.47028
G1 X39.258 Y50.685 E268.47984
G1 X39.258 Y51.251 E268.48939
G1 X39.258 Y51.816 E268.49893
G1 X39.258 Y52.382 E268.50848
G1 X39.258 Y52.948 E268.51803
G1 X39.230 Y53.259 E268.52842
G0 F4500 X44.717 Y53.459
G0 X44.717 Y56.540
G0 X39.360 Y57.088
G1 F3000 X39.259 Y57.472 E268.53793
G1 X39.259 Y58.038 E268.54739
G1 X39.258 Y58.604 E268.55689
G1 X39.258 Y59.169 E268.56638
G1 X39.258 Y59.736 E268.57595
G1 X39.263 Y60.297 E268.58552
G1 X39.332 Y60.793 E268.59505
G1 X39.387 Y61.304 E268.60599
G1 X39.938 Y61.319 E268.61727
G1 X40.139 Y61.683 E268.62840
G1 X40.772 Y61.616 E268.63952
G1 X41.300 Y61.653 E268.65070
G1 X41.829 Y61.690 E268.66198
G1 X42.359 Y61.726 E268.67342
G1 X42.887 Y61.763 E268.68491
G1 X43.417 Y61.800 E268.69657
G1 X43.945 Y61.837 E268.70828
G1 X44.474 Y61.873 E268.72014
G1 X45.003 Y61.911 E268.73205
G1 X45.532 Y61.947 E268.74408
G1 X46.060 Y61.984 E268.75619
G1 X46.590 Y62.020 E268.76842
G1 X47.119 Y62.057 E268.78077
G1 X47.647 Y62.094 E268.79318
G1 X48.177 Y62.131 E268.80577
G1 X48.705 Y62.168 E268.81844
G1 X49.235 Y62.204 E268.83125
G1 X49.763 Y62.241 E268.84406
G1 X50.292 Y62.278 E268.85707
G1 X50.821 Y62.315 E268.87012
G1 X51.350 Y62.351 E268.88330
G1 X51.879 Y62.388 E268.89658
G1 X52.408 Y62.425 E268.90998
G1 X52.937 Y62.461 E268.92343
G1 X53.465 Y62.499 E268.93698
G1 X53.995 Y62.535 E268.95068
G1 X54.523 Y62.572 E268.96445
G1 X55.053 Y62.609 E268.97837
G1 X55.581 Y62.646 E268.99232
G1 X56.110 Y62.682 E269.00643
G1 X56.639 Y62.719 E269.02063
G1 X57.168 Y62.756 E269.03496
G1 X57.697 Y62.792 E269.04937
G1 X58.226 Y62.829 E269.06388
G1 X58.755 Y62.866 E269.07848
G1 X59.284 Y62.903 E269.09320
G1 X59.813 Y62.940 E269.10802
G1 X60.342 Y62.977 E269.12292
G1 X60.871 Y63.013 E269.13796
G1 X61.399 Y63.050 E269.15310
G1 X61.928 Y63.087 E269.16831
G1 X62.457 Y63.123 E269.18365
G1 X62.986 Y63.160 E269.19908
G1 X63.515 Y63.197 E269.21465
G1 X64.046 Y63.232 E269.23027
G1 X64.589 Y63.254 E269.24622
G1 X65.148 Y63.261 E269.26244
G1 X65.730 Y63.245 E269.27934
G1 X66.333 Y63.207 E269.29702
G1 X66.965 Y63.141 E269.31578
G1 X67.627 Y63.044 E269.33553
G1 X68.326 Y62.912 E269.35653
G1 X69.073 Y62.730 E269.37974
G1 X69.734 Y62.352 E269.40506
G0 F4500 X69.993 Y62.659
G1 F3000 X70.604 Y62.048 E269.43380
G0 F4500 X70.871 Y62.347
G1 F3000 X71.597 Y61.621 E269.46795
G0 F4500 X71.847 Y61.936
G1 F3000 X72.761 Y61.022 E269.51094
G0 F4500 X72.993 Y61.356
G1 F3000 X74.437 Y59.912 E269.57886
G0 F4500 X74.533 Y60.382
G1 F3000 X78.280 Y56.635 E269.75511
G0 F4500 X77.404 Y56.946
G1 F3000 X79.203 Y55.146 E269.83975
G0 F4500 X79.121 Y54.663
G1 F3000 X78.498 Y55.286 E269.86906
G0 F4500 X78.496 Y54.722
G1 F3000 X78.798 Y54.137 E269.88838
G1 X78.184 Y54.185 E269.90702
G1 X78.344 Y53.459 E269.92507
G1 X77.733 Y53.505 E269.94280
G1 X77.862 Y52.809 E269.96028
G1 X77.247 Y52.859 E269.97737
G1 X77.351 Y52.189 E269.99428
G1 X76.736 Y52.238 E270.01090
G1 X76.811 Y51.598 E270.02708
G1 X76.197 Y51.647 E270.04291
G1 X76.246 Y51.031 E270.05858
G1 X75.625 Y51.087 E270.07403
G1 X75.649 Y50.497 E270.08920
G1 X75.025 Y50.556 E270.10421
G1 X75.027 Y49.988 E270.11904
G1 X74.395 Y50.054 E270.13357
G1 X74.374 Y49.510 E270.14792
G1 X73.734 Y49.583 E270.16222
G1 X73.693 Y49.059 E270.17643
G1 X73.044 Y49.143 E270.19041
G1 X72.983 Y48.638 E270.20437
G1 X72.321 Y48.734 E270.21828
G1 X72.240 Y48.249 E270.23209
G1 X71.564 Y48.359 E270.24576
G1 X71.465 Y47.893 E270.25947
G1 X70.774 Y48.019 E270.27314
G1 X70.656 Y47.571 E270.28685
G1 X69.945 Y47.716 E270.30049
G1 X69.810 Y47.286 E270.31428
G1 X69.225 Y47.305 E270.32815
G1 X68.772 Y47.192 E270.34239
G1 X68.312 Y47.086 E270.35656
G1 X67.840 Y46.993 E270.37076
G1 X67.355 Y46.912 E270.38528
G1 X66.855 Y46.846 E270.40017
G1 X66.342 Y46.794 E270.41539
G1 X65.811 Y46.759 E270.43101
G1 X65.265 Y46.739 E270.44695
G1 X64.698 Y46.741 E270.46355
G1 X64.109 Y46.764 E270.48090
G1 X63.503 Y46.804 E270.49878
G1 X62.896 Y46.845 E270.51643
G1 X62.288 Y46.888 E270.53392
G1 X61.680 Y46.931 E270.55130
G1 X61.072 Y46.973 E270.56853
G1 X60.464 Y47.015 E270.58561
G1 X59.856 Y47.057 E270.60253
G1 X59.248 Y47.099 E270.61936
G1 X58.640 Y47.142 E270.63608
G1 X58.032 Y47.184 E270.65260
G1 X57.424 Y47.226 E270.66902
G1 X56.816 Y47.268 E270.68529
G1 X56.208 Y47.311 E270.70146
G1 X55.600 Y47.353 E270.71747
G1 X54.992 Y47.395 E270.73333
G1 X54.385 Y47.438 E270.74907
G1 X53.776 Y47.480 E270.76470
G1 X53.168 Y47.522 E270.78021
G1 X52.560 Y47.564 E270.79556
G1 X51.953 Y47.607 E270.81074
G1 X51.345 Y47.649 E270.82579
G1 X50.737 Y47.691 E270.84079
G1 X50.129 Y47.733 E270.85559
G1 X49.521 Y47.776 E270.87024
G1 X48.913 Y47.818 E270.88478
G1 X48.305 Y47.860 E270.89922
G1 X47.697 Y47.902 E270.91346
G1 X47.089 Y47.945 E270.92765
G1 X46.481 Y47.987 E270.94169
G1 X45.873 Y48.030 E270.95558
G1 X45.265 Y48.072 E270.96931
G1 X44.657 Y48.114 E270.98294
G1 X44.049 Y48.156 E270.99642
G1 X43.441 Y48.199 E271.00975
G1 X42.833 Y48.241 E271.02298
G1 X42.225 Y48.283 E271.03605
G1 X41.618 Y48.325 E271.04895
G1 X41.009 Y48.367 E271.06180
G1 X40.571 Y48.523 E271.07726
;LAYER:8
G0 F4500 X39.764 Y48.249 Z1.900
;TYPE:FILL
G1 F3000 X44.795 Y53.280 E271.31390
G0 F4500 X44.916 Y53.401
G1 F3000 X54.364 Y62.849 E271.75831
G0 F4500 X53.199 Y62.765
G1 F3000 X69.045 Y46.920 E272.50363
G0 F4500 X66.266 Y46.467
G1 F3000 X77.606 Y57.807 E273.03703
G0 F4500 X74.646 Y60.504
G1 F3000 X60.818 Y46.676 E273.68746
G0 F4500 X63.851 Y46.456
G1 F3000 X47.929 Y62.379 E274.43640
G0 F4500 X48.261 Y62.403
G1 F3000 X42.576 Y56.718 E274.70381
G0 F4500 X42.277 Y56.717
G1 F3000 X39.063 Y59.931 E274.85499
G0 F4500 X39.063 Y58.862
G1 F3000 X42.157 Y61.956 E275.00052
G0 F4500 X42.657 Y61.994
G1 F3000 X57.751 Y46.900 E275.71049
G0 F4500 X55.547 Y47.062
G1 F3000 X70.959 Y62.474 E276.43543
G0 F4500 X70.185 Y62.750
G1 F3000 X78.949 Y53.986 E276.84766
G0 F4500 X77.276 Y51.821
G1 F3000 X76.235 Y50.779 E276.89665
G0 F4500 X76.374 Y50.904
G1 F3000 X63.742 Y63.536 E277.49082
G0 F4500 X66.353 Y63.525
G1 F3000 X50.276 Y47.448 E278.24703
G0 F4500 X51.647 Y47.347
G1 F3000 X44.916 Y54.078 E278.56364
G0 F4500 X44.717 Y53.481
G0 X40.058 Y53.279
G1 F3000 X45.544 Y47.793 E278.82168
G0 F4500 X45.005 Y47.833
G1 F3000 X60.467 Y63.295 E279.54897
G0 F4500 X58.471 Y63.150
G1 F3000 X73.100 Y48.521 E280.23707
G0 F4500 X39.136 Y53.279
G1 F3000 X39.063 Y53.205 E280.24053
G0 F4500 X38.924 Y52.360
;TYPE:WALL-INNER
G1 F3000 X38.923 Y51.726 E280.26161
G1 X38.924 Y51.536 E280.26793
G1 X38.923 Y51.221 E280.27841
G1 X38.924 Y51.155 E280.28060
G1 X38.923 Y50.888 E280.28949
G1 X38.924 Y49.276 E280.34310
G1 X38.970 Y48.908 E280.35544
G1 X39.080 Y48.623 E280.36560
G1 X39.168 Y48.490 E280.37090
G1 X39.332 Y48.320 E280.37876
G1 X39.506 Y48.201 E280.38577
G1 X39.747 Y48.106 E280.39438
G1 X40.001 Y48.060 E280.40297
G1 X60.803 Y46.545 E281.09668
G1 X63.738 Y46.324 E281.19457
G1 X64.295 Y46.293 E281.21313
G1 X64.798 Y46.279 E281.22987
G1 X65.004 Y46.276 E281.23672
G1 X65.110 Y46.279 E281.24024
G1 X65.168 Y46.278 E281.24217
G1 X65.756 Y46.297 E281.26174
G1 X66.288 Y46.328 E281.27947
G1 X66.855 Y46.383 E281.29841
G1 X67.366 Y46.446 E281.31554
G1 X67.930 Y46.538 E281.33454
G1 X68.423 Y46.632 E281.35124
G1 X68.977 Y46.758 E281.37013
G1 X69.464 Y46.883 E281.38686
G1 X69.980 Y47.036 E281.40476
G1 X70.480 Y47.197 E281.42223
G1 X70.967 Y47.375 E281.43947
G1 X71.451 Y47.566 E281.45678
G1 X71.990 Y47.801 E281.47634
G1 X72.452 Y48.022 E281.49337
G1 X72.898 Y48.249 E281.51002
G1 X73.367 Y48.509 E281.52785
G1 X74.190 Y49.012 E281.55993
G1 X74.650 Y49.324 E281.57842
G1 X75.116 Y49.664 E281.59760
G1 X75.632 Y50.069 E281.61942
G1 X76.056 Y50.428 E281.63790
G1 X76.499 Y50.829 E281.65777
G1 X76.897 Y51.217 E281.67626
G1 X77.298 Y51.635 E281.69553
G1 X77.685 Y52.067 E281.71482
G1 X78.057 Y52.511 E281.73408
G1 X78.414 Y52.971 E281.75345
G1 X78.769 Y53.463 E281.77363
G1 X79.053 Y53.888 E281.79063
G1 X79.366 Y54.387 E281.81022
G1 X79.580 Y54.793 E281.82549
G1 X79.611 Y54.950 E281.83081
G1 X79.611 Y54.989 E281.83211
G1 X79.569 Y55.231 E281.84028
G1 X79.518 Y55.350 E281.84458
G1 X78.978 Y56.230 E281.87892
G1 X78.680 Y56.666 E281.89649
G1 X78.366 Y57.091 E281.91406
G1 X77.993 Y57.566 E281.93415
G1 X77.631 Y57.994 E281.95279
G1 X77.242 Y58.424 E281.97208
G1 X76.835 Y58.844 E281.99153
G1 X76.160 Y59.482 E282.02242
G1 X75.761 Y59.824 E282.03990
G1 X75.324 Y60.176 E282.05857
G1 X74.853 Y60.531 E282.07818
G1 X74.386 Y60.856 E282.09711
G1 X73.548 Y61.386 E282.13008
G1 X72.925 Y61.737 E282.15387
G1 X72.437 Y61.985 E282.17207
G1 X71.918 Y62.230 E282.19116
G1 X71.453 Y62.433 E282.20804
G1 X70.951 Y62.630 E282.22598
G1 X70.479 Y62.804 E282.24271
G1 X69.966 Y62.968 E282.26062
G1 X69.091 Y63.213 E282.29084
G1 X68.048 Y63.440 E282.32634
G1 X67.548 Y63.526 E282.34322
G1 X66.976 Y63.604 E282.36242
G1 X66.456 Y63.659 E282.37981
G1 X65.889 Y63.697 E282.39871
G1 X65.334 Y63.719 E282.41719
G1 X65.035 Y63.724 E282.42713
G1 X64.930 Y63.721 E282.43063
G1 X64.865 Y63.722 E282.43279
G1 X63.889 Y63.687 E282.46527
G1 X62.797 Y63.603 E282.50170
G1 X52.456 Y62.843 E282.84657
G1 X51.806 Y62.794 E282.86825
G1 X40.014 Y61.941 E283.26148
G1 X39.829 Y61.916 E283.26769
G1 X39.662 Y61.870 E283.27345
G1 X39.459 Y61.771 E283.28096
G1 X39.259 Y61.612 E283.28946
G1 X39.134 Y61.465 E283.29588
G1 X39.051 Y61.321 E283.30140
G1 X38.968 Y61.093 E283.30947
G1 X38.934 Y60.910 E283.31566
G1 X38.923 Y60.392 E283.33290
G1 X38.923 Y56.579 E283.45972
G1 X44.776 Y56.578 E283.65439
G1 X44.776 Y53.422 E283.75936
G1 X38.923 Y53.420 E283.95403
G1 X38.924 Y52.360 E283.98929
G0 F4500 X38.523 Y51.724
;TYPE:WALL-OUTER
G1 F3000 X38.524 Y51.535 E283.99557
G1 X38.523 Y51.214 E284.00625
G1 X38.524 Y49.254 E284.07144
G1 X38.579 Y48.813 E284.08622
G1 X38.694 Y48.497 E284.09740
G1 X38.855 Y48.238 E284.10755
G1 X39.071 Y48.016 E284.11785
G1 X39.332 Y47.840 E284.12832
G1 X39.639 Y47.718 E284.13931
G1 X39.949 Y47.663 E284.14978
G1 X63.716 Y45.924 E284.94239
G1 X64.289 Y45.893 E284.96147
G1 X65.010 Y45.876 E284.98546
G1 X65.113 Y45.879 E284.98889
G1 X65.176 Y45.878 E284.99098
G1 X65.763 Y45.897 E285.01052
G1 X66.317 Y45.929 E285.02897
G1 X66.894 Y45.985 E285.04825
G1 X67.426 Y46.051 E285.06608
G1 X67.994 Y46.143 E285.08522
G1 X68.512 Y46.242 E285.10276
G1 X69.060 Y46.367 E285.12146
G1 X69.576 Y46.499 E285.13917
G1 X70.107 Y46.657 E285.15760
G1 X70.595 Y46.813 E285.17464
G1 X71.117 Y47.005 E285.19314
G1 X71.597 Y47.193 E285.21028
G1 X72.150 Y47.434 E285.23035
G1 X72.633 Y47.665 E285.24815
G1 X73.085 Y47.895 E285.26502
G1 X73.556 Y48.156 E285.28293
G1 X73.989 Y48.413 E285.29968
G1 X74.420 Y48.685 E285.31663
G1 X74.885 Y49.000 E285.33531
G1 X75.363 Y49.349 E285.35500
G1 X75.873 Y49.750 E285.37657
G1 X76.330 Y50.136 E285.39647
G1 X76.762 Y50.527 E285.41585
G1 X77.190 Y50.945 E285.43575
G1 X77.596 Y51.368 E285.45525
G1 X77.992 Y51.810 E285.47499
G1 X78.373 Y52.266 E285.49475
G1 X78.743 Y52.743 E285.51483
G1 X79.090 Y53.223 E285.53453
G1 X79.392 Y53.675 E285.55261
G1 X79.712 Y54.186 E285.57266
G1 X79.876 Y54.470 E285.58357
G1 X79.960 Y54.665 E285.59063
G1 X80.008 Y54.900 E285.59861
G1 X80.012 Y55.022 E285.60267
G1 X79.955 Y55.345 E285.61358
G1 X79.875 Y55.532 E285.62034
G1 X79.632 Y55.946 E285.63631
G1 X79.308 Y56.456 E285.65641
G1 X79.002 Y56.903 E285.67442
G1 X78.681 Y57.338 E285.69241
G1 X78.312 Y57.808 E285.71228
G1 X77.923 Y58.268 E285.73232
G1 X77.529 Y58.703 E285.75184
G1 X77.116 Y59.129 E285.77157
G1 X76.431 Y59.777 E285.80293
G1 X76.026 Y60.124 E285.82067
G1 X75.565 Y60.495 E285.84035
G1 X75.086 Y60.856 E285.86030
G1 X74.602 Y61.193 E285.87992
G1 X74.185 Y61.466 E285.89650
G1 X73.752 Y61.730 E285.91336
G1 X73.100 Y62.097 E285.93825
G1 X72.618 Y62.342 E285.95623
G1 X72.164 Y62.560 E285.97298
G1 X71.605 Y62.804 E285.99327
G1 X71.101 Y63.001 E286.01127
G1 X70.611 Y63.181 E286.02863
G1 X69.891 Y63.411 E286.05377
G1 X69.198 Y63.599 E286.07765
G1 X68.686 Y63.722 E286.09517
G1 X68.130 Y63.832 E286.11402
G1 X67.596 Y63.924 E286.13204
G1 X67.033 Y64.000 E286.15093
G1 X66.492 Y64.057 E286.16903
G1 X65.904 Y64.097 E286.18863
G1 X65.350 Y64.119 E286.20707
G1 X65.030 Y64.124 E286.21771
G1 X64.927 Y64.121 E286.22114
G1 X64.861 Y64.122 E286.22334
G1 X63.861 Y64.086 E286.25662
G1 X51.777 Y63.193 E286.65963
G1 X39.978 Y62.340 E287.05309
G1 X39.746 Y62.308 E287.06088
G1 X39.450 Y62.215 E287.07120
G1 X39.239 Y62.106 E287.07910
G1 X38.987 Y61.907 E287.08978
G1 X38.799 Y61.684 E287.09948
G1 X38.691 Y61.495 E287.10672
G1 X38.579 Y61.189 E287.11756
G1 X38.535 Y60.952 E287.12558
G1 X38.527 Y60.861 E287.12861
G1 X38.528 Y60.847 E287.12908
G1 X38.522 Y56.179 E287.28434
G1 X44.376 Y56.178 E287.47904
G1 X44.376 Y53.822 E287.55740
G1 X38.524 Y53.820 E287.75204
G1 X38.523 Y51.724 E287.82176
G0 F4500 X39.063 Y51.791
;TYPE:SKIN
G1 F3000 X39.164 Y52.175 E287.83123
G1 X39.164 Y52.740 E287.84067
G1 X39.265 Y53.124 E287.85388
G0 F4500 X39.266 Y51.428
G1 F3000 X39.164 Y51.043 E287.86342
G1 X39.164 Y50.478 E287.87296
G1 X39.164 Y49.912 E287.88246
G1 X39.191 Y49.373 E287.89198
G1 X39.180 Y48.797 E287.90237
G1 X39.655 Y48.706 E287.91375
G1 X39.563 Y48.331 E287.92659
G0 F4500 X44.717 Y53.481
G0 X44.717 Y56.519
G0 X39.063 Y56.882
G1 F3000 X39.165 Y57.267 E287.93616
G1 X39.166 Y57.833 E287.94577
G1 X39.167 Y58.400 E287.95553
G1 X39.168 Y58.967 E287.96543
G1 X39.169 Y59.534 E287.97542
G1 X39.170 Y60.100 E287.98549
G1 X39.281 Y60.494 E287.99911
G0 F4500 X39.072 Y60.851
G1 F3000 X40.020 Y61.799 E288.04370
G0 F4500 X40.350 Y61.563
G1 F3000 X40.798 Y61.729 E288.05693
G1 X41.407 Y61.772 E288.06992
G1 X42.016 Y61.815 E288.08307
G1 X42.625 Y61.858 E288.09637
G1 X43.234 Y61.901 E288.10977
G1 X43.842 Y61.944 E288.12330
G1 X44.451 Y61.987 E288.13696
G1 X45.060 Y62.031 E288.15077
G1 X45.669 Y62.074 E288.16473
G1 X46.278 Y62.117 E288.17884
G1 X46.887 Y62.160 E288.19306
G1 X47.495 Y62.203 E288.20740
G1 X48.104 Y62.246 E288.22187
G1 X48.713 Y62.290 E288.23654
G1 X49.322 Y62.333 E288.25131
G1 X49.931 Y62.376 E288.26624
G1 X50.540 Y62.419 E288.28132
G1 X51.149 Y62.463 E288.29655
G1 X51.758 Y62.505 E288.31188
G1 X52.367 Y62.549 E288.32736
G1 X52.975 Y62.592 E288.34297
G1 X53.584 Y62.635 E288.35871
G1 X54.193 Y62.678 E288.37460
G1 X54.802 Y62.722 E288.39064
G1 X55.411 Y62.765 E288.40683
G1 X56.020 Y62.808 E288.42313
G1 X56.629 Y62.851 E288.43953
G1 X57.237 Y62.894 E288.45610
G1 X57.846 Y62.938 E288.47280
G1 X58.455 Y62.980 E288.48960
G1 X59.064 Y63.024 E288.50661
G1 X59.673 Y63.067 E288.52377
G1 X60.282 Y63.111 E288.54103
G1 X60.890 Y63.153 E288.55841
G1 X61.500 Y63.197 E288.57596
G1 X62.108 Y63.240 E288.59360
G1 X62.717 Y63.283 E288.61136
G1 X63.326 Y63.326 E288.62928
G1 X63.935 Y63.370 E288.64741
G1 X64.526 Y63.395 E288.66467
G1 X65.103 Y63.406 E288.68137
G1 X65.655 Y63.392 E288.69730
G1 X66.189 Y63.360 E288.71270
G1 X66.710 Y63.316 E288.72778
G1 X67.212 Y63.252 E288.74238
G1 X67.702 Y63.176 E288.75690
G1 X68.181 Y63.089 E288.77119
G1 X68.643 Y62.986 E288.78484
G1 X69.100 Y62.877 E288.79863
G1 X69.541 Y62.753 E288.81219
G1 X69.977 Y62.623 E288.82589
G1 X70.546 Y62.626 E288.83951
G1 X70.671 Y62.186 E288.85298
G1 X71.363 Y62.313 E288.86649
G1 X71.472 Y61.855 E288.88008
G1 X72.147 Y61.965 E288.89355
G1 X72.238 Y61.490 E288.90711
G1 X72.899 Y61.585 E288.92077
G1 X72.970 Y61.090 E288.93449
G1 X73.618 Y61.174 E288.94834
G1 X73.672 Y60.661 E288.96207
G1 X74.309 Y60.732 E288.97592
G1 X74.341 Y60.199 E288.99013
G1 X74.972 Y60.264 E289.00448
G1 X74.981 Y59.707 E289.01893
G1 X75.604 Y59.765 E289.03360
G1 X75.590 Y59.185 E289.04861
G1 X76.210 Y59.239 E289.06387
G1 X76.174 Y58.637 E289.07901
G1 X76.787 Y58.685 E289.09456
G1 X76.725 Y58.058 E289.11043
G1 X77.340 Y58.106 E289.12664
G1 X77.251 Y57.452 E289.14305
G1 X77.862 Y57.497 E289.15981
G1 X77.745 Y56.815 E289.17696
G1 X78.359 Y56.863 E289.19447
G1 X78.213 Y56.151 E289.21224
G1 X78.825 Y56.198 E289.23041
G1 X78.644 Y55.451 E289.24894
G1 X79.153 Y55.677 E289.26746
G0 F4500 X79.368 Y55.326
G1 F3000 X78.737 Y54.695 E289.29714
G0 F4500 X79.444 Y54.837
G1 F3000 X77.614 Y53.007 E289.38322
G0 F4500 X78.490 Y53.317
G1 F3000 X74.729 Y49.556 E289.56013
G0 F4500 X74.596 Y49.988
G1 F3000 X73.165 Y48.558 E289.62741
G0 F4500 X72.918 Y48.876
G1 F3000 X72.004 Y47.963 E289.67038
G0 F4500 X71.755 Y48.279
G1 F3000 X71.025 Y47.549 E289.70472
G0 F4500 X70.755 Y47.844
G1 F3000 X70.146 Y47.236 E289.73334
G0 F4500 X69.878 Y47.533
G1 F3000 X69.211 Y47.149 E289.75856
G1 X68.464 Y46.968 E289.78150
G1 X67.760 Y46.830 E289.80268
G1 X67.093 Y46.728 E289.82237
G1 X66.459 Y46.660 E289.84071
G1 X65.850 Y46.617 E289.85828
G1 X65.263 Y46.595 E289.87513
G1 X64.698 Y46.596 E289.89138
G1 X64.151 Y46.615 E289.90718
G1 X63.618 Y46.647 E289.92267
G1 X63.089 Y46.684 E289.93811
G1 X62.561 Y46.722 E289.95342
G1 X62.034 Y46.760 E289.96862
G1 X61.505 Y46.797 E289.98375
G1 X60.977 Y46.835 E289.99876
G1 X60.449 Y46.872 E290.01368
G1 X59.921 Y46.910 E290.02851
G1 X59.392 Y46.947 E290.04328
G1 X58.864 Y46.985 E290.05790
G1 X58.336 Y47.022 E290.07238
G1 X57.808 Y47.059 E290.08681
G1 X57.280 Y47.097 E290.10112
G1 X56.751 Y47.135 E290.11532
G1 X56.223 Y47.172 E290.12940
G1 X55.695 Y47.210 E290.14340
G1 X55.167 Y47.247 E290.15731
G1 X54.638 Y47.285 E290.17111
G1 X54.111 Y47.323 E290.18477
G1 X53.582 Y47.360 E290.19840
G1 X53.054 Y47.398 E290.21187
G1 X52.526 Y47.435 E290.22529
G1 X51.998 Y47.472 E290.23858
G1 X51.470 Y47.510 E290.25179
G1 X50.941 Y47.547 E290.26488
G1 X50.413 Y47.585 E290.27787
G1 X49.885 Y47.622 E290.29081
G1 X49.357 Y47.660 E290.30357
G1 X48.828 Y47.697 E290.31632
G1 X48.300 Y47.735 E290.32890
G1 X47.772 Y47.772 E290.34140
G1 X47.244 Y47.810 E290.35382
G1 X46.716 Y47.847 E290.36610
G1 X46.188 Y47.885 E290.37824
G1 X45.659 Y47.922 E290.39033
G1 X45.131 Y47.960 E290.40230
G1 X44.603 Y47.997 E290.41423
G1 X44.075 Y48.035 E290.42598
G1 X43.547 Y48.072 E290.43768
G1 X43.019 Y48.110 E290.44926
G1 X42.491 Y48.148 E290.46075
G1 X41.962 Y48.185 E290.47217
G1 X41.434 Y48.222 E290.48348
G1 X40.906 Y48.259 E290.49466
G1 X40.382 Y48.302 E290.50576
G1 X40.000 Y48.202 E290.51890
;LAYER:9
G0 F4500 X39.663 Y48.149 Z2.100
;TYPE:FILL
G1 F3000 X44.860 Y53.345 E290.76332
G0 F4500 X44.915 Y53.400
G1 F3000 X54.505 Y62.990 E291.21441
G0 F4500 X53.080 Y62.885
G1 F3000 X69.165 Y46.799 E291.97102
G0 F4500 X66.113 Y46.314
G1 F3000 X77.742 Y57.943 E292.51801
G0 F4500 X74.765 Y60.623
G1 F3000 X60.688 Y46.546 E293.18015
G0 F4500 X64.003 Y46.305
G1 F3000 X47.816 Y62.491 E293.94152
G0 F4500 X48.392 Y62.534
G1 F3000 X42.512 Y56.654 E294.21809
G0 F4500 X42.340 Y56.654
G1 F3000 X38.979 Y60.014 E294.37616
G0 F4500 X38.975 Y58.774
G1 F3000 X42.279 Y62.078 E294.53157
G0 F4500 X42.552 Y62.099
G1 F3000 X57.897 Y46.754 E295.25335
G0 F4500 X55.425 Y46.939
G1 F3000 X71.075 Y62.590 E295.98950
G0 F4500 X69.959 Y62.977
G1 F3000 X79.096 Y53.839 E296.41930
G0 F4500 X78.652 Y53.196
G1 F3000 X74.992 Y49.536 E296.59146
G0 F4500 X76.501 Y50.778
G1 F3000 X63.610 Y63.668 E297.19779
G0 F4500 X66.484 Y63.655
G1 F3000 X50.161 Y47.333 E297.96555
G0 F4500 X51.784 Y47.210
G1 F3000 X44.916 Y54.078 E298.28860
G0 F4500 X44.717 Y53.546
G0 X39.993 Y53.344
G1 F3000 X45.671 Y47.666 E298.55567
G0 F4500 X44.897 Y47.725
G1 F3000 X60.618 Y63.446 E299.29514
G0 F4500 X58.344 Y63.277
G1 F3000 X73.218 Y48.403 E299.99477
G0 F4500 X39.412 Y48.268
G1 F3000 X39.151 Y48.529 E300.00705
G0 F4500 X38.969 Y53.111
G1 F3000 X39.201 Y53.343 E300.01796
G0 F4500 X38.830 Y52.758
;TYPE:WALL-INNER
G1 F3000 X38.830 Y49.199 E300.13633
G1 X38.857 Y48.894 E300.14652
G1 X38.927 Y48.651 E300.15493
G1 X39.067 Y48.396 E300.16460
G1 X39.242 Y48.215 E300.17298
G1 X39.439 Y48.083 E300.18086
G1 X39.562 Y48.030 E300.18532
G1 X39.770 Y47.977 E300.19246
G1 X40.227 Y47.934 E300.20772
G1 X45.777 Y47.522 E300.39283
G1 X50.115 Y47.204 E300.53750
G1 X52.030 Y47.061 E300.60137
G1 X53.220 Y46.974 E300.64105
G1 X61.581 Y46.346 E300.91992
G1 X62.450 Y46.279 E300.94891
G1 X63.145 Y46.224 E300.97210
G1 X63.819 Y46.173 E300.99458
G1 X64.802 Y46.135 E301.02730
G1 X64.813 Y46.136 E301.02767
G1 X64.973 Y46.134 E301.03299
G1 X65.952 Y46.161 E301.06556
G1 X66.568 Y46.209 E301.08611
G1 X67.076 Y46.264 E301.10311
G1 X67.662 Y46.346 E301.12279
G1 X68.159 Y46.434 E301.13958
G1 X68.736 Y46.551 E301.15916
G1 X69.353 Y46.702 E301.18028
G1 X70.235 Y46.959 E301.21084
G1 X70.788 Y47.147 E301.23027
G1 X71.373 Y47.370 E301.25109
G1 X71.927 Y47.603 E301.27108
G1 X72.452 Y47.846 E301.29032
G1 X72.988 Y48.117 E301.31030
G1 X73.520 Y48.410 E301.33050
G1 X74.271 Y48.869 E301.35977
G1 X74.874 Y49.275 E301.38395
G1 X75.336 Y49.615 E301.40303
G1 X75.814 Y49.992 E301.42328
G1 X76.279 Y50.386 E301.44355
G1 X76.699 Y50.768 E301.46243
G1 X77.122 Y51.181 E301.48209
G1 X77.530 Y51.607 E301.50171
G1 X77.923 Y52.048 E301.52136
G1 X78.315 Y52.520 E301.54177
G1 X78.666 Y52.975 E301.56088
G1 X79.014 Y53.459 E301.58071
G1 X79.357 Y53.976 E301.60134
G1 X79.655 Y54.457 E301.62016
G1 X79.823 Y54.799 E301.63284
G1 X79.849 Y54.909 E301.63659
G1 X79.855 Y55.001 E301.63966
G1 X79.835 Y55.148 E301.64460
G1 X79.758 Y55.363 E301.65219
G1 X79.194 Y56.274 E301.68783
G1 X78.867 Y56.749 E301.70701
G1 X78.499 Y57.245 E301.72755
G1 X78.143 Y57.693 E301.74658
G1 X77.757 Y58.143 E301.76630
G1 X77.356 Y58.578 E301.78598
G1 X76.927 Y59.012 E301.80628
G1 X76.497 Y59.419 E301.82597
G1 X76.070 Y59.795 E301.84489
G1 X75.616 Y60.169 E301.86446
G1 X75.161 Y60.517 E301.88351
G1 X74.663 Y60.871 E301.90383
G1 X74.172 Y61.196 E301.92341
G1 X73.666 Y61.505 E301.94313
G1 X73.133 Y61.805 E301.96348
G1 X72.601 Y62.081 E301.98341
G1 X72.077 Y62.329 E302.00269
G1 X71.650 Y62.516 E302.01820
G1 X70.823 Y62.840 E302.04774
G1 X70.231 Y63.043 E302.06855
G1 X69.645 Y63.218 E302.08889
G1 X69.056 Y63.374 E302.10916
G1 X68.463 Y63.508 E302.12938
G1 X67.366 Y63.698 E302.16641
G1 X66.417 Y63.805 E302.19817
G1 X65.617 Y63.854 E302.22483
G1 X65.493 Y63.857 E302.22896
G1 X65.474 Y63.856 E302.22959
G1 X65.160 Y63.865 E302.24004
G1 X65.147 Y63.864 E302.24047
G1 X64.988 Y63.866 E302.24576
G1 X64.487 Y63.859 E302.26243
G1 X64.010 Y63.838 E302.27831
G1 X63.497 Y63.802 E302.29541
G1 X62.461 Y63.721 E302.32997
G1 X61.757 Y63.669 E302.35345
G1 X59.934 Y63.529 E302.41426
G1 X50.123 Y62.797 E302.74149
G1 X45.780 Y62.478 E302.88632
G1 X44.213 Y62.361 E302.93859
G1 X42.653 Y62.247 E302.99061
G1 X39.935 Y62.044 E303.08126
G1 X39.647 Y61.996 E303.09098
G1 X39.430 Y61.911 E303.09873
G1 X39.192 Y61.746 E303.10836
G1 X39.001 Y61.503 E303.11864
G1 X38.894 Y61.259 E303.12750
G1 X38.843 Y61.041 E303.13495
G1 X38.829 Y60.007 E303.16934
G1 X38.831 Y58.756 E303.21095
G1 X38.829 Y58.087 E303.23320
G1 X38.829 Y56.516 E303.28545
G1 X44.776 Y56.514 E303.48325
G1 X44.776 Y53.487 E303.58393
G1 X43.486 Y53.485 E303.62683
G1 X38.829 Y53.484 E303.78173
G1 X38.830 Y52.758 E303.80587
G0 F4500 X38.429 Y53.884
;TYPE:WALL-OUTER
G1 F3000 X38.430 Y49.176 E303.96246
G1 X38.461 Y48.821 E303.97432
G1 X38.552 Y48.504 E303.98528
G1 X38.760 Y48.138 E303.99929
G1 X38.983 Y47.906 E304.00999
G1 X39.246 Y47.731 E304.02050
G1 X39.434 Y47.650 E304.02730
G1 X39.698 Y47.582 E304.03637
G1 X40.201 Y47.535 E304.05317
G1 X63.796 Y45.773 E304.84013
G1 X64.306 Y45.748 E304.85712
G1 X64.800 Y45.735 E304.87355
G1 X64.820 Y45.736 E304.87422
G1 X64.974 Y45.734 E304.87934
G1 X65.984 Y45.763 E304.91295
G1 X66.611 Y45.810 E304.93386
G1 X67.119 Y45.866 E304.95086
G1 X67.732 Y45.952 E304.97145
G1 X68.229 Y46.040 E304.98823
G1 X68.836 Y46.163 E305.00883
G1 X69.444 Y46.312 E305.02965
G1 X69.745 Y46.393 E305.04002
G1 X70.350 Y46.576 E305.06104
G1 X70.931 Y46.773 E305.08145
G1 X71.516 Y46.996 E305.10227
G1 X72.082 Y47.234 E305.12269
G1 X72.633 Y47.489 E305.14289
G1 X73.178 Y47.765 E305.16321
G1 X73.715 Y48.061 E305.18360
G1 X74.486 Y48.532 E305.21365
G1 X75.097 Y48.943 E305.23814
G1 X75.584 Y49.301 E305.25824
G1 X76.073 Y49.687 E305.27897
G1 X76.532 Y50.076 E305.29898
G1 X76.978 Y50.482 E305.31904
G1 X77.415 Y50.909 E305.33936
G1 X77.829 Y51.341 E305.35926
G1 X78.231 Y51.793 E305.37938
G1 X78.623 Y52.265 E305.39979
G1 X78.991 Y52.742 E305.41982
G1 X79.347 Y53.238 E305.44013
G1 X79.690 Y53.755 E305.46077
G1 X80.006 Y54.265 E305.48072
G1 X80.201 Y54.663 E305.49546
G1 X80.246 Y54.851 E305.50189
G1 X80.256 Y54.967 E305.50576
G1 X80.255 Y55.006 E305.50706
G1 X80.256 Y55.028 E305.50779
G1 X80.227 Y55.243 E305.51501
G1 X80.122 Y55.533 E305.52527
G1 X79.866 Y55.964 E305.54194
G1 X79.531 Y56.489 E305.56265
G1 X79.188 Y56.988 E305.58279
G1 X78.820 Y57.484 E305.60334
G1 X78.446 Y57.954 E305.62331
G1 X78.051 Y58.414 E305.64348
G1 X77.641 Y58.859 E305.66360
G1 X77.212 Y59.293 E305.68390
G1 X76.777 Y59.705 E305.70383
G1 X76.324 Y60.104 E305.72391
G1 X75.859 Y60.487 E305.74394
G1 X75.393 Y60.843 E305.76345
G1 X74.901 Y61.193 E305.78353
G1 X74.381 Y61.537 E305.80427
G1 X73.857 Y61.857 E305.82469
G1 X73.333 Y62.152 E305.84469
G1 X72.791 Y62.433 E305.86499
G1 X72.232 Y62.698 E305.88557
G1 X71.814 Y62.882 E305.90076
G1 X70.947 Y63.221 E305.93172
G1 X70.366 Y63.420 E305.95215
G1 X69.761 Y63.601 E305.97315
G1 X69.158 Y63.761 E305.99390
G1 X68.533 Y63.902 E306.01521
G1 X68.053 Y63.995 E306.03147
G1 X67.429 Y64.093 E306.05248
G1 X66.446 Y64.204 E306.08539
G1 X66.144 Y64.229 E306.09546
G1 X65.627 Y64.253 E306.11268
G1 X65.491 Y64.258 E306.11720
G1 X65.471 Y64.257 E306.11787
G1 X65.323 Y64.263 E306.12280
G1 X65.307 Y64.262 E306.12333
G1 X65.160 Y64.265 E306.12822
G1 X65.139 Y64.264 E306.12892
G1 X64.987 Y64.266 E306.13398
G1 X63.983 Y64.236 E306.16738
G1 X63.470 Y64.201 E306.18449
G1 X50.094 Y63.196 E306.63063
G1 X39.883 Y62.442 E306.97117
G1 X39.542 Y62.385 E306.98267
G1 X39.243 Y62.267 E306.99336
G1 X38.980 Y62.092 E307.00387
G1 X38.901 Y62.022 E307.00738
G1 X38.764 Y61.868 E307.01424
G1 X38.650 Y61.698 E307.02104
G1 X38.516 Y61.392 E307.03215
G1 X38.458 Y61.166 E307.03991
G1 X38.444 Y61.077 E307.04291
G1 X38.429 Y60.006 E307.07854
G1 X38.430 Y56.116 E307.20792
G1 X44.376 Y56.114 E307.40568
G1 X44.376 Y53.886 E307.47979
G1 X38.429 Y53.884 E307.67758
G0 F4500 X38.970 Y52.953
;TYPE:SKIN
G1 F3000 X39.070 Y52.570 E307.68703
G1 X39.070 Y52.004 E307.69644
G1 X39.070 Y51.438 E307.70586
G1 X39.070 Y50.873 E307.71530
G1 X39.070 Y50.307 E307.72471
G1 X39.070 Y49.741 E307.73412
G1 X39.180 Y49.349 E307.74767
G0 F4500 X38.990 Y48.973
G1 F3000 X39.856 Y48.108 E307.78838
G0 F4500 X44.717 Y53.546
G0 X44.717 Y56.455
G0 X39.170 Y56.712
G1 F3000 X39.070 Y57.095 E307.79782
G1 X39.072 Y57.659 E307.80720
G1 X39.073 Y58.223 E307.81663
G1 X39.076 Y58.787 E307.82601
G1 X39.078 Y59.350 E307.83537
G1 X39.079 Y59.914 E307.84475
G1 X39.081 Y60.478 E307.85408
G1 X39.142 Y60.982 E307.86337
G1 X39.195 Y61.495 E307.87388
G1 X39.739 Y61.517 E307.88528
G1 X39.932 Y61.890 E307.89667
G1 X40.565 Y61.823 E307.90778
G1 X41.092 Y61.861 E307.91899
G1 X41.620 Y61.900 E307.93030
G1 X42.147 Y61.937 E307.94172
G1 X42.675 Y61.976 E307.95326
G1 X43.202 Y62.014 E307.96490
G1 X43.730 Y62.052 E307.97665
G1 X44.257 Y62.090 E307.98851
G1 X44.785 Y62.129 E308.00044
G1 X45.312 Y62.166 E308.01252
G1 X45.840 Y62.204 E308.02472
G1 X46.367 Y62.243 E308.03697
G1 X46.895 Y62.281 E308.04939
G1 X47.423 Y62.319 E308.06193
G1 X47.950 Y62.357 E308.07454
G1 X48.477 Y62.395 E308.08728
G1 X49.005 Y62.433 E308.10014
G1 X49.533 Y62.471 E308.11308
G1 X50.060 Y62.509 E308.12612
G1 X50.588 Y62.548 E308.13924
G1 X51.116 Y62.586 E308.15254
G1 X51.643 Y62.624 E308.16589
G1 X52.171 Y62.662 E308.17936
G1 X52.698 Y62.700 E308.19294
G1 X53.226 Y62.738 E308.20663
G1 X53.753 Y62.776 E308.22042
G1 X54.281 Y62.814 E308.23433
G1 X54.809 Y62.853 E308.24833
G1 X55.336 Y62.891 E308.26243
G1 X55.863 Y62.929 E308.27667
G1 X56.391 Y62.967 E308.29102
G1 X56.918 Y63.005 E308.30543
G1 X57.446 Y63.043 E308.32000
G1 X57.974 Y63.081 E308.33466
G1 X58.501 Y63.120 E308.34942
G1 X59.029 Y63.158 E308.36430
G1 X59.556 Y63.196 E308.37928
G1 X60.084 Y63.234 E308.39438
G1 X60.611 Y63.272 E308.40953
G1 X61.139 Y63.310 E308.42485
G1 X61.667 Y63.348 E308.44026
G1 X62.194 Y63.387 E308.45577
G1 X62.722 Y63.425 E308.47139
G1 X63.249 Y63.463 E308.48712
G1 X63.778 Y63.500 E308.50295
G1 X64.311 Y63.532 E308.51880
G1 X64.861 Y63.548 E308.53495
G1 X65.432 Y63.543 E308.55152
G1 X66.026 Y63.514 E308.56878
G1 X66.643 Y63.463 E308.58654
G1 X67.284 Y63.388 E308.60516
G1 X67.962 Y63.276 E308.62522
G1 X68.668 Y63.135 E308.64629
G1 X69.429 Y62.940 E308.66994
G1 X70.106 Y62.547 E308.69597
G0 F4500 X70.373 Y62.845
G1 F3000 X71.006 Y62.211 E308.72577
G0 F4500 X71.270 Y62.513
G1 F3000 X72.015 Y61.768 E308.76081
G0 F4500 X72.265 Y62.084
G1 F3000 X73.217 Y61.132 E308.80559
G0 F4500 X73.450 Y61.465
G1 F3000 X75.007 Y59.908 E308.87883
G0 F4500 X75.079 Y60.401
G1 F3000 X78.575 Y56.906 E309.04325
G0 F4500 X77.668 Y57.247
G1 F3000 X79.640 Y55.275 E309.13600
G0 F4500 X79.628 Y54.722
G1 F3000 X78.872 Y55.477 E309.17154
G0 F4500 X79.007 Y54.776
G1 F3000 X79.318 Y54.183 E309.19125
G1 X78.706 Y54.229 E309.20977
G1 X78.867 Y53.502 E309.22792
G1 X78.256 Y53.548 E309.24575
G1 X78.390 Y52.848 E309.26329
G1 X77.776 Y52.896 E309.28070
G1 X77.883 Y52.222 E309.29750
G1 X77.271 Y52.269 E309.31403
G1 X77.350 Y51.624 E309.33035
G1 X76.736 Y51.673 E309.34623
G1 X76.790 Y51.053 E309.36196
G1 X76.171 Y51.107 E309.37756
G1 X76.202 Y50.509 E309.39290
G1 X75.580 Y50.567 E309.40796
G1 X75.588 Y49.993 E309.42286
G1 X74.959 Y50.056 E309.43757
G1 X74.947 Y49.502 E309.45213
G1 X74.310 Y49.573 E309.46658
G1 X74.275 Y49.043 E309.48075
G1 X73.631 Y49.121 E309.49483
G1 X73.577 Y48.610 E309.50872
G1 X72.922 Y48.699 E309.52257
G1 X72.850 Y48.206 E309.53641
G1 X72.178 Y48.311 E309.55026
G1 X72.091 Y47.833 E309.56412
G1 X71.410 Y47.948 E309.57779
G1 X71.298 Y47.494 E309.59132
G1 X70.598 Y47.629 E309.60489
G1 X70.474 Y47.187 E309.61875
G1 X69.898 Y47.198 E309.63259
G1 X69.461 Y47.068 E309.64639
G1 X69.013 Y46.951 E309.66048
G1 X68.558 Y46.841 E309.67446
G1 X68.088 Y46.744 E309.68858
G1 X67.608 Y46.659 E309.70285
G1 X67.114 Y46.587 E309.71742
G1 X66.606 Y46.529 E309.73230
G1 X66.086 Y46.484 E309.74745
G1 X65.543 Y46.461 E309.76317
G1 X64.990 Y46.448 E309.77900
G1 X64.410 Y46.463 E309.79583
G1 X63.813 Y46.494 E309.81338
G1 X63.205 Y46.537 E309.83147
G1 X62.597 Y46.579 E309.84931
G1 X61.987 Y46.623 E309.86701
G1 X61.378 Y46.667 E309.88452
G1 X60.767 Y46.711 E309.90194
G1 X60.157 Y46.755 E309.91923
G1 X59.548 Y46.800 E309.93640
G1 X58.938 Y46.844 E309.95343
G1 X58.328 Y46.888 E309.97032
G1 X57.718 Y46.933 E309.98710
G1 X57.108 Y46.977 E310.00378
G1 X56.498 Y47.021 E310.02031
G1 X55.888 Y47.065 E310.03673
G1 X55.278 Y47.109 E310.05300
G1 X54.668 Y47.154 E310.06918
G1 X54.058 Y47.198 E310.08515
G1 X53.448 Y47.242 E310.10101
G1 X52.839 Y47.287 E310.11675
G1 X52.229 Y47.331 E310.13237
G1 X51.619 Y47.375 E310.14782
G1 X51.009 Y47.419 E310.16318
G1 X50.399 Y47.464 E310.17839
G1 X49.789 Y47.508 E310.19344
G1 X49.179 Y47.552 E310.20834
G1 X48.569 Y47.596 E310.22314
G1 X47.959 Y47.640 E310.23779
G1 X47.349 Y47.684 E310.25233
G1 X46.739 Y47.729 E310.26677
G1 X46.129 Y47.773 E310.28101
G1 X45.519 Y47.818 E310.29520
G1 X44.910 Y47.861 E310.30921
G1 X44.299 Y47.906 E310.32312
G1 X43.690 Y47.950 E310.33688
G1 X43.079 Y47.994 E310.35053
G1 X42.470 Y48.038 E310.36404
G1 X41.860 Y48.082 E310.37741
G1 X41.250 Y48.127 E310.39063
G1 X40.640 Y48.171 E310.40375
G1 X40.198 Y48.331 E310.41939
;LAYER:10
G0 F4500 X44.786 Y47.615 Z2.300
;TYPE:FILL
G1 F3000 X60.766 Y63.595 E311.17104
G0 F4500 X63.477 Y63.801
G1 F3000 X76.627 Y50.652 E311.78955
G0 F4500 X74.347 Y48.891
G1 F3000 X79.431 Y53.975 E312.02869
G0 F4500 X79.242 Y53.693
G1 F3000 X69.736 Y63.199 E312.47582
G0 F4500 X71.195 Y62.710
G1 F3000 X55.302 Y46.817 E313.22338
G0 F4500 X58.043 Y46.608
G1 F3000 X42.446 Y62.205 E313.95701
