Recovery File Generated by re:3D's reCovery Application 
Visit re:3D.org for more information 
;Generated with Cura_SteamEngine 15.01
; Default start code
G28 X Y 
M107 ; Turn off fan
G90 ; Absolute positioning
M82 ; Extruder in absolute mode
M190 S50
; Activate all used extruder
M104 T0 S210
G92 E0 ; Reset extruder position
; Wait for all used extruders to reach temperature
M109 T0 S210
;Layer count: 240
;LAYER:0
M107

G1 Z5.900
G0 F9000 X37.165 Y61.393 Z5.900
;TYPE:WALL-INNER
G1 F3600 X37.056 Y61.394 E723.62698
G1 X37.055 Y53.867 E723.87733
G1 X37.056 Y53.750 E723.88122
G1 X37.055 Y53.543 E723.88810
G1 X37.056 Y50.043 E724.00451
G1 X37.191 Y50.062 E724.00905
G1 X37.163 Y49.320 E724.03375
G1 X37.167 Y48.626 E724.05683
G1 X37.055 Y48.612 E724.06058
G1 X37.055 Y48.600 E724.06098
G1 X37.191 Y48.600 E724.06550
G1 X37.162 Y47.980 E724.08615
G1 X37.164 Y47.377 E724.10620
G1 X37.192 Y47.065 E724.11662
G1 X37.234 Y46.899 E724.12232
G1 X37.327 Y46.686 E724.13005
G1 X37.535 Y46.413 E724.14146
G1 X37.706 Y46.275 E724.14877
G1 X37.835 Y46.204 E724.15367
G1 X38.156 Y46.101 E724.16488
G1 X39.509 Y45.966 E724.21011
G1 X40.470 Y45.874 E724.24222
G1 X41.073 Y45.815 E724.26237
G1 X41.675 Y45.758 E724.28248
G1 X57.936 Y44.180 E724.82586
G1 X62.252 Y43.753 E724.97012
G1 X62.885 Y43.689 E724.99128
G1 X63.433 Y43.641 E725.00957
G1 X64.529 Y43.590 E725.04606
G1 X64.992 Y43.582 E725.06147
G1 X65.112 Y43.583 E725.06546
G1 X65.184 Y43.582 E725.06785
G1 X65.704 Y43.592 E725.08515
G1 X66.277 Y43.616 E725.10423
G1 X66.882 Y43.659 E725.12440
G1 X67.455 Y43.713 E725.14354
G1 X68.060 Y43.788 E725.16382
G1 X68.630 Y43.873 E725.18299
G1 X69.214 Y43.977 E725.20272
G1 X69.813 Y44.101 E725.22306
G1 X70.396 Y44.236 E725.24296
G1 X70.956 Y44.382 E725.26221
G1 X71.545 Y44.554 E725.28262
G1 X72.101 Y44.733 E725.30205
G1 X72.682 Y44.935 E725.32251
G1 X73.224 Y45.142 E725.34180
G1 X73.816 Y45.387 E725.36311
G1 X74.379 Y45.638 E725.38362
G1 X74.905 Y45.892 E725.40304
G1 X75.455 Y46.174 E725.42360
G1 X75.981 Y46.463 E725.44356
G1 X76.501 Y46.767 E725.46360
G1 X76.998 Y47.076 E725.48306
G1 X77.514 Y47.418 E725.50365
G1 X78.007 Y47.764 E725.52368
G1 X78.478 Y48.113 E725.54318
G1 X78.965 Y48.496 E725.56379
G1 X79.416 Y48.871 E725.58330
G1 X79.881 Y49.279 E725.60387
G1 X80.311 Y49.676 E725.62334
G1 X80.741 Y50.098 E725.64338
G1 X81.159 Y50.533 E725.66344
G1 X81.564 Y50.976 E725.68340
G1 X81.968 Y51.445 E725.70399
G1 X82.339 Y51.898 E725.72347
G1 X82.717 Y52.387 E725.74402
G1 X83.061 Y52.859 E725.76345
G1 X83.411 Y53.366 E725.78394
G1 X83.729 Y53.855 E725.80334
G1 X84.041 Y54.365 E725.82323
G1 X84.180 Y54.609 E725.83257
G1 X84.251 Y54.779 E725.83869
G1 X84.286 Y54.985 E725.84564
G1 X84.271 Y55.133 E725.85059
G1 X84.177 Y55.397 E725.85991
G1 X83.900 Y55.868 E725.87809
G1 X83.579 Y56.376 E725.89807
G1 X83.245 Y56.875 E725.91804
G1 X82.880 Y57.391 E725.93907
G1 X82.538 Y57.847 E725.95803
G1 X82.154 Y58.331 E725.97857
G1 X81.777 Y58.780 E725.99807
G1 X81.377 Y59.231 E726.01812
G1 X80.953 Y59.683 E726.03874
G1 X80.542 Y60.098 E726.05816
G1 X80.106 Y60.514 E726.07821
G1 X79.658 Y60.919 E726.09829
G1 X79.187 Y61.322 E726.11891
G1 X78.731 Y61.689 E726.13838
G1 X78.252 Y62.055 E726.15843
G1 X77.752 Y62.415 E726.17892
G1 X77.251 Y62.757 E726.19910
G1 X76.756 Y63.074 E726.21865
G1 X76.236 Y63.390 E726.23889
G1 X75.705 Y63.690 E726.25917
G1 X75.174 Y63.972 E726.27917
G1 X74.649 Y64.233 E726.29867
G1 X74.089 Y64.493 E726.31920
G1 X73.630 Y64.692 E726.33584
G1 X73.147 Y64.888 E726.35318
G1 X72.644 Y65.077 E726.37105
G1 X72.093 Y65.270 E726.39047
G1 X71.507 Y65.456 E726.41092
G1 X70.935 Y65.622 E726.43073
G1 X70.371 Y65.770 E726.45012
G1 X69.775 Y65.907 E726.47046
G1 X69.196 Y66.026 E726.49012
G1 X68.605 Y66.130 E726.51008
G1 X68.034 Y66.216 E726.52929
G1 X67.431 Y66.288 E726.54949
G1 X66.855 Y66.343 E726.56873
G1 X66.262 Y66.383 E726.58850
G1 X65.662 Y66.407 E726.60847
G1 X65.198 Y66.417 E726.62391
G1 X65.077 Y66.416 E726.62793
G1 X65.004 Y66.418 E726.63036
G1 X64.883 Y66.415 E726.63439
G1 X64.810 Y66.416 E726.63681
G1 X64.293 Y66.403 E726.65401
G1 X63.712 Y66.376 E726.67336
G1 X63.138 Y66.334 E726.69250
G1 X61.473 Y66.169 E726.74815
G1 X60.866 Y66.110 E726.76844
G1 X59.890 Y66.012 E726.80106
G1 X58.676 Y65.894 E726.84163
G1 X56.735 Y65.701 E726.90651
G1 X55.525 Y65.585 E726.94693
G1 X53.592 Y65.394 E727.01154
G1 X38.565 Y63.941 E727.51367
G1 X38.068 Y63.878 E727.53033
G1 X37.933 Y63.837 E727.53503
G1 X37.706 Y63.723 E727.54347
G1 X37.527 Y63.579 E727.55112
G1 X37.374 Y63.392 E727.55915
G1 X37.236 Y63.115 E727.56944
G1 X37.188 Y62.924 E727.57599
G1 X37.166 Y62.747 E727.58193
G1 X37.163 Y62.495 E727.59031
G1 X37.165 Y61.393 E727.62696
G0 F9000 X38.508 Y56.530
G1 F3600 X38.693 Y56.574 E727.63329
G1 X38.995 Y56.602 E727.64337
G1 X39.388 Y56.556 E727.65653
G1 X39.682 Y56.454 E727.66688
G1 X40.000 Y56.263 E727.67922
G1 X40.149 Y56.137 E727.68571
G1 X40.403 Y55.823 E727.69915
G1 X40.537 Y55.550 E727.70926
G1 X40.611 Y55.271 E727.71886
G1 X40.636 Y54.987 E727.72834
G1 X40.606 Y54.700 E727.73794
G1 X40.526 Y54.424 E727.74750
G1 X40.391 Y54.156 E727.75748
G1 X40.124 Y53.833 E727.77142
G1 X39.772 Y53.587 E727.78570
G1 X39.393 Y53.444 E727.79917
G1 X39.107 Y53.401 E727.80879
G1 X38.936 Y53.400 E727.81448
G1 X38.781 Y53.412 E727.81965
G1 X38.502 Y53.469 E727.82912
G1 X38.142 Y53.625 E727.84217
G1 X37.891 Y53.810 E727.85254
G1 X37.702 Y54.002 E727.86150
G1 X37.538 Y54.247 E727.87131
G1 X37.389 Y54.642 E727.88535
G1 X37.347 Y54.947 E727.89559
G1 X37.350 Y54.983 E727.89679
G1 X37.348 Y55.095 E727.90052
G1 X37.421 Y55.483 E727.91365
G1 X37.547 Y55.771 E727.92411
G1 X37.708 Y55.998 E727.93336
G1 X37.822 Y56.126 E727.93906
G1 X38.133 Y56.371 E727.95223
G1 X38.508 Y56.530 E727.96578
G0 F9000 X38.772 Y56.178
;TYPE:WALL-OUTER
G1 F2700 X38.852 Y56.192 E727.96848
G1 X38.985 Y56.201 E727.97291
G1 X39.298 Y56.164 E727.98340
G1 X39.511 Y56.090 E727.99090
G1 X39.767 Y55.936 E728.00083
G1 X39.862 Y55.856 E728.00496
G1 X40.064 Y55.607 E728.01563
G1 X40.160 Y55.409 E728.02295
G1 X40.216 Y55.202 E728.03008
G1 X40.234 Y54.990 E728.03716
G1 X40.212 Y54.777 E728.04428
G1 X40.152 Y54.571 E728.05141
G1 X40.054 Y54.376 E728.05867
G1 X39.850 Y54.130 E728.06930
G1 X39.584 Y53.944 E728.08010
G1 X39.292 Y53.833 E728.09049
G1 X39.076 Y53.801 E728.09775
G1 X38.949 Y53.800 E728.10197
G1 X38.836 Y53.809 E728.10574
G1 X38.623 Y53.852 E728.11297
G1 X38.343 Y53.974 E728.12313
G1 X38.154 Y54.113 E728.13093
G1 X38.013 Y54.256 E728.13761
G1 X37.892 Y54.437 E728.14485
G1 X37.779 Y54.734 E728.15542
G1 X37.748 Y54.953 E728.16278
G1 X37.750 Y54.970 E728.16335
G1 X37.749 Y55.060 E728.16634
G1 X37.806 Y55.364 E728.17663
G1 X37.895 Y55.568 E728.18403
G1 X38.094 Y55.830 E728.19498
G1 X38.340 Y56.024 E728.20540
G1 X38.633 Y56.149 E728.21599
G1 X38.754 Y56.177 E728.22012
G1 X38.772 Y56.178 E728.22072
G0 F9000 X38.738 Y56.477
G0 X37.708 Y55.998
G0 X36.955 Y53.856
G0 X36.655 Y53.864
G1 F2700 X36.656 Y53.749 E728.22455
G1 X36.655 Y53.543 E728.23140
G1 X36.656 Y49.584 E728.36307
G1 X36.773 Y49.600 E728.36700
G1 X36.763 Y49.344 E728.37552
G1 X36.765 Y48.977 E728.38773
G1 X36.655 Y48.963 E728.39142
G1 X36.656 Y48.200 E728.41680
G1 X36.772 Y48.200 E728.42065
G1 X36.762 Y47.979 E728.42801
G1 X36.764 Y47.351 E728.44890
G1 X36.795 Y47.002 E728.46055
G1 X36.855 Y46.767 E728.46862
G1 X36.979 Y46.482 E728.47896
G1 X37.247 Y46.132 E728.49362
G1 X37.492 Y45.935 E728.50408
G1 X37.672 Y45.836 E728.51091
G1 X38.091 Y45.705 E728.52551
G1 X41.035 Y45.417 E728.62389
G1 X60.445 Y43.530 E729.27252
G1 X62.853 Y43.290 E729.35300
G1 X63.396 Y43.242 E729.37113
G1 X63.918 Y43.211 E729.38853
G1 X64.515 Y43.190 E729.40840
G1 X64.988 Y43.182 E729.42413
G1 X65.111 Y43.183 E729.42822
G1 X65.187 Y43.182 E729.43075
G1 X65.706 Y43.192 E729.44801
G1 X66.305 Y43.218 E729.46796
G1 X66.910 Y43.260 E729.48813
G1 X67.504 Y43.317 E729.50797
G1 X68.109 Y43.391 E729.52825
G1 X68.705 Y43.480 E729.54829
G1 X69.295 Y43.585 E729.56822
G1 X69.894 Y43.709 E729.58857
G1 X70.486 Y43.846 E729.60878
G1 X71.068 Y43.998 E729.62878
G1 X71.657 Y44.170 E729.64919
G1 X72.232 Y44.354 E729.66927
G1 X72.813 Y44.557 E729.68974
G1 X73.377 Y44.773 E729.70983
G1 X73.983 Y45.024 E729.73164
G1 X74.542 Y45.273 E729.75200
G1 X75.088 Y45.536 E729.77216
G1 X75.638 Y45.818 E729.79271
G1 X76.169 Y46.109 E729.81285
G1 X76.698 Y46.419 E729.83325
G1 X77.223 Y46.746 E729.85382
G1 X77.730 Y47.081 E729.87403
G1 X78.233 Y47.434 E729.89447
G1 X78.725 Y47.798 E729.91482
G1 X79.208 Y48.178 E729.93526
G1 X79.684 Y48.574 E729.95586
G1 X80.141 Y48.975 E729.97608
G1 X80.591 Y49.391 E729.99646
G1 X81.029 Y49.821 E730.01688
G1 X81.454 Y50.263 E730.03727
G1 X81.867 Y50.715 E730.05764
G1 X82.268 Y51.180 E730.07806
G1 X82.659 Y51.658 E730.09860
G1 X83.031 Y52.138 E730.11880
G1 X83.390 Y52.632 E730.13911
G1 X83.737 Y53.134 E730.15940
G1 X84.070 Y53.646 E730.17972
G1 X84.388 Y54.166 E730.19999
G1 X84.541 Y54.432 E730.21020
G1 X84.633 Y54.657 E730.21828
G1 X84.687 Y54.967 E730.22875
G1 X84.686 Y55.002 E730.22991
G1 X84.687 Y55.032 E730.23091
G1 X84.663 Y55.227 E730.23745
G1 X84.541 Y55.568 E730.24949
G1 X84.238 Y56.082 E730.26934
G1 X83.912 Y56.598 E730.28964
G1 X83.572 Y57.106 E730.30997
G1 X83.212 Y57.614 E730.33068
G1 X83.191 Y57.647 E730.33198
G1 X82.851 Y58.096 E730.35071
G1 X82.471 Y58.575 E730.37105
G1 X82.076 Y59.045 E730.39147
G1 X81.669 Y59.504 E730.41187
G1 X81.249 Y59.952 E730.43229
G1 X80.818 Y60.387 E730.45266
G1 X80.370 Y60.814 E730.47325
G1 X79.918 Y61.223 E730.49352
G1 X79.452 Y61.622 E730.51393
G1 X78.974 Y62.007 E730.53434
G1 X78.486 Y62.380 E730.55477
G1 X77.987 Y62.740 E730.57523
G1 X77.475 Y63.089 E730.59584
G1 X76.964 Y63.416 E730.61602
G1 X76.435 Y63.738 E730.63662
G1 X75.906 Y64.037 E730.65683
G1 X75.360 Y64.326 E730.67738
G1 X74.813 Y64.598 E730.69769
G1 X74.262 Y64.854 E730.71790
G1 X73.781 Y65.063 E730.73535
G1 X73.288 Y65.263 E730.75304
G1 X72.789 Y65.450 E730.77076
G1 X72.214 Y65.651 E730.79102
G1 X71.628 Y65.837 E730.81147
G1 X71.043 Y66.007 E730.83173
G1 X70.461 Y66.159 E730.85174
G1 X69.864 Y66.297 E730.87212
G1 X69.275 Y66.418 E730.89212
G1 X68.679 Y66.523 E730.91225
G1 X68.081 Y66.613 E730.93236
G1 X67.478 Y66.685 E730.95256
G1 X66.882 Y66.743 E730.97248
G1 X66.277 Y66.783 E730.99264
G1 X65.678 Y66.807 E731.01258
G1 X65.203 Y66.817 E731.02838
G1 X65.080 Y66.816 E731.03248
G1 X65.004 Y66.818 E731.03500
G1 X64.881 Y66.815 E731.03910
G1 X64.804 Y66.816 E731.04166
G1 X64.287 Y66.803 E731.05886
G1 X63.686 Y66.775 E731.07887
G1 X63.099 Y66.732 E731.09845
G1 X38.514 Y64.338 E731.92001
G1 X37.985 Y64.271 E731.93775
G1 X37.786 Y64.211 E731.94466
G1 X37.489 Y64.062 E731.95571
G1 X37.243 Y63.864 E731.96622
G1 X37.036 Y63.611 E731.97709
G1 X36.877 Y63.297 E731.98880
G1 X36.855 Y63.239 E731.99086
G1 X36.794 Y62.997 E731.99916
G1 X36.766 Y62.775 E732.00660
G1 X36.763 Y62.494 E732.01595
G1 X36.764 Y61.797 E732.03913
G1 X36.656 Y61.798 E732.04272
G1 X36.655 Y53.864 E732.30661
G0 F9000 X36.955 Y53.856
G0 X37.454 Y55.883
;TYPE:FILL
G1 F4800 X37.195 Y56.142 E732.31879
G0 F9000 X37.194 Y56.993
G1 F4800 X44.587 Y64.386 E732.66654
G0 F9000 X45.802 Y64.505
G1 F4800 X66.535 Y43.773 E733.64173
G0 F9000 X63.573 Y43.774
G1 F4800 X80.112 Y60.313 E734.41967
G0 F9000 X82.765 Y57.309
G1 F4800 X69.670 Y44.214 E735.03562
G0 F9000 X71.329 Y44.636
G1 F4800 X50.958 Y65.007 E735.99381
G0 F9000 X50.854 Y64.996
G1 F4800 X40.768 Y54.910 E736.46823
G0 F9000 X39.859 Y53.478
G1 F4800 X48.061 Y45.276 E736.85402
G0 F9000 X48.102 Y45.273
G1 F4800 X68.783 Y65.955 E737.82682
G0 F9000 X66.724 Y66.211
G1 F4800 X81.646 Y51.289 E738.52870
G0 F9000 X84.005 Y54.587
G1 F4800 X74.397 Y64.195 E738.98063
G0 F9000 X73.199 Y64.714
G1 F4800 X53.257 Y44.771 E739.91867
G0 F9000 X54.327 Y44.667
G1 F4800 X37.305 Y61.689 E740.71933
G0 F9000 X37.308 Y62.764
G1 F4800 X38.311 Y63.767 E740.76651
G0 F9000 X40.648 Y64.003
G1 F4800 X60.594 Y44.057 E741.70471
G0 F9000 X75.346 Y46.275
G1 F4800 X56.113 Y65.509 E742.60939
G0 F9000 X57.121 Y65.606
G1 F4800 X37.862 Y46.348 E743.51525
G0 F9000 X41.794 Y45.886
G1 F4800 X37.195 Y50.485 E743.73157
G0 F9000 X37.195 Y51.337
G1 F4800 X39.117 Y53.259 E743.82198
G0 F9000 X42.946 Y45.775
G1 F4800 X63.382 Y66.211 E744.78323
G0 F9000 X61.267 Y66.011
G1 F4800 X78.763 Y48.515 E745.60618
G0 F9000 X76.934 Y62.792
G1 F4800 X58.412 Y44.270 E746.47740
G0 F9000 X58.154 Y44.295
;TYPE:SKIN
G1 F2700 X58.540 Y44.398 E746.48946
G1 X59.057 Y44.349 E746.50155
G1 X59.573 Y44.300 E746.51371
G1 X59.961 Y44.405 E746.52707
G0 F9000 X57.895 Y44.601
G1 F2700 X57.508 Y44.497 E746.53914
G1 X56.992 Y44.547 E746.55108
G1 X56.476 Y44.596 E746.56297
G1 X55.960 Y44.646 E746.57483
G1 X55.444 Y44.696 E746.58659
G1 X54.927 Y44.745 E746.59834
G1 X54.412 Y44.795 E746.60996
G1 X53.895 Y44.844 E746.62157
G1 X53.379 Y44.894 E746.63308
G1 X52.863 Y44.943 E746.64455
G1 X52.347 Y44.993 E746.65593
G1 X51.831 Y45.043 E746.66731
G1 X51.315 Y45.092 E746.67864
G1 X50.798 Y45.142 E746.68987
G1 X50.282 Y45.191 E746.70108
G1 X49.766 Y45.240 E746.71220
G1 X49.250 Y45.290 E746.72327
G1 X48.734 Y45.340 E746.73431
G1 X48.217 Y45.389 E746.74528
G1 X47.702 Y45.439 E746.75616
G1 X47.185 Y45.488 E746.76704
G1 X46.669 Y45.538 E746.77782
G1 X46.153 Y45.588 E746.78855
G1 X45.637 Y45.637 E746.79924
G1 X45.121 Y45.686 E746.80989
G1 X44.605 Y45.736 E746.82045
G1 X44.089 Y45.786 E746.83097
G1 X43.573 Y45.835 E746.84144
G1 X43.056 Y45.885 E746.85185
G1 X42.540 Y45.934 E746.86219
G1 X42.024 Y45.984 E746.87245
G1 X41.508 Y46.033 E746.88267
G1 X40.992 Y46.083 E746.89284
G1 X40.475 Y46.132 E746.90299
G1 X39.959 Y46.182 E746.91303
G1 X39.443 Y46.231 E746.92303
G1 X38.927 Y46.281 E746.93294
G1 X38.418 Y46.337 E746.94282
G1 X37.883 Y46.368 E746.95218
G1 X37.767 Y46.818 E746.96161
G1 X37.378 Y46.995 E746.97099
G1 X37.397 Y47.579 E746.97915
G1 X37.393 Y48.141 E746.98691
G1 X37.384 Y48.698 E746.99377
G1 X37.366 Y48.962 E747.00257
G0 F9000 X37.194 Y55.579
G1 F2700 X37.276 Y55.943 E747.01023
G1 X37.276 Y56.509 E747.01790
G1 X37.276 Y57.075 E747.02562
G1 X37.276 Y57.641 E747.03334
G1 X37.277 Y58.208 E747.04112
G1 X37.277 Y58.773 E747.04882
G1 X37.278 Y59.339 E747.05659
G1 X37.278 Y59.905 E747.06440
G1 X37.278 Y60.471 E747.07221
G1 X37.333 Y61.092 E747.08004
G1 X37.384 Y61.709 E747.08756
G1 X37.385 Y62.275 E747.09513
G1 X37.453 Y62.909 E747.10425
G1 X38.159 Y63.615 E747.12957
G1 X38.822 Y63.712 E747.14183
G1 X39.448 Y63.773 E747.15349
G1 X40.074 Y63.832 E747.16526
G1 X40.699 Y63.892 E747.17711
G1 X41.325 Y63.952 E747.18903
G1 X41.951 Y64.012 E747.20106
G1 X42.576 Y64.072 E747.21317
G1 X43.202 Y64.132 E747.22535
G1 X43.828 Y64.193 E747.23770
G1 X44.453 Y64.252 E747.25012
G1 X45.079 Y64.312 E747.26262
G1 X45.705 Y64.373 E747.27527
G1 X46.330 Y64.432 E747.28801
G1 X46.956 Y64.492 E747.30082
G1 X47.582 Y64.552 E747.31374
G1 X48.207 Y64.612 E747.32674
G1 X48.833 Y64.672 E747.33986
G1 X49.459 Y64.732 E747.35304
G1 X50.084 Y64.792 E747.36635
G1 X50.710 Y64.852 E747.37979
G1 X51.335 Y64.912 E747.39331
G1 X51.961 Y64.972 E747.40696
G1 X52.587 Y65.032 E747.42066
G1 X53.212 Y65.092 E747.43450
G1 X53.838 Y65.152 E747.44840
G1 X54.464 Y65.212 E747.46242
G1 X55.089 Y65.272 E747.47657
G1 X55.715 Y65.332 E747.49079
G1 X56.341 Y65.392 E747.50512
G1 X56.966 Y65.452 E747.51953
G1 X57.592 Y65.512 E747.53401
G1 X58.218 Y65.572 E747.54860
G1 X58.843 Y65.631 E747.56327
G1 X59.469 Y65.692 E747.57812
G1 X60.095 Y65.752 E747.59302
G1 X60.720 Y65.811 E747.60801
G1 X61.346 Y65.872 E747.62312
G1 X61.971 Y65.931 E747.63826
G1 X62.597 Y65.991 E747.65358
G1 X63.221 Y66.050 E747.66895
G1 X63.830 Y66.092 E747.68403
G1 X64.418 Y66.115 E747.69851
G1 X64.995 Y66.126 E747.71276
G1 X65.553 Y66.119 E747.72645
G1 X66.098 Y66.098 E747.73983
G1 X66.632 Y66.066 E747.75304
G1 X67.153 Y66.022 E747.76600
G1 X67.664 Y65.967 E747.77878
G1 X68.162 Y65.900 E747.79131
G1 X68.651 Y65.822 E747.80375
G1 X69.130 Y65.735 E747.81609
G1 X69.600 Y65.640 E747.82837
G1 X70.061 Y65.535 E747.84056
G1 X70.515 Y65.423 E747.85273
G1 X70.959 Y65.302 E747.86482
G1 X71.394 Y65.171 E747.87683
G1 X71.823 Y65.035 E747.88885
G1 X72.248 Y64.894 E747.90087
